; generated by PrusaSlicer 2.3.0+win64 on 2021-05-13 at 16:01:54 UTC

; 

; external perimeters extrusion width = 0.45mm
; perimeters extrusion width = 0.45mm
; infill extrusion width = 0.45mm
; solid infill extrusion width = 0.45mm
; top infill extrusion width = 0.40mm
; first layer extrusion width = 0.42mm

M73 P0 R176
M73 Q0 S179
M201 X1000 Y1000 Z200 E5000 ; sets maximum accelerations, mm/sec^2
M203 X200 Y200 Z12 E120 ; sets maximum feedrates, mm/sec
M204 P1250 R1250 T1250 ; sets acceleration (P, T) and retract acceleration (R), mm/sec^2
M205 X8.00 Y8.00 Z0.40 E4.50 ; sets the jerk limits, mm/sec
M205 S0 T0 ; sets the minimum extruding and travel feed rate, mm/sec
M107
;TYPE:Custom
M862.3 P "MK3S" ; printer model check
M862.1 P0.4 ; nozzle diameter check
M115 U3.9.3 ; tell printer latest fw version
G90 ; use absolute coordinates
M83 ; extruder relative mode
M104 S215 ; set extruder temp
M140 S60 ; set bed temp
M190 S60 ; wait for bed temp
M109 S215 ; wait for extruder temp
G28 W ; home all without mesh bed level
G80 ; mesh bed leveling
G1 Y-3.0 F1000.0 ; go outside print area
G92 E0.0
G1 X60.0 E9.0 F1000.0 ; intro line
G1 X100.0 E12.5 F1000.0 ; intro line
G92 E0.0
M221 S95

; Don't change E values below. Excessive value can damage the printer.
M907 E430 ; set extruder motor current
G21 ; set units to millimeters
G90 ; use absolute coordinates
M83 ; use relative distances for extrusion
M900 K0.05 ; Filament gcode LA 1.5
M900 K30 ; Filament gcode LA 1.0
;LAYER_CHANGE
;Z:0.2
;HEIGHT:0.2
;BEFORE_LAYER_CHANGE
G92 E0.0
;0.2


G1 E-0.80000 F2100.000
G1 Z0.400 F10800.000
;AFTER_LAYER_CHANGE
;0.2
G1 X54.911 Y70.061
G1 Z0.200
G1 E0.80000 F2100.000
M204 S1000
;TYPE:Skirt
;WIDTH:0.42
G1 F1200.000
G1 X55.676 Y69.511 E0.02953
G1 X56.414 Y69.227 E0.02479
G1 X57.234 Y69.124 E0.02594
G1 X192.758 Y69.123 E4.24924
G1 X193.443 Y69.196 E0.02162
G1 X193.918 Y69.336 E0.01550
G1 X194.522 Y69.623 E0.02098
G1 X195.129 Y70.099 E0.02420
G1 X195.569 Y70.639 E0.02182
G1 X195.807 Y71.068 E0.01538
G1 X196.034 Y71.697 E0.02098
G1 X196.130 Y72.443 E0.02357
G1 X196.130 Y137.565 E2.04186
G1 X196.003 Y138.419 E0.02708
G1 X195.643 Y139.248 E0.02835
G1 X195.089 Y139.939 E0.02776
G1 X194.324 Y140.489 E0.02953
G1 X193.586 Y140.773 E0.02479
G1 X192.766 Y140.876 E0.02594
G1 X57.223 Y140.877 E4.24984
G1 X56.345 Y140.755 E0.02780
G1 X55.511 Y140.397 E0.02847
G1 X54.812 Y139.841 E0.02800
G1 X54.259 Y139.074 E0.02965
G1 X53.974 Y138.336 E0.02479
G1 X53.870 Y137.519 E0.02582
G1 X53.869 Y72.451 E2.04018
G1 X53.994 Y71.588 E0.02732
G1 X54.355 Y70.755 E0.02847
G1 X54.873 Y70.108 E0.02599
; printing object ESP30-CAM-DOORBELL-back-v2.stl id:0 copy 0
;WIPE_START
G1 F8640.000
G1 X55.676 Y69.511 E-0.23083
G1 X56.414 Y69.227 E-0.18259
G1 X57.234 Y69.124 E-0.19101
G1 X57.908 Y69.124 E-0.15557
;WIPE_END
G1 E-0.04000 F2100.000
G1 Z0.600 F10800.000
G1 X104.595 Y96.655
G1 Z0.200
G1 E0.80000 F2100.000
;TYPE:Perimeter
G1 F1200.000
G1 X105.614 Y95.207 E0.05551
G1 X106.788 Y93.882 E0.05551
G1 X108.104 Y92.697 E0.05551
G1 X109.544 Y91.666 E0.05554
G1 X111.203 Y90.750 E0.05941
G1 X112.723 Y90.120 E0.05161
G1 X114.421 Y89.623 E0.05547
G1 X116.165 Y89.320 E0.05550
G1 X117.507 Y89.238 E0.04215
G1 X118.063 Y89.214 E0.01747
G1 X119.828 Y89.320 E0.05542
G1 X121.572 Y89.624 E0.05551
G1 X123.270 Y90.120 E0.05547
G1 X124.789 Y90.750 E0.05157
G1 X126.341 Y91.599 E0.05547
G1 X127.789 Y92.618 E0.05551
G1 X129.114 Y93.792 E0.05551
G1 X130.299 Y95.108 E0.05551
G1 X131.330 Y96.548 E0.05554
G1 X132.246 Y98.207 E0.05941
G1 X132.876 Y99.727 E0.05161
G1 X133.373 Y101.425 E0.05547
G1 X133.676 Y103.169 E0.05551
G1 X133.782 Y104.936 E0.05551
G1 X133.690 Y106.704 E0.05551
G1 X133.401 Y108.452 E0.05554
G1 X132.876 Y110.273 E0.05941
G1 X132.246 Y111.793 E0.05161
G1 X131.397 Y113.345 E0.05547
G1 X130.378 Y114.793 E0.05551
G1 X129.204 Y116.118 E0.05551
G1 X127.888 Y117.303 E0.05551
G1 X126.448 Y118.334 E0.05555
G1 X124.789 Y119.250 E0.05941
G1 X123.269 Y119.880 E0.05161
G1 X121.571 Y120.377 E0.05547
G1 X119.827 Y120.680 E0.05551
G1 X118.060 Y120.786 E0.05551
G1 X116.292 Y120.694 E0.05551
G1 X114.544 Y120.405 E0.05554
G1 X112.723 Y119.880 E0.05941
G1 X111.203 Y119.250 E0.05161
G1 X109.651 Y118.401 E0.05547
G1 X108.203 Y117.382 E0.05551
G1 X106.878 Y116.208 E0.05551
G1 X105.693 Y114.892 E0.05551
G1 X104.662 Y113.452 E0.05554
G1 X103.746 Y111.793 E0.05941
G1 X103.116 Y110.273 E0.05161
G1 X102.619 Y108.575 E0.05547
G1 X102.316 Y106.831 E0.05551
G1 X102.210 Y105.064 E0.05551
G1 X102.302 Y103.296 E0.05551
G1 X102.591 Y101.548 E0.05554
G1 X103.116 Y99.727 E0.05941
G1 X103.746 Y98.207 E0.05161
G1 X104.567 Y96.708 E0.05359
G1 X104.897 Y96.889 F10800.000
;TYPE:External perimeter
G1 F1200.000
G1 X105.910 Y95.441 E0.05539
G1 X107.056 Y94.148 E0.05418
G1 X108.340 Y92.992 E0.05418
G1 X109.746 Y91.986 E0.05419
G1 X111.366 Y91.090 E0.05805
G1 X112.849 Y90.476 E0.05030
G1 X114.507 Y89.991 E0.05417
G1 X116.209 Y89.695 E0.05418
G1 X117.526 Y89.614 E0.04138
G1 X118.060 Y89.591 E0.01675
G1 X119.784 Y89.695 E0.05415
G1 X121.486 Y89.992 E0.05418
G1 X123.144 Y90.477 E0.05417
G1 X124.626 Y91.090 E0.05029
G1 X126.141 Y91.920 E0.05417
G1 X127.555 Y92.914 E0.05418
G1 X128.848 Y94.060 E0.05418
G1 X130.004 Y95.344 E0.05418
G1 X131.010 Y96.750 E0.05419
G1 X131.906 Y98.370 E0.05805
G1 X132.520 Y99.853 E0.05030
G1 X133.005 Y101.511 E0.05417
G1 X133.301 Y103.213 E0.05418
G1 X133.405 Y104.938 E0.05418
G1 X133.315 Y106.664 E0.05418
G1 X133.032 Y108.369 E0.05419
G1 X132.520 Y110.148 E0.05805
G1 X131.906 Y111.630 E0.05030
G1 X131.076 Y113.145 E0.05417
G1 X130.082 Y114.559 E0.05418
G1 X128.936 Y115.852 E0.05418
G1 X127.652 Y117.008 E0.05418
G1 X126.246 Y118.014 E0.05419
G1 X124.626 Y118.910 E0.05805
G1 X123.143 Y119.524 E0.05030
G1 X121.485 Y120.009 E0.05417
G1 X119.783 Y120.305 E0.05418
G1 X118.058 Y120.409 E0.05418
G1 X116.332 Y120.319 E0.05418
G1 X114.627 Y120.036 E0.05419
G1 X112.848 Y119.524 E0.05805
G1 X111.366 Y118.910 E0.05030
G1 X109.851 Y118.080 E0.05417
G1 X108.437 Y117.086 E0.05418
G1 X107.144 Y115.940 E0.05418
G1 X105.988 Y114.656 E0.05418
G1 X104.982 Y113.250 E0.05419
G1 X104.086 Y111.630 E0.05805
G1 X103.472 Y110.147 E0.05030
G1 X102.987 Y108.489 E0.05417
G1 X102.691 Y106.787 E0.05418
G1 X102.587 Y105.062 E0.05418
G1 X102.677 Y103.336 E0.05418
G1 X102.960 Y101.631 E0.05419
G1 X103.472 Y99.852 E0.05805
G1 X104.086 Y98.370 E0.05030
G1 X104.869 Y96.941 E0.05107
G1 X104.709 Y96.536 F10800.000
;WIPE_START
G1 F8640.000
G1 X105.910 Y95.441 E-0.42167
G1 X106.882 Y94.345 E-0.33833
;WIPE_END
G1 E-0.04000 F2100.000
G1 Z0.600 F10800.000
G1 X74.733 Y84.147
G1 Z0.200
G1 E0.80000 F2100.000
;TYPE:Perimeter
G1 F1200.000
G1 X74.368 Y84.622 E0.01878
G1 X73.893 Y84.987 E0.01878
G1 X73.340 Y85.216 E0.01878
G1 X72.746 Y85.294 E0.01878
G1 X72.152 Y85.216 E0.01878
G1 X71.599 Y84.987 E0.01878
G1 X71.124 Y84.622 E0.01878
G1 X70.759 Y84.147 E0.01878
G1 X70.530 Y83.594 E0.01878
G1 X70.452 Y83.000 E0.01878
G1 X70.530 Y82.406 E0.01878
G1 X70.736 Y81.909 E0.01688
M73 Q0 S178
G1 X71.117 Y81.383 E0.02037
G1 X71.599 Y81.013 E0.01903
G1 X72.152 Y80.784 E0.01878
G1 X72.686 Y80.714 E0.01688
G1 X73.332 Y80.781 E0.02037
G1 X73.893 Y81.013 E0.01903
G1 X74.368 Y81.378 E0.01878
G1 X74.733 Y81.853 E0.01878
G1 X74.962 Y82.406 E0.01878
G1 X75.040 Y83.000 E0.01878
G1 X74.962 Y83.594 E0.01878
G1 X74.756 Y84.091 E0.01689
G1 X74.407 Y83.947 F10800.000
;TYPE:External perimeter
G1 F1200.000
G1 X74.099 Y84.353 E0.01598
G1 X73.703 Y84.657 E0.01566
G1 X73.241 Y84.848 E0.01566
G1 X72.746 Y84.914 E0.01566
G1 X72.251 Y84.848 E0.01566
G1 X71.789 Y84.657 E0.01566
G1 X71.393 Y84.353 E0.01566
G1 X71.089 Y83.957 E0.01566
G1 X70.898 Y83.495 E0.01566
G1 X70.832 Y83.000 E0.01566
G1 X70.898 Y82.505 E0.01566
G1 X71.068 Y82.094 E0.01393
G1 X71.391 Y81.649 E0.01726
G1 X71.789 Y81.343 E0.01575
G1 X72.251 Y81.152 E0.01566
G1 X72.691 Y81.094 E0.01393
G1 X73.239 Y81.151 E0.01726
G1 X73.703 Y81.343 E0.01575
G1 X74.099 Y81.647 E0.01566
G1 X74.403 Y82.043 E0.01566
G1 X74.594 Y82.505 E0.01566
G1 X74.660 Y83.000 E0.01566
G1 X74.594 Y83.495 E0.01566
G1 X74.430 Y83.892 E0.01346
G1 X74.609 Y84.293 F10800.000
;WIPE_START
G1 F8640.000
G1 X74.099 Y84.353 E-0.13110
G1 X73.703 Y84.657 E-0.11535
G1 X73.241 Y84.848 E-0.11534
G1 X72.746 Y84.914 E-0.11534
G1 X72.251 Y84.848 E-0.11534
G1 X71.789 Y84.657 E-0.11534
G1 X71.610 Y84.520 E-0.05218
;WIPE_END
G1 E-0.04000 F2100.000
G1 Z0.600 F10800.000
G1 X73.332 Y124.781
G1 Z0.200
G1 E0.80000 F2100.000
;TYPE:Perimeter
G1 F1200.000
G1 X73.893 Y125.013 E0.01903
G1 X74.368 Y125.378 E0.01878
G1 X74.733 Y125.853 E0.01878
G1 X74.962 Y126.406 E0.01878
G1 X75.040 Y127.000 E0.01878
G1 X74.962 Y127.594 E0.01878
G1 X74.733 Y128.147 E0.01878
G1 X74.368 Y128.622 E0.01878
G1 X73.893 Y128.987 E0.01878
G1 X73.340 Y129.216 E0.01878
G1 X72.746 Y129.294 E0.01878
G1 X72.152 Y129.216 E0.01878
G1 X71.599 Y128.987 E0.01878
G1 X71.124 Y128.622 E0.01878
G1 X70.759 Y128.147 E0.01878
G1 X70.530 Y127.594 E0.01878
G1 X70.452 Y127.000 E0.01878
G1 X70.530 Y126.406 E0.01878
G1 X70.736 Y125.909 E0.01688
G1 X71.117 Y125.383 E0.02037
G1 X71.599 Y125.013 E0.01903
G1 X72.152 Y124.784 E0.01878
G1 X72.686 Y124.714 E0.01688
G1 X73.272 Y124.775 E0.01849
G1 X73.233 Y125.150 F10800.000
;TYPE:External perimeter
G1 F1200.000
G1 X73.703 Y125.343 E0.01591
G1 X74.099 Y125.647 E0.01566
G1 X74.403 Y126.043 E0.01566
G1 X74.594 Y126.505 E0.01566
G1 X74.660 Y127.000 E0.01566
G1 X74.594 Y127.495 E0.01566
G1 X74.403 Y127.957 E0.01566
G1 X74.099 Y128.353 E0.01566
G1 X73.703 Y128.657 E0.01566
G1 X73.241 Y128.848 E0.01566
G1 X72.746 Y128.914 E0.01566
G1 X72.251 Y128.848 E0.01566
G1 X71.789 Y128.657 E0.01566
G1 X71.393 Y128.353 E0.01566
G1 X71.089 Y127.957 E0.01566
G1 X70.898 Y127.495 E0.01566
G1 X70.832 Y127.000 E0.01566
G1 X70.898 Y126.505 E0.01566
G1 X71.068 Y126.094 E0.01393
G1 X71.391 Y125.649 E0.01726
G1 X71.789 Y125.343 E0.01575
G1 X72.251 Y125.152 E0.01566
G1 X72.691 Y125.094 E0.01393
G1 X73.174 Y125.144 E0.01522
G1 X73.516 Y124.866 F10800.000
;WIPE_START
G1 F8640.000
G1 X73.703 Y125.343 E-0.13050
G1 X74.099 Y125.647 E-0.11535
G1 X74.403 Y126.043 E-0.11534
G1 X74.594 Y126.505 E-0.11534
G1 X74.660 Y127.000 E-0.11534
G1 X74.594 Y127.495 E-0.11534
G1 X74.507 Y127.706 E-0.05278
;WIPE_END
G1 E-0.04000 F2100.000
G1 Z0.600 F10800.000
G1 X174.960 Y127.000
G1 Z0.200
G1 E0.80000 F2100.000
;TYPE:Perimeter
G1 F1200.000
G1 X175.038 Y126.406 E0.01878
G1 X175.267 Y125.853 E0.01878
G1 X175.632 Y125.378 E0.01878
G1 X176.107 Y125.013 E0.01878
G1 X176.660 Y124.784 E0.01878
G1 X177.194 Y124.714 E0.01687
G1 X177.840 Y124.781 E0.02037
G1 X178.401 Y125.013 E0.01903
G1 X178.876 Y125.378 E0.01878
G1 X179.241 Y125.853 E0.01878
G1 X179.470 Y126.406 E0.01878
G1 X179.548 Y127.000 E0.01878
G1 X179.470 Y127.594 E0.01878
G1 X179.264 Y128.091 E0.01688
G1 X178.883 Y128.617 E0.02037
G1 X178.401 Y128.987 E0.01903
G1 X177.848 Y129.216 E0.01878
G1 X177.254 Y129.294 E0.01878
G1 X176.660 Y129.216 E0.01878
G1 X176.107 Y128.987 E0.01878
G1 X175.632 Y128.622 E0.01878
G1 X175.267 Y128.147 E0.01878
G1 X175.038 Y127.594 E0.01878
G1 X174.968 Y127.059 E0.01689
G1 X175.342 Y127.010 F10800.000
;TYPE:External perimeter
G1 F1200.000
G1 X175.406 Y126.505 E0.01598
G1 X175.597 Y126.043 E0.01566
G1 X175.901 Y125.647 E0.01566
G1 X176.297 Y125.343 E0.01566
G1 X176.759 Y125.152 E0.01566
G1 X177.199 Y125.094 E0.01393
G1 X177.747 Y125.151 E0.01726
G1 X178.211 Y125.343 E0.01575
G1 X178.607 Y125.647 E0.01566
G1 X178.911 Y126.043 E0.01566
G1 X179.102 Y126.505 E0.01566
G1 X179.168 Y127.000 E0.01566
G1 X179.102 Y127.495 E0.01566
G1 X178.932 Y127.906 E0.01393
G1 X178.609 Y128.351 E0.01726
G1 X178.211 Y128.657 E0.01575
G1 X177.749 Y128.848 E0.01566
G1 X177.254 Y128.914 E0.01566
G1 X176.759 Y128.848 E0.01566
G1 X176.297 Y128.657 E0.01566
G1 X175.901 Y128.353 E0.01566
G1 X175.597 Y127.957 E0.01566
G1 X175.406 Y127.495 E0.01566
G1 X175.350 Y127.070 E0.01346
G1 X174.995 Y126.812 F10800.000
;WIPE_START
G1 F8640.000
G1 X175.406 Y126.505 E-0.13110
G1 X175.597 Y126.043 E-0.11534
G1 X175.901 Y125.647 E-0.11534
G1 X176.297 Y125.343 E-0.11535
G1 X176.759 Y125.152 E-0.11534
G1 X177.199 Y125.094 E-0.10256
G1 X177.479 Y125.123 E-0.06497
;WIPE_END
G1 E-0.04000 F2100.000
G1 Z0.600 F10800.000
G1 X177.254 Y85.294
G1 Z0.200
G1 E0.80000 F2100.000
;TYPE:Perimeter
G1 F1200.000
G1 X176.660 Y85.216 E0.01878
G1 X176.107 Y84.987 E0.01878
G1 X175.632 Y84.622 E0.01878
G1 X175.267 Y84.147 E0.01878
G1 X175.038 Y83.594 E0.01878
G1 X174.960 Y83.000 E0.01878
G1 X175.038 Y82.406 E0.01878
G1 X175.267 Y81.853 E0.01878
G1 X175.632 Y81.378 E0.01878
G1 X176.107 Y81.013 E0.01878
G1 X176.660 Y80.784 E0.01878
G1 X177.194 Y80.714 E0.01687
G1 X177.840 Y80.781 E0.02037
G1 X178.401 Y81.013 E0.01903
G1 X178.876 Y81.378 E0.01878
G1 X179.241 Y81.853 E0.01878
G1 X179.470 Y82.406 E0.01878
G1 X179.548 Y83.000 E0.01878
G1 X179.470 Y83.594 E0.01878
G1 X179.264 Y84.091 E0.01688
G1 X178.883 Y84.617 E0.02037
G1 X178.401 Y84.987 E0.01903
G1 X177.848 Y85.216 E0.01878
G1 X177.313 Y85.286 E0.01689
G1 X177.264 Y84.912 F10800.000
;TYPE:External perimeter
G1 F1200.000
G1 X176.759 Y84.848 E0.01598
G1 X176.297 Y84.657 E0.01566
G1 X175.901 Y84.353 E0.01566
G1 X175.597 Y83.957 E0.01566
G1 X175.406 Y83.495 E0.01566
G1 X175.340 Y83.000 E0.01566
G1 X175.406 Y82.505 E0.01566
G1 X175.597 Y82.043 E0.01566
G1 X175.901 Y81.647 E0.01566
G1 X176.297 Y81.343 E0.01566
G1 X176.759 Y81.152 E0.01566
G1 X177.199 Y81.094 E0.01393
G1 X177.747 Y81.151 E0.01726
G1 X178.211 Y81.343 E0.01575
G1 X178.607 Y81.647 E0.01566
G1 X178.911 Y82.043 E0.01566
G1 X179.102 Y82.505 E0.01566
G1 X179.168 Y83.000 E0.01566
G1 X179.102 Y83.495 E0.01566
G1 X178.932 Y83.906 E0.01393
G1 X178.609 Y84.351 E0.01726
G1 X178.211 Y84.657 E0.01575
G1 X177.749 Y84.848 E0.01566
G1 X177.324 Y84.904 E0.01346
G1 X177.066 Y85.259 F10800.000
;WIPE_START
G1 F8640.000
G1 X176.759 Y84.848 E-0.13110
G1 X176.297 Y84.657 E-0.11534
G1 X175.901 Y84.353 E-0.11535
G1 X175.597 Y83.957 E-0.11534
G1 X175.406 Y83.495 E-0.11534
G1 X175.340 Y83.000 E-0.11534
G1 X175.370 Y82.776 E-0.05218
;WIPE_END
G1 E-0.04000 F2100.000
G1 Z0.600 F10800.000
G1 X192.857 Y72.321
G1 Z0.200
G1 E0.80000 F2100.000
;TYPE:Perimeter
G1 F1200.000
G1 X192.933 Y72.397 E0.00335
G1 X192.967 Y72.552 E0.00497
G1 X192.967 Y137.448 E2.03479
G1 X192.933 Y137.603 E0.00497
G1 X192.857 Y137.679 E0.00335
G1 X192.702 Y137.713 E0.00497
G1 X57.298 Y137.713 E4.24552
G1 X57.143 Y137.679 E0.00497
G1 X57.067 Y137.603 E0.00335
G1 X57.033 Y137.448 E0.00497
G1 X57.033 Y72.552 E2.03479
M73 P0 R175
G1 X57.067 Y72.397 E0.00497
G1 X57.143 Y72.321 E0.00335
G1 X57.298 Y72.287 E0.00497
G1 X192.702 Y72.287 E4.24552
G1 X192.801 Y72.300 E0.00312
G1 X193.262 Y72.207 F10800.000
;TYPE:External perimeter
G1 F1200.000
G1 X193.320 Y72.348 E0.00480
G1 X193.344 Y72.527 E0.00565
G1 X193.344 Y137.473 E2.03634
G1 X193.320 Y137.652 E0.00565
G1 X193.262 Y137.793 E0.00480
G1 X193.169 Y137.915 E0.00480
G1 X193.047 Y138.008 E0.00480
G1 X192.906 Y138.066 E0.00480
G1 X192.727 Y138.090 E0.00565
G1 X57.273 Y138.090 E4.24707
G1 X57.094 Y138.066 E0.00565
G1 X56.953 Y138.008 E0.00480
G1 X56.831 Y137.915 E0.00480
G1 X56.738 Y137.793 E0.00480
G1 X56.680 Y137.652 E0.00480
G1 X56.656 Y137.473 E0.00565
G1 X56.656 Y72.527 E2.03634
G1 X56.680 Y72.348 E0.00565
G1 X56.738 Y72.207 E0.00480
G1 X56.831 Y72.085 E0.00480
G1 X56.953 Y71.992 E0.00480
G1 X57.094 Y71.934 E0.00480
G1 X57.273 Y71.910 E0.00565
G1 X192.727 Y71.910 E4.24707
G1 X192.906 Y71.934 E0.00565
G1 X193.047 Y71.992 E0.00480
G1 X193.169 Y72.085 E0.00480
G1 X193.225 Y72.159 E0.00292
G1 X193.185 Y72.339 F10800.000
;WIPE_START
G1 F8640.000
G1 X193.320 Y72.348 E-0.04886
G1 X193.344 Y72.527 E-0.04161
G1 X193.344 Y75.426 E-0.66953
;WIPE_END
G1 E-0.04000 F2100.000
G1 Z0.600 F10800.000
G1 X192.854 Y73.242
G1 Z0.200
G1 E0.80000 F2100.000
;TYPE:Solid infill
;WIDTH:0.420617
G1 F1200.000
G1 X192.181 Y72.570 E0.02986
G1 X191.647 Y72.570 E0.01678
G1 X192.684 Y73.607 E0.04605
G1 X192.684 Y74.141 E0.01678
G1 X191.113 Y72.570 E0.06977
G1 X190.579 Y72.570 E0.01678
G1 X192.684 Y74.675 E0.09350
G1 X192.684 Y75.209 E0.01678
G1 X190.045 Y72.570 E0.11722
