; generated by PrusaSlicer 2.3.0+win64 on 2021-05-02 at 20:21:58 UTC

; 

; external perimeters extrusion width = 0.45mm
; perimeters extrusion width = 0.45mm
; infill extrusion width = 0.45mm
; solid infill extrusion width = 0.45mm
; top infill extrusion width = 0.40mm
; first layer extrusion width = 0.42mm

M73 P0 R31
M73 Q0 S31
M201 X1000 Y1000 Z200 E5000 ; sets maximum accelerations, mm/sec^2
M203 X200 Y200 Z12 E120 ; sets maximum feedrates, mm/sec
M204 P1250 R1250 T1250 ; sets acceleration (P, T) and retract acceleration (R), mm/sec^2
M205 X8.00 Y8.00 Z0.40 E4.50 ; sets the jerk limits, mm/sec
M205 S0 T0 ; sets the minimum extruding and travel feed rate, mm/sec
M107
;TYPE:Custom
M862.3 P "MK3S" ; printer model check
M862.1 P0.4 ; nozzle diameter check
M115 U3.9.3 ; tell printer latest fw version
G90 ; use absolute coordinates
M83 ; extruder relative mode
M104 S215 ; set extruder temp
M140 S60 ; set bed temp
M190 S60 ; wait for bed temp
M109 S215 ; wait for extruder temp
G28 W ; home all without mesh bed level
G80 ; mesh bed leveling
G1 Y-3.0 F1000.0 ; go outside print area
G92 E0.0
G1 X60.0 E9.0 F1000.0 ; intro line
G1 X100.0 E12.5 F1000.0 ; intro line
G92 E0.0
M221 S95

; Don't change E values below. Excessive value can damage the printer.
M907 E430 ; set extruder motor current
G21 ; set units to millimeters
G90 ; use absolute coordinates
M83 ; use relative distances for extrusion
M900 K0.05 ; Filament gcode LA 1.5
M900 K30 ; Filament gcode LA 1.0
;LAYER_CHANGE
;Z:0.2
;HEIGHT:0.2
;BEFORE_LAYER_CHANGE
G92 E0.0
;0.2


G1 E-0.80000 F2100.000
G1 Z0.400 F10800.000
;AFTER_LAYER_CHANGE
;0.2
G1 X104.243 Y88.367
G1 Z0.200
G1 E0.80000 F2100.000
M204 S1000
;TYPE:Skirt
;WIDTH:0.42
G1 F1200.000
G1 X106.331 Y86.053 E0.09771
G1 X108.673 Y84.003 E0.09759
G1 X110.068 Y82.989 E0.05407
G1 X112.745 Y81.394 E0.09771
G1 X115.583 Y80.126 E0.09747
G1 X117.219 Y79.568 E0.05419
G1 X120.243 Y78.832 E0.09759
G1 X123.333 Y78.458 E0.09759
G1 X124.999 Y78.405 E0.05228
G1 X128.103 Y78.588 E0.09747
G1 X129.808 Y78.845 E0.05407
G1 X132.835 Y79.587 E0.09771
G1 X135.746 Y80.676 E0.09747
G1 X137.304 Y81.426 E0.05419
G1 X139.974 Y83.024 E0.09759
G1 X142.438 Y84.926 E0.09759
G1 X143.663 Y86.058 E0.05228
G1 X145.745 Y88.366 E0.09747
G1 X146.779 Y89.746 E0.05407
G1 X148.415 Y92.398 E0.09771
G1 X149.726 Y95.221 E0.09759
G1 X150.308 Y96.845 E0.05407
G1 X151.089 Y99.862 E0.09771
G1 X151.509 Y102.945 E0.09759
G1 X151.587 Y104.673 E0.05423
G1 X151.444 Y107.781 E0.09755
G1 X150.937 Y110.852 E0.09759
G1 X150.503 Y112.521 E0.05407
G1 X149.449 Y115.454 E0.09771
G1 X148.060 Y118.239 E0.09759
G1 X147.153 Y119.706 E0.05407
G1 X145.281 Y122.198 E0.09771
G1 X143.135 Y124.447 E0.09747
G1 X141.834 Y125.584 E0.05419
G1 X139.311 Y127.413 E0.09771
G1 X136.594 Y128.932 E0.09759
G1 X135.017 Y129.634 E0.05414
G1 X132.069 Y130.637 E0.09764
G1 X129.028 Y131.287 E0.09747
G1 X127.313 Y131.493 E0.05419
G1 X124.236 Y131.584 E0.09652
G1 X122.540 Y131.481 E0.05327
G1 X119.464 Y131.014 E0.09755
G1 X116.463 Y130.189 E0.09759
G1 X114.843 Y129.581 E0.05423
G1 X112.042 Y128.228 E0.09755
G1 X109.417 Y126.555 E0.09759
G1 X108.053 Y125.500 E0.05407
G1 X105.773 Y123.381 E0.09759
G1 X103.756 Y121.006 E0.09771
G1 X102.763 Y119.596 E0.05407
G1 X101.208 Y116.895 E0.09771
G1 X99.983 Y114.038 E0.09746
G1 X99.449 Y112.394 E0.05420
G1 X98.759 Y109.359 E0.09759
G1 X98.538 Y107.709 E0.05220
G1 X98.402 Y104.605 E0.09743
G1 X98.631 Y101.501 E0.09759
G1 X98.901 Y99.855 E0.05228
G1 X99.681 Y96.846 E0.09747
G1 X100.264 Y95.218 E0.05423
G1 X101.575 Y92.396 E0.09755
G1 X103.209 Y89.747 E0.09759
G1 X104.207 Y88.415 E0.05219
; printing object ESP32-CAM-DOORBELL-button.stl id:1 copy 0
;WIPE_START
G1 F8640.000
G1 X106.331 Y86.053 E-0.73337
G1 X106.417 Y85.977 E-0.02663
;WIPE_END
G1 E-0.04000 F2100.000
G1 Z0.600 F10800.000
G1 X120.042 Y101.181
G1 Z0.200
G1 E0.80000 F2100.000
;TYPE:Perimeter
G1 F1200.000
G1 X120.282 Y100.888 E0.01190
G1 X120.812 Y100.349 E0.02367
G1 X121.378 Y99.898 E0.02272
G1 X121.737 Y99.659 E0.01351
G1 X122.067 Y99.471 E0.01190
G1 X122.761 Y99.155 E0.02393
G1 X123.122 Y99.029 E0.01197
G1 X123.489 Y98.926 E0.01197
G1 X124.240 Y98.787 E0.02393
G1 X124.612 Y98.753 E0.01171
G1 X125.336 Y98.751 E0.02272
G1 X125.766 Y98.787 E0.01351
G1 X126.514 Y98.926 E0.02386
G1 X126.882 Y99.029 E0.01197
G1 X127.587 Y99.299 E0.02367
G1 X128.227 Y99.637 E0.02272
G1 X128.590 Y99.871 E0.01351
G1 X128.894 Y100.097 E0.01190
G1 X129.456 Y100.602 E0.02367
G1 X129.933 Y101.147 E0.02272
G1 X130.188 Y101.494 E0.01351
G1 X130.571 Y102.142 E0.02360
G1 X130.862 Y102.806 E0.02272
G1 X131.001 Y103.214 E0.01351
G1 X131.174 Y103.955 E0.02386
G1 X131.226 Y104.333 E0.01197
G1 X131.261 Y105.095 E0.02393
G1 X131.243 Y105.477 E0.01197
G1 X131.203 Y105.856 E0.01197
G1 X131.052 Y106.605 E0.02393
G1 X130.946 Y106.963 E0.01171
G1 X130.678 Y107.636 E0.02272
G1 X130.485 Y108.019 E0.01343
G1 X130.077 Y108.664 E0.02394
G1 X129.844 Y108.967 E0.01197
G1 X129.326 Y109.526 E0.02393
G1 X129.042 Y109.782 E0.01197
G1 X128.436 Y110.233 E0.02367
G1 X127.808 Y110.594 E0.02272
G1 X127.417 Y110.775 E0.01351
G1 X126.699 Y111.025 E0.02386
G1 X125.953 Y111.187 E0.02393
G1 X125.193 Y111.257 E0.02393
G1 X124.811 Y111.257 E0.01197
G1 X124.051 Y111.187 E0.02393
G1 X123.305 Y111.025 E0.02393
G1 X122.584 Y110.774 E0.02393
G1 X122.237 Y110.616 E0.01197
G1 X121.574 Y110.238 E0.02393
G1 X121.261 Y110.019 E0.01197
G1 X120.678 Y109.526 E0.02393
G1 X120.410 Y109.254 E0.01197
G1 X120.159 Y108.967 E0.01197
G1 X119.712 Y108.348 E0.02393
G1 X119.517 Y108.017 E0.01205
G1 X119.191 Y107.329 E0.02386
G1 X118.951 Y106.605 E0.02393
G1 X118.801 Y105.856 E0.02393
G1 X118.743 Y105.095 E0.02393
G1 X118.748 Y104.714 E0.01197
G1 X118.777 Y104.333 E0.01197
G1 X118.905 Y103.580 E0.02393
G1 X119.123 Y102.849 E0.02393
G1 X119.265 Y102.495 E0.01197
G1 X119.425 Y102.157 E0.01171
G1 X119.792 Y101.532 E0.02272
G1 X120.007 Y101.230 E0.01162
G1 X119.700 Y101.012 F10800.000
;TYPE:External perimeter
G1 F1200.000
G1 X119.998 Y100.640 E0.01495
G1 X120.563 Y100.065 E0.02528
G1 X121.156 Y99.593 E0.02376
G1 X121.539 Y99.338 E0.01442
G1 X122.253 Y98.959 E0.02535
G1 X122.626 Y98.803 E0.01269
G1 X123.398 Y98.560 E0.02537
G1 X123.794 Y98.474 E0.01269
G1 X124.594 Y98.376 E0.02528
G1 X125.352 Y98.374 E0.02376
G1 X125.810 Y98.412 E0.01442
G1 X126.605 Y98.560 E0.02535
G1 X126.995 Y98.669 E0.01269
G1 X127.748 Y98.958 E0.02528
G1 X128.418 Y99.311 E0.02376
G1 X128.805 Y99.560 E0.01442
G1 X129.129 Y99.802 E0.01267
M73 Q1 S31
G1 X129.728 Y100.341 E0.02528
G1 X130.227 Y100.911 E0.02376
G1 X130.499 Y101.282 E0.01442
G1 X130.716 Y101.623 E0.01267
G1 X130.909 Y101.975 E0.01260
G1 X131.214 Y102.669 E0.02376
G1 X131.362 Y103.104 E0.01442
G1 X131.546 Y103.892 E0.02535
M73 P1 R31
G1 X131.601 Y104.293 E0.01269
G1 X131.638 Y105.101 E0.02537
G1 X131.576 Y105.908 E0.02537
G1 X131.509 Y106.307 E0.01269
G1 X131.302 Y107.087 E0.02528
G1 X131.022 Y107.791 E0.02376
G1 X130.817 Y108.200 E0.01434
G1 X130.383 Y108.885 E0.02543
G1 X130.136 Y109.206 E0.01269
G1 X129.586 Y109.799 E0.02537
G1 X129.285 Y110.070 E0.01269
G1 X128.639 Y110.552 E0.02528
G1 X127.981 Y110.929 E0.02376
G1 X127.564 Y111.122 E0.01442
G1 X126.801 Y111.389 E0.02535
G1 X126.010 Y111.560 E0.02537
G1 X125.204 Y111.634 E0.02537
G1 X124.799 Y111.634 E0.01269
G1 X123.993 Y111.560 E0.02537
G1 X123.203 Y111.389 E0.02537
G1 X122.438 Y111.122 E0.02537
G1 X122.070 Y110.954 E0.01269
G1 X121.367 Y110.553 E0.02537
G1 X121.035 Y110.322 E0.01269
G1 X120.417 Y109.799 E0.02537
G1 X120.133 Y109.511 E0.01269
G1 X119.867 Y109.206 E0.01269
G1 X119.393 Y108.550 E0.02537
G1 X119.003 Y107.841 E0.02537
G1 X118.702 Y107.089 E0.02537
G1 X118.495 Y106.307 E0.02537
G1 X118.427 Y105.908 E0.01269
G1 X118.365 Y105.101 E0.02537
G1 X118.372 Y104.696 E0.01269
G1 X118.402 Y104.293 E0.01269
G1 X118.537 Y103.495 E0.02537
G1 X118.769 Y102.719 E0.02537
G1 X118.919 Y102.344 E0.01269
G1 X119.091 Y101.980 E0.01260
G1 X119.475 Y101.327 E0.02376
G1 X119.665 Y101.061 E0.01025
G1 X120.097 Y101.057 F10800.000
;WIPE_START
G1 F8640.000
G1 X119.998 Y100.640 E-0.12393
G1 X120.563 Y100.065 E-0.18617
G1 X121.156 Y99.593 E-0.17497
G1 X121.539 Y99.338 E-0.10621
G1 X122.184 Y98.995 E-0.16872
;WIPE_END
G1 E-0.04000 F2100.000
G1 Z0.600 F10800.000
G1 X128.206 Y99.758
G1 Z0.200
G1 E0.80000 F2100.000
;TYPE:Solid infill
;WIDTH:0.4282
G1 F1200.000
G1 X129.291 Y100.843 E0.04915
G1 X129.712 Y101.324 E0.02048
G1 X129.951 Y101.650 E0.01296
G1 X130.319 Y102.272 E0.02312
G1 X130.432 Y102.529 E0.00899
G1 X127.454 Y99.551 E0.13489
G1 X126.792 Y99.298 E0.02271
G1 X126.603 Y99.244 E0.00632
G1 X130.753 Y103.395 E0.18803
G1 X130.904 Y104.090 E0.02281
G1 X125.916 Y99.102 E0.22598
G1 X125.728 Y99.068 E0.00612
G1 X125.302 Y99.034 E0.01368
G1 X130.969 Y104.701 E0.25674
G1 X130.966 Y105.242 E0.01735
G1 X124.759 Y99.035 E0.28123
G1 X124.260 Y99.081 E0.01606
G1 X130.927 Y105.748 E0.30209
G1 X130.851 Y106.217 E0.01520
G1 X123.785 Y99.151 E0.32012
G1 X123.354 Y99.265 E0.01428
G1 X130.737 Y106.647 E0.33448
G1 X130.677 Y106.874 E0.00750
G1 X130.603 Y107.059 E0.00638
G1 X122.939 Y99.395 E0.34721
G1 X122.549 Y99.550 E0.01344
G1 X130.448 Y107.448 E0.35784
G1 X130.271 Y107.816 E0.01308
G1 X122.192 Y99.738 E0.36601
G1 X121.840 Y99.930 E0.01286
G1 X130.072 Y108.163 E0.37297
G1 X129.846 Y108.481 E0.01252
G1 X121.515 Y100.150 E0.37744
G1 X121.212 Y100.392 E0.01242
G1 X129.617 Y108.797 E0.38080
G1 X129.362 Y109.087 E0.01237
G1 X120.916 Y100.641 E0.38264
G1 X120.647 Y100.917 E0.01234
G1 X129.088 Y109.357 E0.38240
G1 X128.792 Y109.607 E0.01239
G1 X120.393 Y101.208 E0.38052
G1 X120.153 Y101.513 E0.01243
G1 X128.491 Y109.850 E0.37774
G1 X128.161 Y110.065 E0.01261
G1 X119.938 Y101.842 E0.37254
G1 X119.736 Y102.186 E0.01275
G1 X127.814 Y110.264 E0.36599
G1 X127.453 Y110.447 E0.01299
G1 X119.560 Y102.554 E0.35757
G1 X119.395 Y102.934 E0.01326
G1 X127.061 Y110.600 E0.34732
G1 X126.657 Y110.741 E0.01371
G1 X119.268 Y103.352 E0.33474
G1 X119.153 Y103.782 E0.01425
G1 X126.213 Y110.841 E0.31985
G1 X125.910 Y110.907 E0.00993
G1 X125.748 Y110.922 E0.00519
G1 X119.075 Y104.248 E0.30235
G1 X119.041 Y104.760 E0.01641
G1 X125.249 Y110.968 E0.28127
G1 X124.699 Y110.963 E0.01762
G1 X119.035 Y105.298 E0.25663
G1 X119.106 Y105.914 E0.01986
G1 X124.099 Y110.908 E0.22623
G1 X123.405 Y110.758 E0.02277
G1 X119.257 Y106.610 E0.18790
G1 X119.330 Y106.886 E0.00913
G1 X119.452 Y107.220 E0.01140
G1 X119.570 Y107.468 E0.00879
G1 X122.538 Y110.436 E0.13449
G1 X122.036 Y110.189 E0.01794
G1 X121.732 Y110.003 E0.01140
G1 X121.141 Y109.563 E0.02362
G1 X120.931 Y109.373 E0.00907
G1 X119.783 Y108.226 E0.05201
; stop printing object ESP32-CAM-DOORBELL-button.stl id:1 copy 0
; printing object ESP32-CAM-DOORBELL-ring.stl id:0 copy 0
;WIPE_START
G1 F8640.000
G1 X120.931 Y109.373 E-0.37484
G1 X121.141 Y109.563 E-0.06536
G1 X121.732 Y110.003 E-0.17026
G1 X122.036 Y110.189 E-0.08218
G1 X122.298 Y110.318 E-0.06737
;WIPE_END
G1 E-0.04000 F2100.000
G1 Z0.600 F10800.000
G1 X109.409 Y114.370
G1 Z0.200
G1 E0.80000 F2100.000
;TYPE:Perimeter
;WIDTH:0.42
G1 F1200.000
G1 X109.039 Y113.744 E0.02280
G1 X108.490 Y112.659 E0.03812
G1 X108.016 Y111.539 E0.03812
G1 X107.617 Y110.391 E0.03812
G1 X107.296 Y109.218 E0.03812
G1 X107.053 Y108.026 E0.03812
G1 X106.891 Y106.821 E0.03812
G1 X106.810 Y105.608 E0.03812
M73 Q2 S31
G1 X106.810 Y104.392 E0.03812
G1 X106.891 Y103.179 E0.03812
G1 X107.053 Y101.974 E0.03812
M73 P2 R31
G1 X107.296 Y100.782 E0.03812
G1 X107.617 Y99.609 E0.03812
G1 X108.016 Y98.461 E0.03812
G1 X108.490 Y97.341 E0.03812
G1 X109.039 Y96.256 E0.03812
G1 X109.659 Y95.210 E0.03812
G1 X110.347 Y94.207 E0.03812
G1 X111.100 Y93.253 E0.03812
G1 X111.916 Y92.351 E0.03812
G1 X112.790 Y91.506 E0.03812
G1 X113.718 Y90.721 E0.03812
G1 X114.697 Y90.000 E0.03812
G1 X115.722 Y89.346 E0.03812
G1 X116.789 Y88.761 E0.03812
G1 X117.892 Y88.249 E0.03812
G1 X119.026 Y87.812 E0.03812
G1 X120.188 Y87.452 E0.03812
G1 X121.370 Y87.170 E0.03812
G1 X122.569 Y86.968 E0.03812
G1 X123.779 Y86.846 E0.03812
G1 X124.994 Y86.806 E0.03812
G1 X126.210 Y86.846 E0.03812
G1 X127.419 Y86.968 E0.03812
G1 X128.618 Y87.170 E0.03812
G1 X129.170 Y87.302 E0.01776
G1 X129.801 Y87.452 E0.02036
G1 X130.963 Y87.812 E0.03812
G1 X132.097 Y88.249 E0.03812
G1 X133.200 Y88.761 E0.03812
G1 X134.267 Y89.346 E0.03812
G1 X135.291 Y90.000 E0.03812
G1 X136.270 Y90.721 E0.03812
G1 X137.199 Y91.506 E0.03812
G1 X138.073 Y92.351 E0.03812
G1 X138.889 Y93.253 E0.03812
G1 X139.639 Y94.203 E0.03796
G1 X140.330 Y95.210 E0.03829
G1 X140.950 Y96.256 E0.03813
G1 X141.498 Y97.341 E0.03812
G1 X141.973 Y98.461 E0.03812
G1 X142.372 Y99.609 E0.03812
G1 X142.693 Y100.782 E0.03812
G1 X142.935 Y101.974 E0.03812
G1 X143.097 Y103.179 E0.03812
G1 X143.179 Y104.392 E0.03812
G1 X143.179 Y105.608 E0.03812
G1 X143.097 Y106.821 E0.03812
G1 X142.935 Y108.026 E0.03812
G1 X142.693 Y109.218 E0.03812
G1 X142.372 Y110.391 E0.03812
G1 X141.973 Y111.539 E0.03812
G1 X141.498 Y112.659 E0.03812
G1 X140.950 Y113.744 E0.03812
G1 X140.330 Y114.790 E0.03813
G1 X139.639 Y115.797 E0.03829
G1 X138.889 Y116.747 E0.03796
G1 X138.073 Y117.649 E0.03812
G1 X137.199 Y118.494 E0.03812
G1 X136.270 Y119.279 E0.03812
G1 X135.291 Y120.000 E0.03812
G1 X134.267 Y120.654 E0.03812
G1 X133.200 Y121.239 E0.03812
G1 X132.097 Y121.751 E0.03812
G1 X130.963 Y122.188 E0.03812
G1 X129.801 Y122.548 E0.03812
G1 X128.618 Y122.830 E0.03812
G1 X127.419 Y123.032 E0.03812
G1 X126.210 Y123.154 E0.03812
G1 X124.994 Y123.194 E0.03812
G1 X123.779 Y123.154 E0.03812
G1 X122.569 Y123.032 E0.03812
G1 X121.370 Y122.830 E0.03812
G1 X120.188 Y122.548 E0.03812
G1 X119.026 Y122.188 E0.03812
G1 X117.892 Y121.751 E0.03812
G1 X116.789 Y121.239 E0.03812
G1 X115.722 Y120.654 E0.03812
G1 X114.697 Y120.000 E0.03812
G1 X113.718 Y119.279 E0.03812
G1 X112.790 Y118.494 E0.03812
G1 X112.492 Y118.206 E0.01298
G1 X111.916 Y117.649 E0.02514
G1 X111.100 Y116.747 E0.03812
G1 X110.347 Y115.793 E0.03812
G1 X109.659 Y114.790 E0.03812
G1 X109.440 Y114.421 E0.01344
G1 X109.764 Y114.229 F10800.000
;TYPE:External perimeter
G1 F1200.000
G1 X109.370 Y113.563 E0.02429
G1 X108.833 Y112.500 E0.03733
G1 X108.368 Y111.404 E0.03733
G1 X107.977 Y110.279 E0.03733
G1 X107.663 Y109.130 E0.03733
G1 X107.426 Y107.964 E0.03733
G1 X107.267 Y106.783 E0.03733
G1 X107.187 Y105.595 E0.03733
G1 X107.187 Y104.405 E0.03733
G1 X107.267 Y103.217 E0.03733
G1 X107.426 Y102.037 E0.03733
G1 X107.663 Y100.870 E0.03733
G1 X107.977 Y99.721 E0.03733
G1 X108.368 Y98.596 E0.03733
G1 X108.833 Y97.500 E0.03733
G1 X109.370 Y96.437 E0.03733
G1 X109.977 Y95.413 E0.03733
G1 X110.650 Y94.431 E0.03733
G1 X111.388 Y93.497 E0.03733
G1 X112.187 Y92.614 E0.03733
G1 X113.043 Y91.786 E0.03733
G1 X113.952 Y91.017 E0.03733
G1 X114.911 Y90.311 E0.03733
G1 X115.915 Y89.670 E0.03733
G1 X116.959 Y89.098 E0.03733
G1 X118.039 Y88.597 E0.03733
G1 X119.150 Y88.169 E0.03733
G1 X120.287 Y87.816 E0.03733
G1 X121.445 Y87.540 E0.03733
G1 X122.620 Y87.342 E0.03733
G1 X123.804 Y87.223 E0.03733
G1 X124.994 Y87.183 E0.03733
G1 X126.184 Y87.223 E0.03733
G1 X127.369 Y87.342 E0.03733
G1 X128.543 Y87.540 E0.03733
G1 X129.082 Y87.668 E0.01737
G1 X129.702 Y87.816 E0.01997
G1 X130.839 Y88.169 E0.03733
G1 X131.950 Y88.597 E0.03733
G1 X133.030 Y89.098 E0.03733
G1 X134.074 Y89.670 E0.03733
G1 X135.078 Y90.311 E0.03733
G1 X136.037 Y91.017 E0.03733
G1 X136.946 Y91.786 E0.03733
G1 X137.802 Y92.614 E0.03733
G1 X138.600 Y93.497 E0.03733
G1 X139.335 Y94.427 E0.03717
G1 X140.012 Y95.413 E0.03750
G1 X140.619 Y96.437 E0.03734
G1 X141.156 Y97.500 E0.03733
G1 X141.621 Y98.596 E0.03733
G1 X142.012 Y99.721 E0.03733
G1 X142.326 Y100.870 E0.03733
G1 X142.563 Y102.037 E0.03733
G1 X142.722 Y103.217 E0.03733
G1 X142.802 Y104.405 E0.03733
G1 X142.802 Y105.595 E0.03733
G1 X142.722 Y106.783 E0.03733
G1 X142.563 Y107.964 E0.03733
G1 X142.326 Y109.130 E0.03733
G1 X142.012 Y110.279 E0.03733
G1 X141.621 Y111.404 E0.03733
G1 X141.156 Y112.500 E0.03733
G1 X140.619 Y113.563 E0.03733
G1 X140.012 Y114.587 E0.03733
G1 X139.335 Y115.573 E0.03750
G1 X138.600 Y116.503 E0.03717
G1 X137.802 Y117.386 E0.03733
G1 X136.946 Y118.214 E0.03733
