; generated by PrusaSlicer 2.3.0+win64 on 2021-05-13 at 16:02:23 UTC

; 

; external perimeters extrusion width = 0.45mm
; perimeters extrusion width = 0.45mm
; infill extrusion width = 0.45mm
; solid infill extrusion width = 0.45mm
; top infill extrusion width = 0.40mm
; first layer extrusion width = 0.42mm

M73 P0 R242
M73 Q0 S245
M201 X1000 Y1000 Z200 E5000 ; sets maximum accelerations, mm/sec^2
M203 X200 Y200 Z12 E120 ; sets maximum feedrates, mm/sec
M204 P1250 R1250 T1250 ; sets acceleration (P, T) and retract acceleration (R), mm/sec^2
M205 X8.00 Y8.00 Z0.40 E4.50 ; sets the jerk limits, mm/sec
M205 S0 T0 ; sets the minimum extruding and travel feed rate, mm/sec
M107
;TYPE:Custom
M862.3 P "MK3S" ; printer model check
M862.1 P0.4 ; nozzle diameter check
M115 U3.9.3 ; tell printer latest fw version
G90 ; use absolute coordinates
M83 ; extruder relative mode
M104 S215 ; set extruder temp
M140 S60 ; set bed temp
M190 S60 ; wait for bed temp
M109 S215 ; wait for extruder temp
G28 W ; home all without mesh bed level
G80 ; mesh bed leveling
G1 Y-3.0 F1000.0 ; go outside print area
G92 E0.0
G1 X60.0 E9.0 F1000.0 ; intro line
G1 X100.0 E12.5 F1000.0 ; intro line
G92 E0.0
M221 S95

; Don't change E values below. Excessive value can damage the printer.
M907 E430 ; set extruder motor current
G21 ; set units to millimeters
G90 ; use absolute coordinates
M83 ; use relative distances for extrusion
M900 K0.05 ; Filament gcode LA 1.5
M900 K30 ; Filament gcode LA 1.0
;LAYER_CHANGE
;Z:0.2
;HEIGHT:0.2
;BEFORE_LAYER_CHANGE
G92 E0.0
;0.2


M73 P0 R241
G1 E-0.80000 F2100.000
G1 Z0.400 F10800.000
;AFTER_LAYER_CHANGE
;0.2
G1 X54.196 Y71.556
G1 Z0.200
G1 E0.80000 F2100.000
M204 S1000
;TYPE:Skirt
;WIDTH:0.42
G1 F1200.000
G1 X54.575 Y70.754 E0.02783
G1 X55.190 Y70.061 E0.02903
G1 X55.822 Y69.651 E0.02362
G1 X56.443 Y69.412 E0.02086
G1 X57.238 Y69.314 E0.02513
G1 X192.758 Y69.314 E4.24912
G1 X193.867 Y69.509 E0.03530
G1 X194.484 Y69.819 E0.02167
G1 X194.903 Y70.148 E0.01668
G1 X195.353 Y70.647 E0.02108
G1 X195.697 Y71.272 E0.02237
G1 X195.857 Y71.768 E0.01633
G1 X195.939 Y72.450 E0.02155
G1 X195.939 Y137.561 E2.04150
G1 X195.803 Y138.447 E0.02812
G1 X195.423 Y139.249 E0.02783
G1 X194.810 Y139.939 E0.02891
G1 X194.178 Y140.349 E0.02362
G1 X193.557 Y140.588 E0.02087
G1 X192.762 Y140.686 E0.02513
G1 X57.223 Y140.685 E4.24971
G1 X56.445 Y140.587 E0.02461
G1 X55.608 Y140.239 E0.02840
G1 X54.918 Y139.674 E0.02797
G1 X54.418 Y138.969 E0.02709
G1 X54.136 Y138.173 E0.02649
G1 X54.060 Y137.547 E0.01979
G1 X54.061 Y72.450 E2.04105
G1 X54.187 Y71.616 E0.02647
; printing object ESP32-CAM-DOORBELL-body-v2.stl id:0 copy 0
;WIPE_START
G1 F8640.000
G1 X54.575 Y70.754 E-0.21826
G1 X55.190 Y70.061 E-0.21376
G1 X55.822 Y69.651 E-0.17396
G1 X56.443 Y69.412 E-0.15365
G1 X56.445 Y69.412 E-0.00036
;WIPE_END
G1 E-0.04000 F2100.000
G1 Z0.600 F10800.000
G1 X167.480 Y102.417
G1 Z0.200
G1 E0.80000 F2100.000
;TYPE:External perimeter
G1 F1200.000
G1 X167.872 Y100.983 E0.04660
G1 X168.430 Y99.606 E0.04659
G1 X169.148 Y98.305 E0.04659
G1 X170.014 Y97.097 E0.04660
G1 X171.017 Y96.001 E0.04659
G1 X172.143 Y95.031 E0.04660
G1 X173.376 Y94.200 E0.04659
G1 X174.698 Y93.522 E0.04660
G1 X176.091 Y93.004 E0.04659
G1 X176.596 Y92.882 E0.01629
G1 X177.535 Y92.655 E0.03030
G1 X179.011 Y92.479 E0.04660
G1 X180.497 Y92.479 E0.04659
G1 X181.973 Y92.655 E0.04660
G1 X183.417 Y93.004 E0.04659
G1 X184.810 Y93.522 E0.04659
G1 X186.132 Y94.200 E0.04659
G1 X187.365 Y95.030 E0.04659
G1 X188.487 Y95.997 E0.04643
G1 X189.494 Y97.097 E0.04676
G1 X190.360 Y98.305 E0.04660
G1 X191.078 Y99.606 E0.04660
G1 X191.636 Y100.983 E0.04659
G1 X192.028 Y102.417 E0.04660
G1 X192.247 Y103.886 E0.04659
G1 X192.291 Y105.372 E0.04660
G1 X192.159 Y106.852 E0.04660
G1 X191.853 Y108.306 E0.04660
G1 X191.377 Y109.714 E0.04659
G1 X190.738 Y111.056 E0.04660
G1 X189.945 Y112.312 E0.04659
G1 X189.008 Y113.466 E0.04659
G1 X187.942 Y114.501 E0.04660
G1 X186.761 Y115.403 E0.04659
G1 X185.481 Y116.159 E0.04659
G1 X184.121 Y116.758 E0.04660
G1 X182.700 Y117.192 E0.04660
G1 X181.237 Y117.455 E0.04659
G1 X179.754 Y117.543 E0.04660
G1 X178.270 Y117.455 E0.04660
G1 X176.808 Y117.192 E0.04659
G1 X175.387 Y116.758 E0.04660
G1 X174.027 Y116.159 E0.04660
G1 X172.747 Y115.403 E0.04659
G1 X171.566 Y114.501 E0.04659
G1 X170.500 Y113.466 E0.04660
G1 X169.563 Y112.312 E0.04659
G1 X168.770 Y111.056 E0.04660
G1 X168.130 Y109.712 E0.04666
G1 X167.655 Y108.306 E0.04653
G1 X167.349 Y106.852 E0.04659
G1 X167.217 Y105.372 E0.04660
G1 X167.261 Y103.886 E0.04660
G1 X167.471 Y102.476 E0.04471
G1 X167.182 Y102.150 F10800.000
;WIPE_START
G1 F8640.000
G1 X167.872 Y100.983 E-0.35690
G1 X168.430 Y99.606 E-0.34314
G1 X168.556 Y99.379 E-0.05996
;WIPE_END
G1 E-0.04000 F2100.000
G1 Z0.600 F10800.000
G1 X121.089 Y104.797
G1 Z0.200
G1 E0.80000 F2100.000
;TYPE:Perimeter
G1 F1200.000
G1 X121.042 Y105.608 E0.02548
G1 X120.809 Y106.386 E0.02548
G1 X120.402 Y107.090 E0.02548
G1 X120.083 Y107.428 E0.01459
G1 X119.845 Y107.681 E0.01089
G1 X119.166 Y108.127 E0.02548
G1 X118.402 Y108.405 E0.02548
G1 X117.595 Y108.499 E0.02548
G1 X116.788 Y108.405 E0.02548
G1 X116.025 Y108.127 E0.02548
G1 X115.346 Y107.681 E0.02548
G1 X114.788 Y107.090 E0.02548
G1 X114.382 Y106.386 E0.02548
G1 X114.149 Y105.608 E0.02548
G1 X114.102 Y104.797 E0.02548
G1 X114.243 Y103.996 E0.02548
G1 X114.565 Y103.250 E0.02548
G1 X115.050 Y102.599 E0.02548
G1 X115.672 Y102.076 E0.02548
G1 X116.398 Y101.712 E0.02548
G1 X117.189 Y101.524 E0.02548
G1 X118.002 Y101.524 E0.02548
G1 X118.454 Y101.632 E0.01459
G1 X118.792 Y101.712 E0.01089
G1 X119.518 Y102.076 E0.02548
G1 X120.141 Y102.599 E0.02548
G1 X120.626 Y103.250 E0.02548
G1 X120.948 Y103.996 E0.02548
G1 X121.078 Y104.737 E0.02359
G1 X120.707 Y104.803 F10800.000
;TYPE:External perimeter
G1 F1200.000
G1 X120.668 Y105.542 E0.02320
G1 X120.460 Y106.236 E0.02271
G1 X120.098 Y106.863 E0.02271
G1 X119.601 Y107.390 E0.02271
G1 X118.996 Y107.788 E0.02271
G1 X118.315 Y108.036 E0.02271
G1 X117.595 Y108.120 E0.02271
G1 X116.876 Y108.036 E0.02271
G1 X116.195 Y107.788 E0.02271
G1 X115.590 Y107.390 E0.02271
G1 X115.093 Y106.863 E0.02271
G1 X114.731 Y106.236 E0.02271
G1 X114.523 Y105.542 E0.02271
G1 X114.481 Y104.819 E0.02271
G1 X114.607 Y104.105 E0.02271
G1 X114.894 Y103.440 E0.02271
G1 X115.326 Y102.859 E0.02271
G1 X115.881 Y102.393 E0.02271
G1 X116.528 Y102.068 E0.02271
G1 X117.233 Y101.901 E0.02271
G1 X117.958 Y101.901 E0.02271
G1 X118.367 Y101.998 E0.01320
G1 X118.662 Y102.068 E0.00951
G1 X119.310 Y102.393 E0.02271
G1 X119.865 Y102.859 E0.02271
G1 X120.297 Y103.440 E0.02271
G1 X120.584 Y104.105 E0.02271
G1 X120.697 Y104.744 E0.02033
G1 X121.065 Y104.981 F10800.000
;WIPE_START
G1 F8640.000
G1 X120.668 Y105.542 E-0.18436
G1 X120.460 Y106.236 E-0.16726
G1 X120.098 Y106.863 E-0.16726
G1 X119.601 Y107.390 E-0.16726
G1 X119.333 Y107.566 E-0.07386
;WIPE_END
G1 E-0.04000 F2100.000
G1 Z0.600 F10800.000
G1 X116.759 Y112.376
G1 Z0.200
G1 E0.80000 F2100.000
;TYPE:Perimeter
G1 F1200.000
G1 X117.381 Y112.898 E0.02548
G1 X117.866 Y113.550 E0.02548
G1 X118.188 Y114.296 E0.02548
G1 X118.329 Y115.096 E0.02548
G1 X118.282 Y115.907 E0.02548
G1 X118.049 Y116.686 E0.02548
G1 X117.643 Y117.389 E0.02548
M73 Q0 S244
G1 X117.085 Y117.980 E0.02548
G1 X116.406 Y118.427 E0.02548
G1 X115.643 Y118.705 E0.02548
G1 X114.836 Y118.799 E0.02548
G1 X114.029 Y118.705 E0.02548
G1 X113.265 Y118.427 E0.02548
G1 X112.586 Y117.980 E0.02548
G1 X112.029 Y117.389 E0.02548
G1 X111.622 Y116.686 E0.02548
G1 X111.389 Y115.907 E0.02548
G1 X111.342 Y115.096 E0.02548
G1 X111.483 Y114.296 E0.02548
G1 X111.805 Y113.550 E0.02548
G1 X112.290 Y112.898 E0.02548
G1 X112.913 Y112.376 E0.02548
G1 X113.639 Y112.011 E0.02548
G1 X114.429 Y111.824 E0.02548
G1 X115.242 Y111.824 E0.02548
G1 X116.032 Y112.011 E0.02548
G1 X116.705 Y112.349 E0.02359
G1 X116.536 Y112.686 F10800.000
;TYPE:External perimeter
G1 F1200.000
G1 X117.105 Y113.159 E0.02320
G1 X117.537 Y113.740 E0.02271
G1 X117.824 Y114.405 E0.02271
G1 X117.950 Y115.118 E0.02271
G1 X117.908 Y115.841 E0.02271
G1 X117.700 Y116.535 E0.02271
G1 X117.338 Y117.163 E0.02271
G1 X117.049 Y117.469 E0.01321
G1 X116.841 Y117.690 E0.00951
G1 X116.236 Y118.088 E0.02271
G1 X115.555 Y118.335 E0.02271
G1 X114.836 Y118.419 E0.02271
G1 X114.116 Y118.335 E0.02271
G1 X113.435 Y118.088 E0.02271
G1 X112.830 Y117.690 E0.02271
G1 X112.333 Y117.163 E0.02271
G1 X111.971 Y116.535 E0.02271
G1 X111.763 Y115.841 E0.02271
G1 X111.721 Y115.118 E0.02271
G1 X111.847 Y114.405 E0.02271
G1 X112.134 Y113.740 E0.02271
G1 X112.566 Y113.159 E0.02271
G1 X113.121 Y112.693 E0.02271
G1 X113.769 Y112.368 E0.02271
G1 X114.473 Y112.201 E0.02271
G1 X115.198 Y112.201 E0.02271
G1 X115.903 Y112.368 E0.02271
G1 X116.482 Y112.659 E0.02033
G1 X116.892 Y112.505 F10800.000
;WIPE_START
G1 F8640.000
G1 X117.105 Y113.159 E-0.18436
G1 X117.537 Y113.740 E-0.16726
G1 X117.824 Y114.405 E-0.16726
G1 X117.950 Y115.118 E-0.16726
G1 X117.931 Y115.438 E-0.07386
;WIPE_END
G1 E-0.04000 F2100.000
G1 Z0.600 F10800.000
G1 X109.841 Y120.438
G1 Z0.200
G1 E0.80000 F2100.000
;TYPE:Perimeter
G1 F1200.000
G1 X110.326 Y121.090 E0.02548
G1 X110.648 Y121.836 E0.02548
G1 X110.789 Y122.636 E0.02548
G1 X110.742 Y123.447 E0.02548
G1 X110.625 Y123.836 E0.01274
G1 X110.509 Y124.226 E0.01274
G1 X110.103 Y124.929 E0.02548
G1 X109.545 Y125.520 E0.02548
G1 X108.866 Y125.967 E0.02548
G1 X108.103 Y126.245 E0.02548
G1 X107.296 Y126.339 E0.02548
G1 X106.489 Y126.245 E0.02548
G1 X105.725 Y125.967 E0.02548
G1 X105.046 Y125.520 E0.02548
G1 X104.489 Y124.929 E0.02548
G1 X104.082 Y124.226 E0.02548
G1 X103.849 Y123.447 E0.02548
G1 X103.822 Y122.983 E0.01459
G1 X103.802 Y122.636 E0.01089
G1 X103.943 Y121.836 E0.02548
G1 X104.265 Y121.090 E0.02548
G1 X104.750 Y120.438 E0.02548
G1 X105.373 Y119.916 E0.02548
G1 X106.099 Y119.551 E0.02548
G1 X106.889 Y119.364 E0.02548
G1 X107.702 Y119.364 E0.02548
G1 X108.493 Y119.551 E0.02548
G1 X109.219 Y119.916 E0.02548
G1 X109.795 Y120.400 E0.02359
G1 X109.553 Y120.688 F10800.000
;TYPE:External perimeter
G1 F1200.000
G1 X109.997 Y121.280 E0.02320
G1 X110.284 Y121.945 E0.02271
G1 X110.410 Y122.658 E0.02271
G1 X110.368 Y123.381 E0.02271
G1 X110.264 Y123.728 E0.01136
G1 X110.160 Y124.075 E0.01136
G1 X109.798 Y124.703 E0.02271
G1 X109.301 Y125.229 E0.02271
G1 X108.696 Y125.627 E0.02271
G1 X108.015 Y125.875 E0.02271
G1 X107.296 Y125.959 E0.02271
G1 X106.576 Y125.875 E0.02271
G1 X105.896 Y125.627 E0.02271
G1 X105.290 Y125.229 E0.02271
G1 X104.793 Y124.703 E0.02271
G1 X104.431 Y124.075 E0.02271
G1 X104.223 Y123.381 E0.02271
G1 X104.199 Y122.961 E0.01321
G1 X104.181 Y122.658 E0.00951
G1 X104.307 Y121.945 E0.02271
G1 X104.594 Y121.280 E0.02271
G1 X105.026 Y120.699 E0.02271
G1 X105.581 Y120.233 E0.02271
G1 X106.229 Y119.908 E0.02271
G1 X106.934 Y119.741 E0.02271
G1 X107.658 Y119.741 E0.02271
G1 X108.363 Y119.908 E0.02271
G1 X109.010 Y120.233 E0.02271
G1 X109.507 Y120.650 E0.02033
G1 X109.942 Y120.595 F10800.000
;WIPE_START
G1 F8640.000
G1 X109.997 Y121.280 E-0.18436
G1 X110.284 Y121.945 E-0.16726
G1 X110.410 Y122.658 E-0.16726
G1 X110.368 Y123.381 E-0.16726
G1 X110.276 Y123.688 E-0.07386
;WIPE_END
G1 E-0.04000 F2100.000
G1 Z0.600 F10800.000
G1 X100.348 Y124.596
G1 Z0.200
G1 E0.80000 F2100.000
;TYPE:Perimeter
G1 F1200.000
G1 X100.489 Y125.396 E0.02548
G1 X100.442 Y126.207 E0.02548
G1 X100.209 Y126.985 E0.02548
G1 X99.803 Y127.689 E0.02548
G1 X99.245 Y128.280 E0.02548
G1 X98.567 Y128.727 E0.02548
G1 X97.803 Y129.004 E0.02548
G1 X96.996 Y129.099 E0.02548
G1 X96.189 Y129.004 E0.02548
G1 X95.425 Y128.727 E0.02548
G1 X94.747 Y128.280 E0.02548
G1 X94.189 Y127.689 E0.02548
G1 X93.783 Y126.985 E0.02548
G1 X93.550 Y126.207 E0.02548
G1 X93.503 Y125.396 E0.02548
G1 X93.644 Y124.596 E0.02548
G1 X93.965 Y123.850 E0.02548
G1 X94.451 Y123.198 E0.02548
G1 X95.073 Y122.676 E0.02548
G1 X95.799 Y122.311 E0.02548
G1 X96.590 Y122.124 E0.02548
G1 X97.402 Y122.124 E0.02548
G1 X98.193 Y122.311 E0.02548
G1 X98.919 Y122.676 E0.02548
G1 X99.541 Y123.198 E0.02548
G1 X100.027 Y123.850 E0.02548
G1 X100.325 Y124.541 E0.02359
G1 X99.978 Y124.690 F10800.000
;TYPE:External perimeter
G1 F1200.000
G1 X100.110 Y125.418 E0.02320
G1 X100.068 Y126.141 E0.02271
G1 X99.861 Y126.835 E0.02271
G1 X99.498 Y127.462 E0.02271
G1 X99.001 Y127.989 E0.02271
G1 X98.396 Y128.387 E0.02271
G1 X97.715 Y128.635 E0.02271
G1 X96.996 Y128.719 E0.02271
G1 X96.277 Y128.635 E0.02271
G1 X95.596 Y128.387 E0.02271
G1 X94.991 Y127.989 E0.02271
G1 X94.494 Y127.462 E0.02271
G1 X94.131 Y126.835 E0.02271
G1 X93.924 Y126.141 E0.02271
G1 X93.882 Y125.418 E0.02271
G1 X94.007 Y124.705 E0.02271
G1 X94.294 Y124.039 E0.02271
G1 X94.727 Y123.458 E0.02271
G1 X95.282 Y122.993 E0.02271
G1 X95.929 Y122.668 E0.02271
G1 X96.634 Y122.501 E0.02271
G1 X97.358 Y122.501 E0.02271
G1 X98.063 Y122.668 E0.02271
G1 X98.710 Y122.993 E0.02271
G1 X99.265 Y123.458 E0.02271
G1 X99.698 Y124.039 E0.02271
G1 X99.955 Y124.635 E0.02033
G1 X100.368 Y124.781 F10800.000
;WIPE_START
G1 F8640.000
G1 X100.110 Y125.418 E-0.18436
G1 X100.068 Y126.141 E-0.16726
G1 X99.861 Y126.835 E-0.16726
G1 X99.498 Y127.462 E-0.16726
G1 X99.279 Y127.695 E-0.07387
;WIPE_END
G1 E-0.04000 F2100.000
G1 Z0.600 F10800.000
G1 X90.143 Y123.447
G1 Z0.200
G1 E0.80000 F2100.000
;TYPE:Perimeter
G1 F1200.000
G1 X89.910 Y124.226 E0.02548
G1 X89.503 Y124.929 E0.02548
G1 X88.946 Y125.520 E0.02548
G1 X88.267 Y125.967 E0.02548
G1 X87.503 Y126.245 E0.02548
G1 X86.696 Y126.339 E0.02548
G1 X85.889 Y126.245 E0.02548
G1 X85.126 Y125.967 E0.02548
G1 X84.447 Y125.520 E0.02548
G1 X83.889 Y124.929 E0.02548
G1 X83.483 Y124.226 E0.02548
G1 X83.250 Y123.447 E0.02548
G1 X83.203 Y122.636 E0.02548
G1 X83.344 Y121.836 E0.02548
G1 X83.666 Y121.090 E0.02548
G1 X84.151 Y120.438 E0.02548
G1 X84.773 Y119.916 E0.02548
G1 X85.499 Y119.551 E0.02548
G1 X86.290 Y119.364 E0.02548
G1 X87.103 Y119.364 E0.02548
G1 X87.893 Y119.551 E0.02548
G1 X88.619 Y119.916 E0.02548
G1 X89.242 Y120.438 E0.02548
G1 X89.727 Y121.090 E0.02548
G1 X90.049 Y121.836 E0.02548
G1 X90.190 Y122.636 E0.02548
G1 X90.146 Y123.387 E0.02359
G1 X89.770 Y123.365 F10800.000
;TYPE:External perimeter
G1 F1200.000
G1 X89.561 Y124.075 E0.02320
G1 X89.199 Y124.703 E0.02271
G1 X88.702 Y125.229 E0.02271
G1 X88.096 Y125.627 E0.02271
G1 X87.416 Y125.875 E0.02271
G1 X86.696 Y125.959 E0.02271
G1 X85.977 Y125.875 E0.02271
G1 X85.296 Y125.627 E0.02271
G1 X84.691 Y125.229 E0.02271
G1 X84.194 Y124.703 E0.02271
G1 X83.832 Y124.075 E0.02271
G1 X83.624 Y123.381 E0.02271
G1 X83.582 Y122.658 E0.02271
G1 X83.708 Y121.945 E0.02271
G1 X83.995 Y121.280 E0.02271
G1 X84.427 Y120.699 E0.02271
G1 X84.982 Y120.233 E0.02271
G1 X85.629 Y119.908 E0.02271
G1 X86.334 Y119.741 E0.02271
G1 X87.058 Y119.741 E0.02271
G1 X87.763 Y119.908 E0.02271
G1 X88.411 Y120.233 E0.02271
G1 X88.966 Y120.699 E0.02271
G1 X89.398 Y121.280 E0.02271
G1 X89.685 Y121.945 E0.02271
G1 X89.811 Y122.658 E0.02271
G1 X89.773 Y123.306 E0.02033
G1 X90.077 Y123.621 F10800.000
;WIPE_START
G1 F8640.000
G1 X89.561 Y124.075 E-0.18436
G1 X89.199 Y124.703 E-0.16726
G1 X88.702 Y125.229 E-0.16726
G1 X88.096 Y125.627 E-0.16726
G1 X87.796 Y125.737 E-0.07386
;WIPE_END
G1 E-0.04000 F2100.000
G1 Z0.600 F10800.000
G1 X81.963 Y117.389
G1 Z0.200
G1 E0.80000 F2100.000
;TYPE:Perimeter
G1 F1200.000
G1 X81.406 Y117.980 E0.02548
G1 X80.727 Y118.427 E0.02548
G1 X79.963 Y118.705 E0.02548
G1 X79.156 Y118.799 E0.02548
G1 X78.349 Y118.705 E0.02548
G1 X77.586 Y118.427 E0.02548
G1 X76.907 Y117.980 E0.02548
G1 X76.349 Y117.389 E0.02548
G1 X75.943 Y116.686 E0.02548
G1 X75.710 Y115.907 E0.02548
G1 X75.663 Y115.096 E0.02548
G1 X75.804 Y114.296 E0.02548
G1 X76.126 Y113.550 E0.02548
G1 X76.611 Y112.898 E0.02548
G1 X77.233 Y112.376 E0.02548
G1 X77.960 Y112.011 E0.02548
G1 X78.750 Y111.824 E0.02548
G1 X79.563 Y111.824 E0.02548
G1 X80.015 Y111.931 E0.01459
G1 X80.353 Y112.011 E0.01089
G1 X81.079 Y112.376 E0.02548
G1 X81.702 Y112.898 E0.02548
G1 X82.187 Y113.550 E0.02548
G1 X82.509 Y114.296 E0.02548
G1 X82.650 Y115.096 E0.02548
G1 X82.603 Y115.907 E0.02548
G1 X82.370 Y116.686 E0.02548
G1 X81.993 Y117.337 E0.02359
