; generated by PrusaSlicer 2.3.0+win64 on 2021-05-04 at 17:22:55 UTC

; 

; external perimeters extrusion width = 0.45mm
; perimeters extrusion width = 0.45mm
; infill extrusion width = 0.45mm
; solid infill extrusion width = 0.45mm
; top infill extrusion width = 0.40mm
; first layer extrusion width = 0.42mm

M73 P0 R187
M73 Q0 S190
M201 X1000 Y1000 Z200 E5000 ; sets maximum accelerations, mm/sec^2
M203 X200 Y200 Z12 E120 ; sets maximum feedrates, mm/sec
M204 P1250 R1250 T1250 ; sets acceleration (P, T) and retract acceleration (R), mm/sec^2
M205 X8.00 Y8.00 Z0.40 E4.50 ; sets the jerk limits, mm/sec
M205 S0 T0 ; sets the minimum extruding and travel feed rate, mm/sec
M107
;TYPE:Custom
M862.3 P "MK3S" ; printer model check
M862.1 P0.4 ; nozzle diameter check
M115 U3.9.3 ; tell printer latest fw version
G90 ; use absolute coordinates
M83 ; extruder relative mode
M104 S215 ; set extruder temp
M140 S60 ; set bed temp
M190 S60 ; wait for bed temp
M109 S215 ; wait for extruder temp
G28 W ; home all without mesh bed level
G80 ; mesh bed leveling
G1 Y-3.0 F1000.0 ; go outside print area
G92 E0.0
G1 X60.0 E9.0 F1000.0 ; intro line
G1 X100.0 E12.5 F1000.0 ; intro line
G92 E0.0
M221 S95

; Don't change E values below. Excessive value can damage the printer.
M907 E430 ; set extruder motor current
G21 ; set units to millimeters
G90 ; use absolute coordinates
M83 ; use relative distances for extrusion
M900 K0.05 ; Filament gcode LA 1.5
M900 K30 ; Filament gcode LA 1.0
;LAYER_CHANGE
;Z:0.2
;HEIGHT:0.2
;BEFORE_LAYER_CHANGE
G92 E0.0
;0.2


G1 E-0.80000 F2100.000
G1 Z0.400 F10800.000
;AFTER_LAYER_CHANGE
;0.2
G1 X54.911 Y70.061
G1 Z0.200
G1 E0.80000 F2100.000
M204 S1000
;TYPE:Skirt
;WIDTH:0.42
G1 F1200.000
G1 X55.676 Y69.511 E0.02953
G1 X56.414 Y69.227 E0.02479
G1 X57.234 Y69.124 E0.02594
G1 X192.758 Y69.123 E4.24924
G1 X193.443 Y69.196 E0.02162
G1 X193.918 Y69.336 E0.01550
G1 X194.522 Y69.623 E0.02098
G1 X195.129 Y70.099 E0.02420
G1 X195.569 Y70.639 E0.02182
G1 X195.807 Y71.068 E0.01538
G1 X196.034 Y71.697 E0.02098
G1 X196.130 Y72.443 E0.02357
G1 X196.130 Y137.565 E2.04186
G1 X196.003 Y138.419 E0.02708
G1 X195.643 Y139.248 E0.02835
G1 X195.089 Y139.939 E0.02776
G1 X194.324 Y140.489 E0.02953
G1 X193.586 Y140.773 E0.02479
G1 X192.766 Y140.876 E0.02594
G1 X57.223 Y140.877 E4.24984
M73 P0 R186
G1 X56.345 Y140.755 E0.02780
G1 X55.511 Y140.397 E0.02847
G1 X54.812 Y139.841 E0.02800
G1 X54.259 Y139.074 E0.02965
G1 X53.974 Y138.336 E0.02479
G1 X53.870 Y137.519 E0.02582
G1 X53.869 Y72.451 E2.04018
M73 Q0 S189
G1 X53.994 Y71.588 E0.02732
G1 X54.355 Y70.755 E0.02847
G1 X54.873 Y70.108 E0.02599
; printing object ESP30-CAM-DOORBELL-back.stl id:0 copy 0
;WIPE_START
G1 F8640.000
G1 X55.676 Y69.511 E-0.23083
G1 X56.414 Y69.227 E-0.18259
G1 X57.234 Y69.124 E-0.19101
G1 X57.908 Y69.124 E-0.15557
;WIPE_END
G1 E-0.04000 F2100.000
G1 Z0.600 F10800.000
G1 X104.628 Y96.600
G1 Z0.200
G1 E0.80000 F2100.000
;TYPE:Perimeter
G1 F1200.000
G1 X105.652 Y95.156 E0.05551
G1 X106.832 Y93.836 E0.05551
G1 X108.152 Y92.656 E0.05551
G1 X109.596 Y91.632 E0.05551
G1 X111.146 Y90.775 E0.05551
G1 X112.781 Y90.098 E0.05551
G1 X114.483 Y89.608 E0.05551
G1 X116.228 Y89.311 E0.05551
G1 X117.996 Y89.212 E0.05551
G1 X119.764 Y89.311 E0.05551
G1 X121.509 Y89.608 E0.05551
G1 X123.211 Y90.098 E0.05551
G1 X124.846 Y90.775 E0.05551
G1 X126.396 Y91.632 E0.05551
G1 X127.840 Y92.656 E0.05551
G1 X129.160 Y93.836 E0.05551
G1 X130.340 Y95.156 E0.05551
G1 X131.364 Y96.600 E0.05551
G1 X132.221 Y98.150 E0.05551
G1 X132.898 Y99.785 E0.05551
G1 X133.388 Y101.487 E0.05551
G1 X133.685 Y103.232 E0.05551
G1 X133.784 Y105.000 E0.05551
G1 X133.685 Y106.768 E0.05551
G1 X133.388 Y108.513 E0.05551
G1 X132.898 Y110.215 E0.05551
G1 X132.221 Y111.850 E0.05551
G1 X131.364 Y113.400 E0.05551
G1 X130.340 Y114.844 E0.05551
G1 X129.160 Y116.164 E0.05551
G1 X127.840 Y117.344 E0.05551
G1 X126.396 Y118.368 E0.05551
G1 X124.846 Y119.225 E0.05551
G1 X123.211 Y119.902 E0.05551
G1 X121.509 Y120.392 E0.05551
G1 X119.764 Y120.689 E0.05551
G1 X117.996 Y120.788 E0.05551
G1 X116.228 Y120.689 E0.05551
G1 X114.483 Y120.392 E0.05551
G1 X112.781 Y119.902 E0.05551
G1 X111.146 Y119.225 E0.05551
G1 X109.596 Y118.368 E0.05551
G1 X108.152 Y117.344 E0.05551
G1 X106.832 Y116.164 E0.05551
G1 X105.652 Y114.844 E0.05551
G1 X104.628 Y113.400 E0.05551
G1 X103.771 Y111.850 E0.05551
G1 X103.094 Y110.215 E0.05551
G1 X102.604 Y108.513 E0.05551
G1 X102.307 Y106.768 E0.05551
G1 X102.208 Y105.000 E0.05551
G1 X102.307 Y103.232 E0.05551
G1 X102.604 Y101.487 E0.05551
G1 X103.094 Y99.785 E0.05551
G1 X103.771 Y98.150 E0.05551
G1 X104.599 Y96.653 E0.05363
G1 X104.929 Y96.835 F10800.000
;TYPE:External perimeter
G1 F1200.000
G1 X105.947 Y95.392 E0.05540
G1 X107.099 Y94.103 E0.05419
G1 X108.388 Y92.951 E0.05419
G1 X109.797 Y91.951 E0.05419
G1 X111.310 Y91.115 E0.05419
G1 X112.906 Y90.454 E0.05419
G1 X114.567 Y89.976 E0.05419
G1 X116.271 Y89.686 E0.05419
G1 X117.996 Y89.589 E0.05419
G1 X119.721 Y89.686 E0.05419
G1 X121.425 Y89.976 E0.05419
G1 X123.086 Y90.454 E0.05419
G1 X124.682 Y91.115 E0.05419
G1 X126.195 Y91.951 E0.05419
G1 X127.604 Y92.951 E0.05419
G1 X128.893 Y94.103 E0.05419
G1 X130.045 Y95.392 E0.05419
G1 X131.045 Y96.801 E0.05419
G1 X131.881 Y98.314 E0.05419
G1 X132.542 Y99.910 E0.05419
G1 X133.020 Y101.571 E0.05419
G1 X133.310 Y103.275 E0.05419
G1 X133.407 Y105.000 E0.05419
G1 X133.310 Y106.725 E0.05419
G1 X133.020 Y108.429 E0.05419
G1 X132.542 Y110.090 E0.05419
G1 X131.881 Y111.686 E0.05419
G1 X131.045 Y113.199 E0.05419
G1 X130.045 Y114.608 E0.05419
G1 X128.893 Y115.897 E0.05419
G1 X127.604 Y117.049 E0.05419
G1 X126.195 Y118.049 E0.05419
G1 X124.682 Y118.885 E0.05419
G1 X123.086 Y119.546 E0.05419
G1 X121.425 Y120.024 E0.05419
G1 X119.721 Y120.314 E0.05419
G1 X117.996 Y120.411 E0.05419
G1 X116.271 Y120.314 E0.05419
G1 X114.567 Y120.024 E0.05419
G1 X112.906 Y119.546 E0.05419
G1 X111.310 Y118.885 E0.05419
G1 X109.797 Y118.049 E0.05419
G1 X108.388 Y117.049 E0.05419
G1 X107.099 Y115.897 E0.05419
G1 X105.947 Y114.608 E0.05419
G1 X104.947 Y113.199 E0.05419
G1 X104.111 Y111.686 E0.05419
G1 X103.450 Y110.090 E0.05419
G1 X102.972 Y108.429 E0.05419
G1 X102.682 Y106.725 E0.05419
G1 X102.585 Y105.000 E0.05419
G1 X102.682 Y103.275 E0.05419
G1 X102.972 Y101.571 E0.05419
G1 X103.450 Y99.910 E0.05419
G1 X104.111 Y98.314 E0.05419
G1 X104.900 Y96.888 E0.05109
G1 X104.741 Y96.482 F10800.000
;WIPE_START
G1 F8640.000
G1 X105.947 Y95.392 E-0.42172
G1 X106.924 Y94.299 E-0.33828
;WIPE_END
G1 E-0.04000 F2100.000
G1 Z0.600 F10800.000
G1 X74.375 Y84.617
G1 Z0.200
G1 E0.80000 F2100.000
;TYPE:Perimeter
G1 F1200.000
G1 X73.893 Y84.987 E0.01903
G1 X73.340 Y85.216 E0.01878
G1 X72.746 Y85.294 E0.01878
G1 X72.152 Y85.216 E0.01878
G1 X71.599 Y84.987 E0.01878
G1 X71.124 Y84.622 E0.01878
G1 X70.759 Y84.147 E0.01878
G1 X70.530 Y83.594 E0.01878
G1 X70.452 Y83.000 E0.01878
G1 X70.530 Y82.406 E0.01878
G1 X70.759 Y81.853 E0.01878
G1 X71.124 Y81.378 E0.01878
G1 X71.599 Y81.013 E0.01878
G1 X72.152 Y80.784 E0.01878
G1 X72.686 Y80.714 E0.01688
G1 X73.332 Y80.781 E0.02037
G1 X73.893 Y81.013 E0.01903
G1 X74.368 Y81.378 E0.01878
G1 X74.733 Y81.853 E0.01878
G1 X74.962 Y82.406 E0.01878
G1 X75.040 Y83.000 E0.01878
G1 X74.962 Y83.594 E0.01878
G1 X74.756 Y84.091 E0.01687
G1 X74.410 Y84.568 E0.01849
G1 X74.104 Y84.347 F10800.000
;TYPE:External perimeter
G1 F1200.000
G1 X73.703 Y84.657 E0.01591
G1 X73.241 Y84.848 E0.01566
G1 X72.746 Y84.914 E0.01566
G1 X72.251 Y84.848 E0.01566
G1 X71.789 Y84.657 E0.01566
G1 X71.393 Y84.353 E0.01566
G1 X71.089 Y83.957 E0.01566
G1 X70.898 Y83.495 E0.01566
G1 X70.832 Y83.000 E0.01566
G1 X70.898 Y82.505 E0.01566
G1 X71.089 Y82.043 E0.01566
G1 X71.393 Y81.647 E0.01566
G1 X71.789 Y81.343 E0.01566
G1 X72.251 Y81.152 E0.01566
G1 X72.691 Y81.094 E0.01393
G1 X73.239 Y81.151 E0.01726
G1 X73.703 Y81.343 E0.01575
G1 X74.099 Y81.647 E0.01566
G1 X74.403 Y82.043 E0.01566
G1 X74.594 Y82.505 E0.01566
G1 X74.660 Y83.000 E0.01566
G1 X74.594 Y83.495 E0.01566
G1 X74.424 Y83.906 E0.01393
G1 X74.140 Y84.299 E0.01522
G1 X74.209 Y84.733 F10800.000
;WIPE_START
G1 F8640.000
G1 X73.703 Y84.657 E-0.13050
G1 X73.241 Y84.848 E-0.11534
G1 X72.746 Y84.914 E-0.11534
G1 X72.251 Y84.848 E-0.11534
G1 X71.789 Y84.657 E-0.11534
G1 X71.393 Y84.353 E-0.11534
G1 X71.254 Y84.172 E-0.05278
;WIPE_END
G1 E-0.04000 F2100.000
G1 Z0.600 F10800.000
G1 X73.332 Y124.781
G1 Z0.200
G1 E0.80000 F2100.000
;TYPE:Perimeter
G1 F1200.000
G1 X73.893 Y125.013 E0.01903
G1 X74.368 Y125.378 E0.01878
G1 X74.733 Y125.853 E0.01878
G1 X74.962 Y126.406 E0.01878
G1 X75.040 Y127.000 E0.01878
G1 X74.962 Y127.594 E0.01878
G1 X74.733 Y128.147 E0.01878
G1 X74.368 Y128.622 E0.01878
G1 X73.893 Y128.987 E0.01878
G1 X73.340 Y129.216 E0.01878
G1 X72.746 Y129.294 E0.01878
G1 X72.152 Y129.216 E0.01878
G1 X71.599 Y128.987 E0.01878
G1 X71.124 Y128.622 E0.01878
G1 X70.759 Y128.147 E0.01878
G1 X70.530 Y127.594 E0.01878
G1 X70.452 Y127.000 E0.01878
G1 X70.530 Y126.406 E0.01878
G1 X70.736 Y125.909 E0.01688
G1 X71.117 Y125.383 E0.02037
G1 X71.599 Y125.013 E0.01903
G1 X72.152 Y124.784 E0.01878
G1 X72.686 Y124.714 E0.01688
G1 X73.272 Y124.775 E0.01849
G1 X73.233 Y125.150 F10800.000
;TYPE:External perimeter
G1 F1200.000
G1 X73.703 Y125.343 E0.01591
G1 X74.099 Y125.647 E0.01566
G1 X74.403 Y126.043 E0.01566
G1 X74.594 Y126.505 E0.01566
G1 X74.660 Y127.000 E0.01566
G1 X74.594 Y127.495 E0.01566
G1 X74.403 Y127.957 E0.01566
G1 X74.099 Y128.353 E0.01566
G1 X73.703 Y128.657 E0.01566
G1 X73.241 Y128.848 E0.01566
G1 X72.746 Y128.914 E0.01566
G1 X72.251 Y128.848 E0.01566
G1 X71.789 Y128.657 E0.01566
G1 X71.393 Y128.353 E0.01566
G1 X71.089 Y127.957 E0.01566
G1 X70.898 Y127.495 E0.01566
G1 X70.832 Y127.000 E0.01566
G1 X70.898 Y126.505 E0.01566
G1 X71.068 Y126.094 E0.01393
G1 X71.391 Y125.649 E0.01726
G1 X71.789 Y125.343 E0.01575
G1 X72.251 Y125.152 E0.01566
G1 X72.691 Y125.094 E0.01393
G1 X73.174 Y125.144 E0.01522
G1 X73.516 Y124.866 F10800.000
;WIPE_START
G1 F8640.000
G1 X73.703 Y125.343 E-0.13050
G1 X74.099 Y125.647 E-0.11535
G1 X74.403 Y126.043 E-0.11534
G1 X74.594 Y126.505 E-0.11534
G1 X74.660 Y127.000 E-0.11534
G1 X74.594 Y127.495 E-0.11534
G1 X74.507 Y127.706 E-0.05278
;WIPE_END
G1 E-0.04000 F2100.000
G1 Z0.600 F10800.000
G1 X174.960 Y127.000
G1 Z0.200
G1 E0.80000 F2100.000
;TYPE:Perimeter
G1 F1200.000
G1 X175.038 Y126.406 E0.01878
G1 X175.267 Y125.853 E0.01878
G1 X175.632 Y125.378 E0.01878
G1 X176.107 Y125.013 E0.01878
G1 X176.660 Y124.784 E0.01878
G1 X177.194 Y124.714 E0.01687
G1 X177.840 Y124.781 E0.02037
G1 X178.401 Y125.013 E0.01903
G1 X178.876 Y125.378 E0.01878
G1 X179.241 Y125.853 E0.01878
G1 X179.470 Y126.406 E0.01878
G1 X179.548 Y127.000 E0.01878
G1 X179.470 Y127.594 E0.01878
G1 X179.264 Y128.091 E0.01688
G1 X178.883 Y128.617 E0.02037
G1 X178.401 Y128.987 E0.01903
G1 X177.848 Y129.216 E0.01878
G1 X177.254 Y129.294 E0.01878
G1 X176.660 Y129.216 E0.01878
G1 X176.107 Y128.987 E0.01878
G1 X175.632 Y128.622 E0.01878
G1 X175.267 Y128.147 E0.01878
G1 X175.038 Y127.594 E0.01878
G1 X174.968 Y127.059 E0.01689
G1 X175.342 Y127.010 F10800.000
;TYPE:External perimeter
G1 F1200.000
G1 X175.406 Y126.505 E0.01598
G1 X175.597 Y126.043 E0.01566
G1 X175.901 Y125.647 E0.01566
G1 X176.297 Y125.343 E0.01566
G1 X176.759 Y125.152 E0.01566
G1 X177.199 Y125.094 E0.01393
G1 X177.747 Y125.151 E0.01726
G1 X178.211 Y125.343 E0.01575
G1 X178.607 Y125.647 E0.01566
G1 X178.911 Y126.043 E0.01566
G1 X179.102 Y126.505 E0.01566
G1 X179.168 Y127.000 E0.01566
G1 X179.102 Y127.495 E0.01566
G1 X178.932 Y127.906 E0.01393
G1 X178.609 Y128.351 E0.01726
G1 X178.211 Y128.657 E0.01575
G1 X177.749 Y128.848 E0.01566
G1 X177.254 Y128.914 E0.01566
G1 X176.759 Y128.848 E0.01566
G1 X176.297 Y128.657 E0.01566
G1 X175.901 Y128.353 E0.01566
G1 X175.597 Y127.957 E0.01566
G1 X175.406 Y127.495 E0.01566
G1 X175.350 Y127.070 E0.01346
G1 X174.995 Y126.812 F10800.000
;WIPE_START
G1 F8640.000
G1 X175.406 Y126.505 E-0.13110
G1 X175.597 Y126.043 E-0.11534
G1 X175.901 Y125.647 E-0.11534
G1 X176.297 Y125.343 E-0.11535
G1 X176.759 Y125.152 E-0.11534
G1 X177.199 Y125.094 E-0.10256
G1 X177.479 Y125.123 E-0.06497
;WIPE_END
G1 E-0.04000 F2100.000
G1 Z0.600 F10800.000
G1 X177.254 Y85.294
G1 Z0.200
G1 E0.80000 F2100.000
;TYPE:Perimeter
G1 F1200.000
G1 X176.660 Y85.216 E0.01878
G1 X176.163 Y85.010 E0.01688
G1 X175.637 Y84.629 E0.02037
G1 X175.267 Y84.147 E0.01903
G1 X175.038 Y83.594 E0.01878
G1 X174.960 Y83.000 E0.01878
G1 X175.038 Y82.406 E0.01878
G1 X175.244 Y81.909 E0.01687
G1 X175.625 Y81.383 E0.02037
G1 X176.107 Y81.013 E0.01903
G1 X176.660 Y80.784 E0.01878
G1 X177.194 Y80.714 E0.01688
G1 X177.840 Y80.781 E0.02037
G1 X178.401 Y81.013 E0.01903
G1 X178.876 Y81.378 E0.01878
G1 X179.241 Y81.853 E0.01878
G1 X179.470 Y82.406 E0.01878
G1 X179.548 Y83.000 E0.01878
G1 X179.470 Y83.594 E0.01878
G1 X179.241 Y84.147 E0.01878
G1 X178.876 Y84.622 E0.01878
G1 X178.401 Y84.987 E0.01878
G1 X177.848 Y85.216 E0.01878
G1 X177.313 Y85.286 E0.01689
G1 X177.264 Y84.912 F10800.000
;TYPE:External perimeter
G1 F1200.000
G1 X176.759 Y84.848 E0.01598
G1 X176.348 Y84.678 E0.01393
G1 X175.903 Y84.355 E0.01726
G1 X175.597 Y83.957 E0.01575
G1 X175.406 Y83.495 E0.01566
G1 X175.340 Y83.000 E0.01566
G1 X175.406 Y82.505 E0.01566
G1 X175.576 Y82.094 E0.01393
G1 X175.899 Y81.649 E0.01726
G1 X176.297 Y81.343 E0.01575
G1 X176.759 Y81.152 E0.01566
G1 X177.199 Y81.094 E0.01393
G1 X177.747 Y81.151 E0.01726
G1 X178.211 Y81.343 E0.01575
G1 X178.607 Y81.647 E0.01566
G1 X178.911 Y82.043 E0.01566
G1 X179.102 Y82.505 E0.01566
G1 X179.168 Y83.000 E0.01566
G1 X179.102 Y83.495 E0.01566
G1 X178.911 Y83.957 E0.01566
G1 X178.607 Y84.353 E0.01566
G1 X178.211 Y84.657 E0.01566
G1 X177.749 Y84.848 E0.01566
G1 X177.324 Y84.904 E0.01346
G1 X177.066 Y85.259 F10800.000
;WIPE_START
G1 F8640.000
G1 X176.759 Y84.848 E-0.13110
G1 X176.348 Y84.678 E-0.10256
G1 X175.903 Y84.355 E-0.12709
G1 X175.597 Y83.957 E-0.11602
G1 X175.406 Y83.495 E-0.11534
G1 X175.340 Y83.000 E-0.11534
G1 X175.370 Y82.774 E-0.05254
;WIPE_END
G1 E-0.04000 F2100.000
G1 Z0.600 F10800.000
G1 X192.857 Y72.321
G1 Z0.200
G1 E0.80000 F2100.000
;TYPE:Perimeter
G1 F1200.000
G1 X192.933 Y72.397 E0.00335
G1 X192.967 Y72.552 E0.00497
G1 X192.967 Y137.448 E2.03479
G1 X192.933 Y137.603 E0.00497
G1 X192.857 Y137.679 E0.00335
G1 X192.702 Y137.713 E0.00497
G1 X57.298 Y137.713 E4.24552
G1 X57.143 Y137.679 E0.00497
G1 X57.067 Y137.603 E0.00335
G1 X57.033 Y137.448 E0.00497
G1 X57.033 Y72.552 E2.03479
G1 X57.067 Y72.397 E0.00497
G1 X57.143 Y72.321 E0.00335
G1 X57.298 Y72.287 E0.00497
G1 X192.702 Y72.287 E4.24552
G1 X192.801 Y72.300 E0.00312
G1 X193.262 Y72.207 F10800.000
;TYPE:External perimeter
G1 F1200.000
G1 X193.320 Y72.348 E0.00480
G1 X193.344 Y72.527 E0.00565
G1 X193.344 Y137.473 E2.03634
G1 X193.320 Y137.652 E0.00565
G1 X193.262 Y137.793 E0.00480
G1 X193.169 Y137.915 E0.00480
G1 X193.047 Y138.008 E0.00480
G1 X192.906 Y138.066 E0.00480
G1 X192.727 Y138.090 E0.00565
G1 X57.273 Y138.090 E4.24707
G1 X57.094 Y138.066 E0.00565
G1 X56.953 Y138.008 E0.00480
G1 X56.831 Y137.915 E0.00480
G1 X56.738 Y137.793 E0.00480
G1 X56.680 Y137.652 E0.00480
G1 X56.656 Y137.473 E0.00565
G1 X56.656 Y72.527 E2.03634
M73 P0 R185
G1 X56.680 Y72.348 E0.00565
G1 X56.738 Y72.207 E0.00480
G1 X56.831 Y72.085 E0.00480
G1 X56.953 Y71.992 E0.00480
G1 X57.094 Y71.934 E0.00480
G1 X57.273 Y71.910 E0.00565
G1 X192.727 Y71.910 E4.24707
M73 Q0 S188
G1 X192.906 Y71.934 E0.00565
G1 X193.047 Y71.992 E0.00480
G1 X193.169 Y72.085 E0.00480
G1 X193.225 Y72.159 E0.00292
G1 X193.185 Y72.339 F10800.000
;WIPE_START
G1 F8640.000
G1 X193.320 Y72.348 E-0.04886
G1 X193.344 Y72.527 E-0.04161
G1 X193.344 Y75.426 E-0.66953
;WIPE_END
G1 E-0.04000 F2100.000
G1 Z0.600 F10800.000
G1 X192.854 Y73.242
G1 Z0.200
G1 E0.80000 F2100.000
;TYPE:Solid infill
;WIDTH:0.420617
G1 F1200.000
G1 X192.181 Y72.570 E0.02986
G1 X191.647 Y72.570 E0.01678
G1 X192.684 Y73.607 E0.04605
G1 X192.684 Y74.141 E0.01678
G1 X191.113 Y72.570 E0.06977
G1 X190.579 Y72.570 E0.01678
G1 X192.684 Y74.675 E0.09350
G1 X192.684 Y75.209 E0.01678
G1 X190.045 Y72.570 E0.11722
G1 X189.511 Y72.570 E0.01678
