; generated by PrusaSlicer 2.3.0+win64 on 2021-05-06 at 19:10:25 UTC

; 

; external perimeters extrusion width = 0.45mm
; perimeters extrusion width = 0.45mm
; infill extrusion width = 0.45mm
; solid infill extrusion width = 0.45mm
; top infill extrusion width = 0.40mm
; first layer extrusion width = 0.42mm

M73 P0 R26
M73 Q0 S26
M201 X1000 Y1000 Z200 E5000 ; sets maximum accelerations, mm/sec^2
M203 X200 Y200 Z12 E120 ; sets maximum feedrates, mm/sec
M204 P1250 R1250 T1250 ; sets acceleration (P, T) and retract acceleration (R), mm/sec^2
M205 X8.00 Y8.00 Z0.40 E4.50 ; sets the jerk limits, mm/sec
M205 S0 T0 ; sets the minimum extruding and travel feed rate, mm/sec
M107
;TYPE:Custom
M862.3 P "MK3S" ; printer model check
M862.1 P0.4 ; nozzle diameter check
M115 U3.9.3 ; tell printer latest fw version
G90 ; use absolute coordinates
M83 ; extruder relative mode
M104 S215 ; set extruder temp
M140 S60 ; set bed temp
M190 S60 ; wait for bed temp
M109 S215 ; wait for extruder temp
G28 W ; home all without mesh bed level
G80 ; mesh bed leveling
G1 Y-3.0 F1000.0 ; go outside print area
G92 E0.0
G1 X60.0 E9.0 F1000.0 ; intro line
G1 X100.0 E12.5 F1000.0 ; intro line
G92 E0.0
M221 S95

; Don't change E values below. Excessive value can damage the printer.
M907 E430 ; set extruder motor current
G21 ; set units to millimeters
G90 ; use absolute coordinates
M83 ; use relative distances for extrusion
M900 K0.05 ; Filament gcode LA 1.5
M900 K30 ; Filament gcode LA 1.0
;LAYER_CHANGE
;Z:0.2
;HEIGHT:0.2
;BEFORE_LAYER_CHANGE
G92 E0.0
;0.2


G1 E-0.80000 F2100.000
G1 Z0.400 F10800.000
;AFTER_LAYER_CHANGE
;0.2
G1 X100.780 Y83.832
G1 Z0.200
G1 E0.80000 F2100.000
M204 S1000
;TYPE:Skirt
;WIDTH:0.42
G1 F1200.000
G1 X102.089 Y82.421 E0.06035
G1 X103.478 Y81.094 E0.06023
G1 X104.896 Y79.890 E0.05832
G1 X106.547 Y78.653 E0.06469
G1 X108.096 Y77.632 E0.05816
G1 X109.763 Y76.669 E0.06035
G1 X111.481 Y75.810 E0.06023
G1 X113.187 Y75.079 E0.05820
G1 X115.128 Y74.383 E0.06465
G1 X116.914 Y73.863 E0.05832
G1 X118.787 Y73.435 E0.06023
G1 X120.686 Y73.120 E0.06035
G1 X122.532 Y72.925 E0.05820
G1 X124.565 Y72.832 E0.06381
G1 X126.448 Y72.861 E0.05904
G1 X128.303 Y72.998 E0.05832
G1 X130.347 Y73.276 E0.06469
G1 X132.167 Y73.635 E0.05816
G1 X134.030 Y74.120 E0.06035
G1 X135.857 Y74.713 E0.06023
G1 X137.589 Y75.392 E0.05832
G1 X139.456 Y76.257 E0.06453
G1 X141.094 Y77.139 E0.05832
G1 X142.731 Y78.151 E0.06035
G1 X144.302 Y79.257 E0.06023
G1 X145.757 Y80.416 E0.05832
G1 X147.290 Y81.796 E0.06469
G1 X148.591 Y83.119 E0.05816
G1 X149.858 Y84.568 E0.06035
G1 X151.033 Y86.088 E0.06023
G1 X152.082 Y87.624 E0.05832
G1 X153.137 Y89.391 E0.06453
G1 X153.993 Y91.042 E0.05832
G1 X154.776 Y92.801 E0.06035
G1 X155.451 Y94.599 E0.06023
G1 X156.000 Y96.377 E0.05832
G1 X156.489 Y98.381 E0.06469
G1 X156.819 Y100.206 E0.05816
G1 X157.049 Y102.117 E0.06035
G1 X157.164 Y104.035 E0.06023
G1 X157.165 Y105.891 E0.05820
G1 X157.042 Y107.949 E0.06465
G1 X156.819 Y109.796 E0.05832
G1 X156.475 Y111.690 E0.06035
G1 X156.020 Y113.556 E0.06023
G1 X155.473 Y115.334 E0.05832
G1 X154.750 Y117.261 E0.06453
G1 X153.992 Y118.960 E0.05832
G1 X153.105 Y120.668 E0.06035
G1 X152.120 Y122.317 E0.06023
G1 X151.073 Y123.855 E0.05832
G1 X149.814 Y125.483 E0.06453
G1 X148.589 Y126.883 E0.05832
G1 X147.241 Y128.252 E0.06023
G1 X145.726 Y129.609 E0.06380
G1 X144.303 Y130.742 E0.05703
G1 X142.729 Y131.850 E0.06035
G1 X141.095 Y132.860 E0.06023
G1 X139.457 Y133.743 E0.05832
G1 X137.585 Y134.610 E0.06469
G1 X135.858 Y135.286 E0.05816
G1 X134.027 Y135.881 E0.06035
G1 X132.168 Y136.364 E0.06023
G1 X130.347 Y136.724 E0.05820
G1 X128.304 Y137.001 E0.06465
G1 X126.449 Y137.139 E0.05832
G1 X124.562 Y137.168 E0.05916
G1 X122.532 Y137.075 E0.06373
G1 X120.687 Y136.880 E0.05816
G1 X118.788 Y136.565 E0.06035
G1 X116.915 Y136.138 E0.06023
G1 X115.130 Y135.617 E0.05832
G1 X113.187 Y134.921 E0.06469
G1 X111.482 Y134.191 E0.05816
G1 X109.761 Y133.330 E0.06035
G1 X108.097 Y132.369 E0.06023
G1 X106.544 Y131.345 E0.05832
G1 X104.897 Y130.111 E0.06453
G1 X103.479 Y128.907 E0.05832
G1 X102.090 Y127.580 E0.06023
G1 X100.733 Y126.113 E0.06266
G1 X99.556 Y124.679 E0.05816
G1 X98.425 Y123.122 E0.06035
G1 X97.390 Y121.503 E0.06023
G1 X96.484 Y119.879 E0.05832
G1 X95.589 Y118.020 E0.06469
M73 Q1 S26
G1 X94.886 Y116.303 E0.05816
G1 X94.264 Y114.482 E0.06035
G1 X93.753 Y112.630 E0.06023
M73 P1 R26
G1 X93.365 Y110.811 E0.05832
G1 X93.058 Y108.770 E0.06469
G1 X92.893 Y106.923 E0.05816
G1 X92.835 Y104.999 E0.06035
G1 X92.893 Y103.079 E0.06023
G1 X93.058 Y101.226 E0.05832
G1 X93.366 Y99.186 E0.06469
G1 X93.753 Y97.372 E0.05816
G1 X94.265 Y95.516 E0.06035
G1 X94.886 Y93.698 E0.06023
G1 X95.589 Y91.980 E0.05820
G1 X96.483 Y90.122 E0.06465
G1 X97.390 Y88.498 E0.05832
G1 X98.424 Y86.879 E0.06023
G1 X99.601 Y85.264 E0.06266
G1 X100.742 Y83.878 E0.05628
; printing object Nudger2-lid.stl id:0 copy 0
;WIPE_START
G1 F8640.000
G1 X102.089 Y82.421 E-0.45829
G1 X103.034 Y81.518 E-0.30171
;WIPE_END
G1 E-0.04000 F2100.000
G1 Z0.600 F10800.000
G1 X109.759 Y91.638
G1 Z0.200
G1 E0.80000 F2100.000
;TYPE:Perimeter
G1 F1200.000
G1 X110.135 Y91.201 E0.01808
G1 X111.208 Y90.128 E0.04757
G1 X112.358 Y89.138 E0.04757
G1 X113.578 Y88.238 E0.04757
G1 X114.863 Y87.430 E0.04757
G1 X116.204 Y86.721 E0.04757
G1 X117.595 Y86.115 E0.04757
G1 X119.027 Y85.614 E0.04757
G1 X120.492 Y85.221 E0.04757
G1 X121.983 Y84.939 E0.04757
G1 X123.491 Y84.769 E0.04757
G1 X124.970 Y84.714 E0.04640
G1 X126.522 Y84.769 E0.04872
G1 X128.031 Y84.939 E0.04759
G1 X129.521 Y85.221 E0.04757
G1 X130.987 Y85.614 E0.04757
G1 X132.419 Y86.115 E0.04757
G1 X133.809 Y86.721 E0.04757
G1 X135.151 Y87.430 E0.04757
G1 X136.435 Y88.238 E0.04757
G1 X137.626 Y89.116 E0.04640
G1 X138.806 Y90.128 E0.04872
G1 X139.879 Y91.201 E0.04759
G1 X140.868 Y92.351 E0.04757
G1 X141.769 Y93.572 E0.04757
G1 X142.576 Y94.856 E0.04757
G1 X143.285 Y96.198 E0.04757
G1 X143.877 Y97.554 E0.04640
G1 X144.393 Y99.020 E0.04872
G1 X144.786 Y100.486 E0.04759
G1 X145.068 Y101.976 E0.04757
G1 X145.234 Y103.447 E0.04640
G1 X145.294 Y104.999 E0.04872
G1 X145.238 Y106.516 E0.04759
G1 X145.068 Y108.024 E0.04757
G1 X144.786 Y109.514 E0.04757
G1 X144.393 Y110.980 E0.04757
G1 X143.892 Y112.412 E0.04757
G1 X143.285 Y113.802 E0.04757
G1 X142.576 Y115.144 E0.04757
G1 X141.769 Y116.428 E0.04757
G1 X140.890 Y117.619 E0.04640
G1 X139.879 Y118.799 E0.04872
G1 X138.806 Y119.872 E0.04759
G1 X137.656 Y120.862 E0.04757
G1 X136.435 Y121.762 E0.04757
G1 X135.151 Y122.570 E0.04757
G1 X133.809 Y123.279 E0.04757
G1 X132.419 Y123.885 E0.04757
G1 X130.987 Y124.386 E0.04757
G1 X129.521 Y124.779 E0.04757
G1 X128.031 Y125.061 E0.04757
G1 X126.523 Y125.231 E0.04757
G1 X125.007 Y125.288 E0.04757
G1 X123.491 Y125.231 E0.04757
G1 X121.983 Y125.061 E0.04757
G1 X120.492 Y124.779 E0.04757
G1 X119.027 Y124.386 E0.04757
G1 X117.595 Y123.885 E0.04757
G1 X116.204 Y123.279 E0.04757
G1 X114.863 Y122.570 E0.04757
G1 X113.578 Y121.762 E0.04757
G1 X112.358 Y120.862 E0.04757
G1 X111.208 Y119.872 E0.04757
G1 X110.135 Y118.799 E0.04757
G1 X109.145 Y117.649 E0.04757
G1 X108.244 Y116.428 E0.04757
G1 X107.437 Y115.144 E0.04757
G1 X106.728 Y113.802 E0.04757
G1 X106.136 Y112.446 E0.04640
G1 X105.621 Y110.980 E0.04872
G1 X105.228 Y109.514 E0.04759
G1 X104.946 Y108.024 E0.04757
G1 X104.776 Y106.516 E0.04757
G1 X104.719 Y105.000 E0.04757
G1 X104.776 Y103.484 E0.04757
G1 X104.946 Y101.976 E0.04757
G1 X105.228 Y100.486 E0.04757
G1 X105.621 Y99.020 E0.04757
G1 X106.122 Y97.588 E0.04757
G1 X106.728 Y96.198 E0.04757
G1 X107.437 Y94.856 E0.04757
G1 X108.225 Y93.603 E0.04640
G1 X109.145 Y92.351 E0.04872
G1 X109.720 Y91.684 E0.02762
G1 X110.005 Y91.929 F10800.000
;TYPE:External perimeter
G1 F1200.000
G1 X110.412 Y91.458 E0.01952
G1 X111.464 Y90.405 E0.04668
G1 X112.593 Y89.434 E0.04668
G1 X113.791 Y88.549 E0.04668
G1 X115.052 Y87.757 E0.04668
G1 X116.368 Y87.061 E0.04668
G1 X117.733 Y86.466 E0.04668
G1 X119.138 Y85.974 E0.04668
G1 X120.576 Y85.589 E0.04668
G1 X122.039 Y85.312 E0.04668
G1 X123.519 Y85.145 E0.04668
G1 X124.970 Y85.091 E0.04553
G1 X126.495 Y85.145 E0.04783
G1 X127.974 Y85.312 E0.04669
G1 X129.437 Y85.589 E0.04668
G1 X130.875 Y85.974 E0.04668
G1 X132.281 Y86.466 E0.04668
G1 X133.646 Y87.061 E0.04668
G1 X134.962 Y87.757 E0.04668
G1 X136.223 Y88.549 E0.04668
G1 X137.391 Y89.412 E0.04553
G1 X138.549 Y90.405 E0.04783
G1 X139.602 Y91.458 E0.04669
G1 X140.573 Y92.586 E0.04668
G1 X141.457 Y93.784 E0.04668
G1 X142.250 Y95.045 E0.04668
G1 X142.945 Y96.361 E0.04668
G1 X143.526 Y97.692 E0.04553
G1 X144.033 Y99.131 E0.04783
G1 X144.418 Y100.570 E0.04669
G1 X144.695 Y102.033 E0.04668
G1 X144.857 Y103.475 E0.04553
G1 X144.917 Y105.000 E0.04783
G1 X144.861 Y106.488 E0.04669
G1 X144.695 Y107.967 E0.04668
G1 X144.418 Y109.430 E0.04668
G1 X144.033 Y110.869 E0.04668
G1 X143.541 Y112.274 E0.04668
G1 X142.945 Y113.639 E0.04668
G1 X142.250 Y114.955 E0.04668
G1 X141.457 Y116.216 E0.04668
G1 X140.595 Y117.384 E0.04553
G1 X139.602 Y118.542 E0.04783
G1 X138.549 Y119.595 E0.04669
G1 X137.421 Y120.566 E0.04668
G1 X136.223 Y121.451 E0.04668
G1 X134.962 Y122.243 E0.04668
G1 X133.646 Y122.939 E0.04668
G1 X132.281 Y123.534 E0.04668
G1 X130.875 Y124.026 E0.04668
G1 X129.437 Y124.411 E0.04668
G1 X127.974 Y124.688 E0.04668
G1 X126.495 Y124.855 E0.04668
G1 X125.007 Y124.910 E0.04668
G1 X123.519 Y124.855 E0.04668
G1 X122.039 Y124.688 E0.04668
G1 X120.576 Y124.411 E0.04668
G1 X119.138 Y124.026 E0.04668
G1 X117.733 Y123.534 E0.04668
G1 X116.368 Y122.939 E0.04668
G1 X115.052 Y122.243 E0.04668
G1 X113.791 Y121.451 E0.04668
G1 X112.593 Y120.566 E0.04668
G1 X111.464 Y119.595 E0.04668
G1 X110.412 Y118.542 E0.04668
G1 X109.440 Y117.414 E0.04668
G1 X108.556 Y116.216 E0.04668
G1 X107.764 Y114.955 E0.04668
G1 X107.068 Y113.639 E0.04668
G1 X106.488 Y112.308 E0.04553
G1 X105.981 Y110.869 E0.04783
G1 X105.596 Y109.430 E0.04669
G1 X105.319 Y107.967 E0.04668
G1 X105.152 Y106.488 E0.04668
G1 X105.097 Y105.000 E0.04668
G1 X105.152 Y103.512 E0.04668
G1 X105.319 Y102.033 E0.04668
G1 X105.596 Y100.570 E0.04668
G1 X105.981 Y99.131 E0.04668
G1 X106.473 Y97.726 E0.04668
G1 X107.068 Y96.361 E0.04668
G1 X107.764 Y95.045 E0.04668
G1 X108.537 Y93.815 E0.04553
G1 X109.440 Y92.586 E0.04783
M73 P1 R25
G1 X109.966 Y91.975 E0.02529
G1 X109.867 Y91.554 F10800.000
;WIPE_START
G1 F8640.000
G1 X110.412 Y91.458 E-0.15761
G1 X111.464 Y90.405 E-0.34380
G1 X112.313 Y89.674 E-0.25859
;WIPE_END
G1 E-0.04000 F2100.000
G1 Z0.600 F10800.000
G1 X103.431 Y86.601
G1 Z0.200
G1 E0.80000 F2100.000
;TYPE:Perimeter
G1 F1200.000
G1 X103.647 Y86.338 E0.01067
G1 X104.801 Y85.094 E0.05321
M73 Q2 S26
G1 X106.028 Y83.922 E0.05321
G1 X107.322 Y82.824 E0.05321
G1 X108.680 Y81.806 E0.05321
M73 P2 R25
G1 X110.096 Y80.872 E0.05321
G1 X111.566 Y80.023 E0.05321
G1 X113.084 Y79.264 E0.05321
G1 X114.644 Y78.597 E0.05321
G1 X116.242 Y78.024 E0.05321
G1 X117.871 Y77.549 E0.05321
G1 X119.525 Y77.171 E0.05321
G1 X121.199 Y76.893 E0.05321
G1 X122.887 Y76.716 E0.05321
G1 X124.583 Y76.639 E0.05321
G1 X126.279 Y76.665 E0.05321
M73 Q2 S25
G1 X127.972 Y76.792 E0.05321
G1 X129.653 Y77.019 E0.05321
G1 X131.318 Y77.347 E0.05321
G1 X132.961 Y77.774 E0.05321
G1 X133.551 Y77.966 E0.01946
G1 X134.575 Y78.299 E0.03375
G1 X136.154 Y78.919 E0.05321
G1 X137.694 Y79.632 E0.05321
G1 X139.189 Y80.436 E0.05321
G1 X140.632 Y81.328 E0.05321
G1 X141.140 Y81.686 E0.01946
G1 X142.020 Y82.305 E0.03375
G1 X143.347 Y83.363 E0.05321
G1 X144.608 Y84.499 E0.05321
G1 X145.799 Y85.708 E0.05321
G1 X146.915 Y86.986 E0.05321
G1 X147.954 Y88.328 E0.05321
G1 X148.910 Y89.730 E0.05321
G1 X149.780 Y91.187 E0.05321
G1 X150.562 Y92.693 E0.05321
G1 X151.252 Y94.244 E0.05321
G1 X151.848 Y95.833 E0.05321
G1 X152.348 Y97.454 E0.05321
G1 X152.751 Y99.103 E0.05321
G1 X153.054 Y100.773 E0.05321
G1 X153.256 Y102.457 E0.05321
G1 X153.358 Y104.151 E0.05321
G1 X153.358 Y105.849 E0.05321
G1 X153.256 Y107.543 E0.05321
G1 X153.054 Y109.227 E0.05321
G1 X152.751 Y110.897 E0.05321
G1 X152.348 Y112.546 E0.05321
G1 X151.848 Y114.167 E0.05321
G1 X151.252 Y115.756 E0.05321
G1 X150.562 Y117.307 E0.05321
G1 X149.780 Y118.813 E0.05321
G1 X148.910 Y120.270 E0.05321
G1 X147.954 Y121.672 E0.05321
G1 X146.915 Y123.014 E0.05321
G1 X145.799 Y124.292 E0.05321
G1 X144.608 Y125.501 E0.05321
G1 X143.347 Y126.637 E0.05321
G1 X142.020 Y127.695 E0.05321
G1 X140.632 Y128.672 E0.05321
G1 X139.189 Y129.564 E0.05321
G1 X137.694 Y130.368 E0.05321
G1 X136.154 Y131.081 E0.05321
G1 X134.575 Y131.701 E0.05321
G1 X132.961 Y132.226 E0.05321
G1 X131.318 Y132.653 E0.05321
G1 X129.653 Y132.981 E0.05321
G1 X127.972 Y133.208 E0.05321
G1 X126.279 Y133.335 E0.05321
G1 X124.583 Y133.361 E0.05321
G1 X122.887 Y133.284 E0.05321
G1 X121.199 Y133.107 E0.05321
G1 X119.525 Y132.829 E0.05321
G1 X117.871 Y132.451 E0.05321
G1 X116.242 Y131.976 E0.05321
G1 X114.644 Y131.403 E0.05321
G1 X113.084 Y130.736 E0.05321
G1 X111.566 Y129.977 E0.05321
G1 X110.096 Y129.129 E0.05321
G1 X108.680 Y128.194 E0.05321
G1 X107.322 Y127.176 E0.05321
G1 X106.028 Y126.078 E0.05321
G1 X104.801 Y124.906 E0.05321
G1 X103.647 Y123.662 E0.05321
G1 X103.108 Y123.006 E0.02660
G1 X102.569 Y122.351 E0.02660
G1 X101.572 Y120.978 E0.05321
G1 X100.658 Y119.548 E0.05321
G1 X99.832 Y118.066 E0.05321
G1 X99.095 Y116.537 E0.05321
G1 X98.452 Y114.966 E0.05321
G1 X97.903 Y113.360 E0.05321
G1 X97.452 Y111.724 E0.05321
G1 X97.099 Y110.065 E0.05321
G1 X96.846 Y108.386 E0.05321
G1 X96.694 Y106.696 E0.05321
G1 X96.643 Y105.000 E0.05321
G1 X96.694 Y103.304 E0.05321
G1 X96.846 Y101.614 E0.05321
G1 X97.099 Y99.935 E0.05321
G1 X97.452 Y98.276 E0.05321
G1 X97.903 Y96.640 E0.05321
G1 X98.452 Y95.034 E0.05321
G1 X99.095 Y93.463 E0.05321
G1 X99.832 Y91.934 E0.05321
G1 X100.658 Y90.452 E0.05321
G1 X101.572 Y89.022 E0.05321
G1 X102.569 Y87.649 E0.05321
G1 X103.393 Y86.647 E0.04066
G1 X103.101 Y86.408 F10800.000
;TYPE:External perimeter
G1 F1200.000
G1 X103.363 Y86.090 E0.01290
G1 X104.532 Y84.830 E0.05392
G1 X105.775 Y83.641 E0.05392
G1 X107.087 Y82.529 E0.05392
G1 X108.463 Y81.498 E0.05392
G1 X109.898 Y80.551 E0.05392
G1 X111.387 Y79.691 E0.05392
G1 X112.925 Y78.922 E0.05392
G1 X114.507 Y78.246 E0.05392
G1 X116.125 Y77.666 E0.05392
G1 X117.776 Y77.183 E0.05392
G1 X119.452 Y76.801 E0.05392
G1 X121.149 Y76.519 E0.05392
G1 X122.859 Y76.339 E0.05392
G1 X124.577 Y76.262 E0.05392
G1 X126.296 Y76.288 E0.05392
G1 X128.011 Y76.416 E0.05392
G1 X129.715 Y76.647 E0.05392
G1 X131.402 Y76.980 E0.05392
G1 X133.067 Y77.412 E0.05392
G1 X133.668 Y77.607 E0.01981
G1 X134.702 Y77.944 E0.03411
G1 X136.303 Y78.572 E0.05392
G1 X137.863 Y79.295 E0.05392
G1 X139.377 Y80.110 E0.05392
G1 X140.840 Y81.014 E0.05392
G1 X141.357 Y81.377 E0.01981
G1 X142.246 Y82.003 E0.03411
G1 X143.591 Y83.076 E0.05392
G1 X144.869 Y84.226 E0.05392
G1 X146.075 Y85.451 E0.05392
G1 X147.207 Y86.746 E0.05392
G1 X148.259 Y88.106 E0.05392
G1 X149.227 Y89.527 E0.05392
G1 X150.109 Y91.003 E0.05392
G1 X150.902 Y92.530 E0.05392
G1 X151.601 Y94.101 E0.05392
G1 X152.205 Y95.711 E0.05392
G1 X152.712 Y97.354 E0.05392
G1 X153.120 Y99.024 E0.05392
G1 X153.427 Y100.716 E0.05392
G1 X153.632 Y102.424 E0.05392
G1 X153.735 Y104.140 E0.05392
G1 X153.735 Y105.860 E0.05392
G1 X153.632 Y107.576 E0.05392
G1 X153.427 Y109.284 E0.05392
G1 X153.120 Y110.976 E0.05392
G1 X152.712 Y112.646 E0.05392
G1 X152.205 Y114.289 E0.05392
G1 X151.601 Y115.899 E0.05392
G1 X150.902 Y117.470 E0.05392
G1 X150.109 Y118.997 E0.05392
G1 X149.227 Y120.473 E0.05392
G1 X148.259 Y121.894 E0.05392
G1 X147.207 Y123.254 E0.05392
G1 X146.075 Y124.549 E0.05392
G1 X144.869 Y125.774 E0.05392
G1 X143.591 Y126.925 E0.05392
G1 X142.246 Y127.997 E0.05392
G1 X140.840 Y128.986 E0.05392
G1 X139.377 Y129.890 E0.05392
G1 X137.863 Y130.705 E0.05392
G1 X136.303 Y131.428 E0.05392
G1 X134.702 Y132.056 E0.05392
G1 X133.067 Y132.588 E0.05392
G1 X131.402 Y133.020 E0.05392
G1 X129.715 Y133.353 E0.05392
G1 X128.011 Y133.584 E0.05392
G1 X126.296 Y133.712 E0.05392
G1 X124.577 Y133.738 E0.05392
G1 X122.859 Y133.661 E0.05392
G1 X121.149 Y133.481 E0.05392
G1 X119.452 Y133.199 E0.05392
G1 X117.776 Y132.817 E0.05392
G1 X116.125 Y132.334 E0.05392
