; generated by PrusaSlicer 2.3.0+win64 on 2021-04-27 at 11:31:24 UTC

; 

; external perimeters extrusion width = 0.45mm
; perimeters extrusion width = 0.45mm
; infill extrusion width = 0.45mm
; solid infill extrusion width = 0.45mm
; top infill extrusion width = 0.40mm
; first layer extrusion width = 0.42mm

M73 P0 R79
M73 Q0 S79
M201 X1000 Y1000 Z200 E5000 ; sets maximum accelerations, mm/sec^2
M203 X200 Y200 Z12 E120 ; sets maximum feedrates, mm/sec
M204 P1250 R1250 T1250 ; sets acceleration (P, T) and retract acceleration (R), mm/sec^2
M205 X8.00 Y8.00 Z0.40 E4.50 ; sets the jerk limits, mm/sec
M205 S0 T0 ; sets the minimum extruding and travel feed rate, mm/sec
M107
;TYPE:Custom
M862.3 P "MK3S" ; printer model check
M862.1 P0.4 ; nozzle diameter check
M115 U3.9.3 ; tell printer latest fw version
G90 ; use absolute coordinates
M83 ; extruder relative mode
M104 S215 ; set extruder temp
M140 S60 ; set bed temp
M190 S60 ; wait for bed temp
M109 S215 ; wait for extruder temp
G28 W ; home all without mesh bed level
G80 ; mesh bed leveling
G1 Y-3.0 F1000.0 ; go outside print area
G92 E0.0
G1 X60.0 E9.0 F1000.0 ; intro line
G1 X100.0 E12.5 F1000.0 ; intro line
G92 E0.0
M221 S95

; Don't change E values below. Excessive value can damage the printer.
M907 E430 ; set extruder motor current
G21 ; set units to millimeters
G90 ; use absolute coordinates
M83 ; use relative distances for extrusion
M900 K0.05 ; Filament gcode LA 1.5
M900 K30 ; Filament gcode LA 1.0
;LAYER_CHANGE
;Z:0.2
;HEIGHT:0.2
;BEFORE_LAYER_CHANGE
G92 E0.0
;0.2


G1 E-0.80000 F2100.000
G1 Z0.400 F10800.000
;AFTER_LAYER_CHANGE
;0.2
G1 X95.654 Y79.348
G1 Z0.200
G1 E0.80000 F2100.000
M204 S1000
;TYPE:Skirt
;WIDTH:0.42
G1 F1200.000
G1 X97.239 Y77.641 E0.07300
G1 X98.914 Y76.039 E0.07269
G1 X100.624 Y74.588 E0.07031
G1 X102.638 Y73.077 E0.07896
G1 X104.516 Y71.839 E0.07052
G1 X106.524 Y70.680 E0.07269
G1 X108.610 Y69.637 E0.07312
G1 X110.671 Y68.754 E0.07031
G1 X113.036 Y67.906 E0.07879
G1 X115.204 Y67.274 E0.07079
G1 X117.461 Y66.759 E0.07257
G1 X119.756 Y66.377 E0.07296
G1 X121.991 Y66.140 E0.07047
G1 X124.485 Y66.027 E0.07828
G1 X126.742 Y66.062 E0.07076
G1 X128.978 Y66.228 E0.07031
G1 X131.484 Y66.567 E0.07928
G1 X133.684 Y67.003 E0.07031
G1 X135.937 Y67.589 E0.07300
G1 X138.142 Y68.305 E0.07269
G1 X140.230 Y69.123 E0.07031
G1 X142.519 Y70.184 E0.07912
G1 X144.498 Y71.250 E0.07047
G1 X146.466 Y72.467 E0.07257
G1 X148.370 Y73.806 E0.07296
G1 X150.128 Y75.206 E0.07047
G1 X152.000 Y76.891 E0.07896
G1 X153.579 Y78.497 E0.07064
G1 X155.102 Y80.240 E0.07257
G1 X156.529 Y82.084 E0.07312
G1 X157.794 Y83.936 E0.07031
G1 X159.083 Y86.093 E0.07880
G1 X160.120 Y88.095 E0.07068
G1 X161.063 Y90.213 E0.07269
G1 X161.881 Y92.391 E0.07296
G1 X162.545 Y94.538 E0.07047
G1 X163.144 Y96.990 E0.07913
G1 X163.543 Y99.201 E0.07047
G1 X163.819 Y101.499 E0.07258
G1 X163.959 Y103.827 E0.07312
G1 X163.961 Y106.066 E0.07018
G1 X163.810 Y108.588 E0.07924
G1 X163.540 Y110.820 E0.07047
G1 X163.127 Y113.097 E0.07257
G1 X162.574 Y115.363 E0.07312
G1 X161.915 Y117.506 E0.07031
G1 X161.032 Y119.859 E0.07880
G1 X160.114 Y121.918 E0.07067
G1 X159.046 Y123.975 E0.07269
G1 X157.853 Y125.973 E0.07296
G1 X156.589 Y127.831 E0.07047
G1 X155.045 Y129.828 E0.07912
G1 X153.565 Y131.519 E0.07047
G1 X151.944 Y133.164 E0.07241
G1 X150.125 Y134.797 E0.07663
G1 X148.371 Y136.193 E0.07031
G1 X146.463 Y137.535 E0.07313
G1 X144.494 Y138.752 E0.07257
G1 X142.521 Y139.816 E0.07030
G1 X140.236 Y140.875 E0.07896
G1 X138.142 Y141.695 E0.07052
G1 X135.937 Y142.411 E0.07269
G1 X133.685 Y142.997 E0.07296
G1 X131.484 Y143.433 E0.07035
G1 X128.990 Y143.771 E0.07891
G1 X126.742 Y143.938 E0.07068
G1 X124.459 Y143.973 E0.07158
G1 X121.987 Y143.859 E0.07759
G1 X119.757 Y143.623 E0.07031
G1 X117.457 Y143.240 E0.07312
G1 X115.200 Y142.725 E0.07257
G1 X113.048 Y142.098 E0.07030
G1 X110.667 Y141.245 E0.07928
G1 X108.606 Y140.362 E0.07031
G1 X106.524 Y139.320 E0.07300
G1 X104.516 Y138.161 E0.07269
G1 X102.644 Y136.927 E0.07031
G1 X100.633 Y135.420 E0.07880
G1 X98.914 Y133.961 E0.07068
G1 X97.239 Y132.359 E0.07269
G1 X95.652 Y130.650 E0.07312
G1 X94.229 Y128.922 E0.07018
G1 X92.790 Y126.948 E0.07660
G1 X91.544 Y124.997 E0.07257
G1 X90.450 Y123.039 E0.07031
G1 X89.353 Y120.761 E0.07928
G1 X88.505 Y118.686 E0.07031
G1 X87.753 Y116.482 E0.07300
G1 X87.136 Y114.247 E0.07269
G1 X86.668 Y112.054 E0.07031
G1 X86.289 Y109.534 E0.07991
G1 X86.092 Y107.321 E0.06965
G1 X86.023 Y105.000 E0.07280
G1 X86.092 Y102.677 E0.07288
G1 X86.289 Y100.464 E0.06966
G1 X86.667 Y97.952 E0.07965
G1 X87.137 Y95.749 E0.07064
G1 X87.753 Y93.518 E0.07257
G1 X88.504 Y91.316 E0.07296
G1 X89.353 Y89.239 E0.07035
G1 X90.449 Y86.962 E0.07924
G1 X91.546 Y85.000 E0.07047
G1 X92.789 Y83.053 E0.07241
G1 X94.229 Y81.078 E0.07663
G1 X95.616 Y79.394 E0.06843
; printing object Nudger-body.stl id:0 copy 0
;WIPE_START
G1 F8640.000
G1 X97.239 Y77.641 E-0.55145
G1 X97.891 Y77.017 E-0.20855
;WIPE_END
G1 E-0.04000 F2100.000
G1 Z0.600 F10800.000
G1 X98.028 Y81.440
G1 Z0.200
G1 E0.80000 F2100.000
;TYPE:Perimeter
G1 F1200.000
G1 X99.491 Y79.864 E0.06742
G1 X101.040 Y78.384 E0.06718
G1 X102.668 Y77.003 E0.06694
G1 X104.389 Y75.713 E0.06742
G1 X106.171 Y74.537 E0.06694
G1 X108.026 Y73.465 E0.06718
G1 X109.942 Y72.507 E0.06718
G1 X111.913 Y71.664 E0.06718
G1 X113.937 Y70.939 E0.06742
G1 X115.994 Y70.338 E0.06718
G1 X118.083 Y69.862 E0.06718
G1 X120.189 Y69.512 E0.06694
G1 X122.320 Y69.288 E0.06718
G1 X124.461 Y69.192 E0.06719
G1 X124.883 Y69.198 E0.01324
G1 X126.611 Y69.224 E0.05418
G1 X128.747 Y69.384 E0.06718
G1 X130.863 Y69.671 E0.06694
G1 X132.965 Y70.084 E0.06718
G1 X135.039 Y70.623 E0.06718
G1 X137.077 Y71.285 E0.06718
G1 X139.079 Y72.071 E0.06742
G1 X141.016 Y72.968 E0.06694
G1 X142.903 Y73.984 E0.06718
G1 X144.732 Y75.114 E0.06742
G1 X146.484 Y76.347 E0.06718
G1 X148.153 Y77.679 E0.06694
G1 X149.746 Y79.112 E0.06718
G1 X151.250 Y80.638 E0.06718
G1 X152.665 Y82.258 E0.06742
G1 X153.975 Y83.953 E0.06718
G1 X155.182 Y85.724 E0.06718
G1 X156.277 Y87.556 E0.06694
G1 X157.264 Y89.458 E0.06718
G1 X158.139 Y91.423 E0.06742
G1 X158.892 Y93.429 E0.06718
G1 X159.523 Y95.476 E0.06718
G1 X160.031 Y97.558 E0.06718
G1 X160.412 Y99.659 E0.06694
G1 X160.669 Y101.794 E0.06742
G1 X160.796 Y103.925 E0.06694
G1 X160.797 Y106.068 E0.06718
G1 X160.668 Y108.214 E0.06742
G1 X160.413 Y110.334 E0.06694
G1 X160.031 Y112.442 E0.06718
G1 X159.523 Y114.524 E0.06718
G1 X158.892 Y116.571 E0.06718
G1 X158.136 Y118.585 E0.06742
G1 X157.264 Y120.542 E0.06718
G1 X156.281 Y122.437 E0.06694
G1 X155.178 Y124.283 E0.06742
G1 X153.971 Y126.053 E0.06718
G1 X152.660 Y127.748 E0.06718
G1 X151.250 Y129.362 E0.06718
G1 X149.752 Y130.882 E0.06694
G1 X148.153 Y132.321 E0.06742
G1 X146.478 Y133.657 E0.06718
G1 X144.726 Y134.890 E0.06718
G1 X142.903 Y136.016 E0.06718
G1 X141.023 Y137.028 E0.06694
G1 X139.072 Y137.932 E0.06742
G1 X137.077 Y138.715 E0.06718
G1 X135.039 Y139.377 E0.06718
G1 X132.965 Y139.916 E0.06718
G1 X130.871 Y140.328 E0.06694
G1 X128.740 Y140.617 E0.06742
G1 X126.611 Y140.776 E0.06694
G1 X124.468 Y140.809 E0.06718
G1 X122.327 Y140.713 E0.06718
G1 X120.197 Y140.489 E0.06718
M73 P0 R78
G1 X118.075 Y140.137 E0.06742
G1 X115.994 Y139.662 E0.06694
G1 X113.937 Y139.061 E0.06718
G1 X111.913 Y138.336 E0.06742
G1 X109.942 Y137.493 E0.06718
G1 X108.026 Y136.535 E0.06718
G1 X106.171 Y135.463 E0.06718
G1 X104.389 Y134.287 E0.06694
G1 X102.668 Y132.997 E0.06742
G1 X101.040 Y131.616 E0.06694
G1 X99.491 Y130.136 E0.06718
G1 X98.028 Y128.560 E0.06742
G1 X96.672 Y126.910 E0.06694
G1 X95.412 Y125.177 E0.06718
G1 X94.259 Y123.371 E0.06718
G1 X93.215 Y121.500 E0.06718
G1 X92.282 Y119.563 E0.06742
G1 X91.470 Y117.580 E0.06718
G1 X90.777 Y115.552 E0.06718
G1 X90.208 Y113.487 E0.06718
G1 X89.764 Y111.398 E0.06696
G1 X89.442 Y109.265 E0.06763
G1 X89.251 Y107.137 E0.06701
G1 X89.187 Y105.000 E0.06702
M73 Q0 S78
G1 X89.251 Y102.863 E0.06702
G1 X89.442 Y100.735 E0.06701
G1 X89.764 Y98.602 E0.06763
G1 X90.208 Y96.513 E0.06696
G1 X90.777 Y94.448 E0.06718
G1 X91.470 Y92.420 E0.06718
G1 X92.282 Y90.437 E0.06718
G1 X93.215 Y88.500 E0.06742
G1 X94.259 Y86.629 E0.06718
G1 X95.412 Y84.823 E0.06718
G1 X96.672 Y83.090 E0.06718
G1 X97.990 Y81.487 E0.06506
G1 X97.699 Y81.247 F10800.000
;TYPE:External perimeter
G1 F1200.000
G1 X99.222 Y79.599 E0.07036
G1 X100.787 Y78.103 E0.06789
G1 X102.433 Y76.708 E0.06765
G1 X104.172 Y75.405 E0.06813
G1 X105.972 Y74.216 E0.06765
G1 X107.847 Y73.133 E0.06789
G1 X109.784 Y72.164 E0.06789
G1 X111.775 Y71.313 E0.06789
G1 X113.820 Y70.580 E0.06813
G1 X115.899 Y69.973 E0.06789
G1 X118.010 Y69.492 E0.06789
G1 X120.138 Y69.138 E0.06765
G1 X122.292 Y68.912 E0.06789
G1 X124.455 Y68.814 E0.06789
G1 X124.888 Y68.821 E0.01360
G1 X126.627 Y68.847 E0.05453
G1 X128.787 Y69.009 E0.06789
G1 X130.925 Y69.298 E0.06765
G1 X133.049 Y69.717 E0.06789
G1 X135.145 Y70.261 E0.06789
G1 X137.204 Y70.930 E0.06789
G1 X139.227 Y71.724 E0.06813
G1 X141.185 Y72.631 E0.06765
G1 X143.092 Y73.657 E0.06789
G1 X144.940 Y74.799 E0.06813
G1 X146.711 Y76.046 E0.06789
G1 X148.397 Y77.391 E0.06765
G1 X150.007 Y78.840 E0.06789
G1 X151.526 Y80.382 E0.06789
G1 X152.956 Y82.018 E0.06813
G1 X154.280 Y83.731 E0.06789
G1 X155.500 Y85.520 E0.06789
G1 X156.607 Y87.373 E0.06765
G1 X157.604 Y89.294 E0.06789
G1 X158.488 Y91.279 E0.06813
G1 X159.249 Y93.307 E0.06789
G1 X159.887 Y95.376 E0.06789
G1 X160.400 Y97.479 E0.06789
G1 X160.785 Y99.602 E0.06765
G1 X161.044 Y101.760 E0.06813
G1 X161.173 Y103.914 E0.06765
G1 X161.174 Y106.079 E0.06789
G1 X161.044 Y108.248 E0.06813
G1 X160.786 Y110.390 E0.06765
G1 X160.400 Y112.521 E0.06789
G1 X159.887 Y114.624 E0.06789
G1 X159.249 Y116.693 E0.06789
G1 X158.485 Y118.728 E0.06813
G1 X157.604 Y120.706 E0.06789
G1 X156.610 Y122.621 E0.06765
G1 X155.496 Y124.486 E0.06813
G1 X154.276 Y126.275 E0.06789
G1 X152.951 Y127.988 E0.06789
G1 X151.526 Y129.618 E0.06789
G1 X150.012 Y131.155 E0.06765
G1 X148.397 Y132.609 E0.06813
G1 X146.704 Y133.959 E0.06789
G1 X144.934 Y135.205 E0.06789
G1 X143.092 Y136.343 E0.06789
G1 X141.192 Y137.366 E0.06765
G1 X139.220 Y138.279 E0.06813
G1 X137.204 Y139.070 E0.06789
G1 X135.145 Y139.739 E0.06789
G1 X133.049 Y140.283 E0.06789
G1 X130.932 Y140.700 E0.06765
G1 X128.779 Y140.992 E0.06813
G1 X126.627 Y141.153 E0.06765
G1 X124.462 Y141.186 E0.06789
G1 X122.299 Y141.089 E0.06789
G1 X120.146 Y140.863 E0.06789
G1 X118.002 Y140.507 E0.06813
G1 X115.899 Y140.027 E0.06765
G1 X113.820 Y139.420 E0.06789
G1 X111.775 Y138.687 E0.06813
G1 X109.784 Y137.836 E0.06789
G1 X107.847 Y136.867 E0.06789
G1 X105.972 Y135.784 E0.06789
G1 X104.172 Y134.595 E0.06765
G1 X102.433 Y133.292 E0.06813
G1 X100.787 Y131.897 E0.06765
G1 X99.222 Y130.401 E0.06789
G1 X97.744 Y128.808 E0.06813
G1 X96.374 Y127.141 E0.06765
G1 X95.101 Y125.390 E0.06789
G1 X93.935 Y123.565 E0.06789
G1 X92.880 Y121.674 E0.06789
G1 X91.937 Y119.716 E0.06813
G1 X91.116 Y117.713 E0.06789
G1 X90.417 Y115.663 E0.06789
G1 X89.841 Y113.576 E0.06789
G1 X89.392 Y111.465 E0.06766
G1 X89.068 Y109.310 E0.06833
G1 X88.875 Y107.159 E0.06772
G1 X88.810 Y105.000 E0.06773
G1 X88.875 Y102.841 E0.06773
G1 X89.068 Y100.690 E0.06772
G1 X89.392 Y98.535 E0.06833
G1 X89.841 Y96.424 E0.06766
G1 X90.417 Y94.337 E0.06789
G1 X91.116 Y92.287 E0.06789
G1 X91.937 Y90.284 E0.06789
G1 X92.880 Y88.326 E0.06813
G1 X93.935 Y86.435 E0.06789
G1 X95.101 Y84.610 E0.06789
G1 X96.374 Y82.859 E0.06789
G1 X97.661 Y81.294 E0.06353
G1 X98.091 Y81.324 F10800.000
;WIPE_START
G1 F8640.000
G1 X99.222 Y79.599 E-0.53200
G1 X99.936 Y78.917 E-0.22800
;WIPE_END
G1 E-0.04000 F2100.000
G1 Z0.600 F10800.000
G1 X152.626 Y82.393
G1 Z0.200
G1 E0.80000 F2100.000
;TYPE:Solid infill
;WIDTH:0.420837
G1 F1200.000
G1 X149.544 Y79.311 E0.13697
G1 X147.971 Y77.894 E0.06654
G1 X146.173 Y76.474 E0.07201
G1 X153.502 Y83.804 E0.32574
G1 X153.746 Y84.119 E0.01254
G1 X154.737 Y85.573 E0.05529
G1 X144.414 Y75.250 E0.45878
G1 X143.015 Y74.385 E0.05168
G1 X155.594 Y86.964 E0.55902
G1 X156.030 Y87.694 E0.02672
G1 X156.290 Y88.194 E0.01771
G1 X141.814 Y73.719 E0.64330
M73 Q1 S78
G1 X140.690 Y73.129 E0.03990
G1 X156.867 Y89.306 E0.71891
M73 P1 R78
G1 X157.009 Y89.581 E0.00974
G1 X157.332 Y90.306 E0.02494
G1 X139.694 Y72.668 E0.78385
G1 X138.730 Y72.238 E0.03318
G1 X157.761 Y91.269 E0.84577
G1 X158.111 Y92.154 E0.02990
G1 X137.850 Y71.892 E0.90042
G1 X136.971 Y71.548 E0.02965
G1 X158.432 Y93.009 E0.95373
G1 X158.720 Y93.831 E0.02737
G1 X136.180 Y71.291 E1.00169
G1 X135.388 Y71.034 E0.02615
G1 X158.958 Y94.604 E1.04745
G1 X159.196 Y95.377 E0.02541
G1 X134.628 Y70.809 E1.09180
G1 X133.906 Y70.621 E0.02344
G1 X159.384 Y96.099 E1.13222
G1 X159.556 Y96.805 E0.02286
G1 X133.184 Y70.434 E1.17197
G1 X132.497 Y70.280 E0.02214
G1 X159.729 Y97.512 E1.21018
G1 X159.855 Y98.173 E0.02115
G1 X131.831 Y70.149 E1.24538
G1 X131.166 Y70.018 E0.02131
G1 X159.973 Y98.826 E1.28022
G1 X160.092 Y99.479 E0.02085
G1 X130.523 Y69.910 E1.31406
G1 X129.905 Y69.826 E0.01960
G1 X160.180 Y100.102 E1.34546
G1 X160.254 Y100.710 E0.01923
G1 X129.286 Y69.742 E1.37618
G1 X128.671 Y69.662 E0.01949
G1 X160.327 Y101.317 E1.40676
G1 X160.393 Y101.918 E0.01899
G1 X128.094 Y69.619 E1.43538
G1 X127.516 Y69.575 E0.01821
G1 X160.427 Y102.486 E1.46257
G1 X160.461 Y103.055 E0.01790
G1 X126.938 Y69.532 E1.48977
G1 X126.375 Y69.503 E0.01773
G1 X160.495 Y103.623 E1.51631
M73 P1 R77
G1 X160.514 Y104.176 E0.01739
G1 X125.832 Y69.495 E1.54126
M73 Q1 S77
G1 X125.289 Y69.487 E0.01705
G1 X160.514 Y104.711 E1.56537
G1 X160.514 Y105.245 E0.01680
G1 X124.747 Y69.478 E1.58949
M73 P2 R77
M73 Q2 S77
G1 X124.219 Y69.485 E0.01658
G1 X160.514 Y105.780 E1.61293
G1 X160.499 Y106.300 E0.01635
G1 X123.708 Y69.508 E1.63502
G1 X123.196 Y69.531 E0.01609
G1 X160.469 Y106.804 E1.65640
G1 X160.439 Y107.308 E0.01587
G1 X122.685 Y69.555 E1.67779
G1 X122.183 Y69.587 E0.01582
G1 X160.409 Y107.813 E1.69877
G1 X160.372 Y108.310 E0.01567
G1 X121.699 Y69.638 E1.71861
G1 X121.216 Y69.688 E0.01528
G1 X160.314 Y108.787 E1.73755
G1 X160.257 Y109.264 E0.01510
G1 X120.732 Y69.739 E1.75649
G1 X120.248 Y69.790 E0.01528
G1 X160.200 Y109.741 E1.77543
G1 X160.142 Y110.218 E0.01510
G1 X119.789 Y69.865 E1.79330
G1 X119.331 Y69.941 E0.01460
G1 X160.064 Y110.675 E1.81019
G1 X159.982 Y111.127 E0.01445
G1 X118.872 Y70.017 E1.82692
G1 X118.414 Y70.094 E0.01460
G1 X159.900 Y111.579 E1.84364
G1 X159.818 Y112.032 E0.01445
G1 X117.965 Y70.179 E1.85995
G1 X117.530 Y70.278 E0.01403
G1 X159.731 Y112.479 E1.87542
G1 X159.626 Y112.909 E0.01390
G1 X117.094 Y70.377 E1.89010
G1 X116.659 Y70.477 E0.01403
G1 X159.521 Y113.338 E1.90478
M73 P3 R77
M73 Q3 S77
G1 X159.416 Y113.768 E0.01390
G1 X116.224 Y70.576 E1.91947
G1 X115.803 Y70.689 E0.01371
G1 X159.311 Y114.198 E1.93354
M73 P3 R76
M73 Q3 S76
G1 X159.198 Y114.619 E0.01370
G1 X115.389 Y70.810 E1.94688
G1 X114.975 Y70.930 E0.01354
G1 X159.072 Y115.027 E1.95966
G1 X158.946 Y115.436 E0.01343
G1 X114.562 Y71.051 E1.97245
G1 X114.148 Y71.172 E0.01354
G1 X158.820 Y115.844 E1.98523
G1 X158.694 Y116.253 E0.01343
G1 X113.748 Y71.307 E1.99739
G1 X113.355 Y71.448 E0.01313
G1 X158.559 Y116.652 E2.00888
G1 X158.413 Y117.041 E0.01304
G1 X112.962 Y71.589 E2.01989
G1 X112.568 Y71.730 E0.01313
G1 X158.268 Y117.429 E2.03089
G1 X158.122 Y117.818 E0.01304
G1 X112.175 Y71.871 E2.04190
G1 X111.793 Y72.023 E0.01293
G1 X157.976 Y118.207 E2.05239
G1 X157.824 Y118.590 E0.01294
G1 X111.418 Y72.183 E2.06230
G1 X111.044 Y72.343 E0.01279
G1 X157.660 Y118.959 E2.07161
G1 X157.495 Y119.329 E0.01272
G1 X110.669 Y72.504 E2.08093
M73 P4 R76
M73 Q4 S76
G1 X110.295 Y72.664 E0.01279
G1 X157.330 Y119.699 E2.09025
G1 X157.166 Y120.069 E0.01272
G1 X109.927 Y72.831 E2.09927
G1 X109.571 Y73.009 E0.01252
G1 X157.000 Y120.438 E2.10774
G1 X156.817 Y120.789 E0.01246
G1 X109.215 Y73.187 E2.11546
G1 X108.859 Y73.365 E0.01252
G1 X156.635 Y121.141 E2.12317
M73 P4 R75
G1 X156.452 Y121.493 E0.01246
G1 X108.502 Y73.543 E2.13089
M73 Q4 S75
G1 X108.147 Y73.722 E0.01251
G1 X156.270 Y121.845 E2.13858
G1 X156.087 Y122.197 E0.01246
G1 X107.808 Y73.918 E2.14552
G1 X107.469 Y74.114 E0.01229
G1 X155.892 Y122.536 E2.15191
G1 X155.692 Y122.871 E0.01225
