; generated by PrusaSlicer 2.3.0+win64 on 2021-05-06 at 19:10:55 UTC

; 

; external perimeters extrusion width = 0.45mm
; perimeters extrusion width = 0.45mm
; infill extrusion width = 0.45mm
; solid infill extrusion width = 0.45mm
; top infill extrusion width = 0.40mm
; first layer extrusion width = 0.42mm

M73 P0 R33
M73 Q0 S33
M201 X1000 Y1000 Z200 E5000 ; sets maximum accelerations, mm/sec^2
M203 X200 Y200 Z12 E120 ; sets maximum feedrates, mm/sec
M204 P1250 R1250 T1250 ; sets acceleration (P, T) and retract acceleration (R), mm/sec^2
M205 X8.00 Y8.00 Z0.40 E4.50 ; sets the jerk limits, mm/sec
M205 S0 T0 ; sets the minimum extruding and travel feed rate, mm/sec
M107
;TYPE:Custom
M862.3 P "MK3S" ; printer model check
M862.1 P0.4 ; nozzle diameter check
M115 U3.9.3 ; tell printer latest fw version
G90 ; use absolute coordinates
M83 ; extruder relative mode
M104 S215 ; set extruder temp
M140 S60 ; set bed temp
M190 S60 ; wait for bed temp
M109 S215 ; wait for extruder temp
G28 W ; home all without mesh bed level
G80 ; mesh bed leveling
G1 Y-3.0 F1000.0 ; go outside print area
G92 E0.0
G1 X60.0 E9.0 F1000.0 ; intro line
G1 X100.0 E12.5 F1000.0 ; intro line
G92 E0.0
M221 S95

; Don't change E values below. Excessive value can damage the printer.
M907 E430 ; set extruder motor current
G21 ; set units to millimeters
G90 ; use absolute coordinates
M83 ; use relative distances for extrusion
M900 K0.05 ; Filament gcode LA 1.5
M900 K30 ; Filament gcode LA 1.0
;LAYER_CHANGE
;Z:0.2
;HEIGHT:0.2
;BEFORE_LAYER_CHANGE
G92 E0.0
;0.2


M73 P0 R32
G1 E-0.80000 F2100.000
G1 Z0.400 F10800.000
;AFTER_LAYER_CHANGE
;0.2
G1 X96.398 Y80.758
G1 Z0.200
G1 E0.80000 F2100.000
M204 S1000
;TYPE:Skirt
;WIDTH:0.42
G1 F1200.000
G1 X97.896 Y79.094 E0.07022
G1 X99.445 Y77.567 E0.06819
G1 X101.237 Y76.001 E0.07463
G1 X102.961 Y74.669 E0.06831
G1 X104.815 Y73.405 E0.07034
G1 X106.737 Y72.257 E0.07022
G1 X108.670 Y71.252 E0.06831
G1 X110.841 Y70.285 E0.07451
G1 X112.881 Y69.521 E0.06831
G1 X114.959 Y68.879 E0.06819
G1 X117.272 Y68.315 E0.07467
G1 X119.411 Y67.928 E0.06814
G1 X121.638 Y67.660 E0.07034
G1 X123.874 Y67.526 E0.07022
G1 X126.052 Y67.525 E0.06831
G1 X128.430 Y67.667 E0.07467
G1 X130.587 Y67.928 E0.06814
G1 X132.794 Y68.329 E0.07034
G1 X134.970 Y68.860 E0.07022
G1 X137.052 Y69.501 E0.06830
G1 X139.282 Y70.338 E0.07467
G1 X141.267 Y71.223 E0.06814
G1 X143.258 Y72.256 E0.07034
G1 X145.180 Y73.405 E0.07022
G1 X146.981 Y74.631 E0.06831
G1 X148.865 Y76.088 E0.07467
G1 X150.501 Y77.519 E0.06814
G1 X152.096 Y79.090 E0.07022
G1 X153.644 Y80.814 E0.07264
M73 Q0 S32
G1 X154.998 Y82.514 E0.06814
G1 X156.289 Y84.348 E0.07034
G1 X157.467 Y86.253 E0.07022
G1 X158.500 Y88.171 E0.06831
G1 X159.501 Y90.332 E0.07467
G1 X160.294 Y92.356 E0.06814
G1 X160.987 Y94.489 E0.07034
G1 X161.550 Y96.657 E0.07022
G1 X161.972 Y98.794 E0.06831
G1 X162.292 Y101.149 E0.07451
G1 X162.453 Y103.321 E0.06831
G1 X162.487 Y105.560 E0.07022
G1 X162.386 Y107.801 E0.07034
G1 X162.160 Y109.968 E0.06831
G1 X161.769 Y112.317 E0.07467
G1 X161.285 Y114.436 E0.06814
G1 X160.656 Y116.589 E0.07034
G1 X159.900 Y118.697 E0.07022
G1 X159.046 Y120.698 E0.06819
G1 X157.982 Y122.826 E0.07463
G1 X156.892 Y124.713 E0.06831
G1 X155.658 Y126.582 E0.07022
G1 X154.313 Y128.377 E0.07034
G1 X152.907 Y130.036 E0.06819
G1 X151.304 Y131.717 E0.07283
G1 X149.668 Y133.235 E0.07000
G1 X147.986 Y134.620 E0.06830
G1 X146.059 Y136.019 E0.07467
G1 X144.227 Y137.189 E0.06814
G1 X142.268 Y138.281 E0.07034
G1 X140.250 Y139.253 E0.07022
G1 X138.238 Y140.078 E0.06819
G1 X135.986 Y140.848 E0.07463
G1 X133.886 Y141.426 E0.06830
G1 X131.695 Y141.892 E0.07022
G1 X129.477 Y142.227 E0.07034
G1 X127.311 Y142.423 E0.06819
G1 X124.962 Y142.495 E0.07368
G1 X122.758 Y142.428 E0.06914
G1 X120.588 Y142.234 E0.06831
G1 X118.234 Y141.879 E0.07467
G1 X116.108 Y141.426 E0.06814
G1 X113.945 Y140.829 E0.07034
G1 X111.826 Y140.105 E0.07022
G1 X109.814 Y139.282 E0.06819
G1 X107.669 Y138.249 E0.07463
G1 X105.767 Y137.187 E0.06831
G1 X103.880 Y135.982 E0.07022
G1 X102.007 Y134.617 E0.07264
G1 X100.329 Y133.236 E0.06814
G1 X98.687 Y131.713 E0.07023
G1 X97.137 Y130.092 E0.07031
G1 X95.727 Y128.431 E0.06831
G1 X94.299 Y126.525 E0.07467
G1 X93.103 Y124.710 E0.06814
G1 X91.981 Y122.768 E0.07034
G1 X90.979 Y120.765 E0.07022
G1 X90.122 Y118.762 E0.06831
G1 X89.319 Y116.520 E0.07467
G1 X88.711 Y114.434 E0.06814
G1 X88.212 Y112.247 E0.07034
G1 X87.845 Y110.037 E0.07022
G1 X87.616 Y107.871 E0.06831
G1 X87.509 Y105.492 E0.07467
G1 X87.543 Y103.319 E0.06814
G1 X87.710 Y101.082 E0.07034
G1 X88.011 Y98.863 E0.07022
G1 X88.430 Y96.729 E0.06819
G1 X89.030 Y94.420 E0.07479
G1 X89.703 Y92.353 E0.06815
G1 X90.523 Y90.265 E0.07034
G1 X91.464 Y88.233 E0.07022
G1 X92.495 Y86.314 E0.06831
G1 X93.747 Y84.289 E0.07467
G1 X94.999 Y82.512 E0.06814
G1 X96.361 Y80.805 E0.06845
; printing object Nudger2-top.stl id:0 copy 0
;WIPE_START
G1 F8640.000
G1 X97.896 Y79.094 E-0.53092
G1 X98.603 Y78.397 E-0.22908
;WIPE_END
G1 E-0.04000 F2100.000
G1 Z0.600 F10800.000
G1 X101.370 Y85.266
G1 Z0.200
G1 E0.80000 F2100.000
;TYPE:Perimeter
G1 F1200.000
G1 X102.695 Y83.779 E0.06245
M73 Q1 S32
G1 X104.146 Y82.351 E0.06383
G1 X105.689 Y81.022 E0.06383
M73 P1 R32
G1 X107.316 Y79.799 E0.06383
G1 X109.020 Y78.685 E0.06383
G1 X110.794 Y77.687 E0.06383
G1 X112.631 Y76.808 E0.06383
G1 X114.521 Y76.052 E0.06383
G1 X116.457 Y75.423 E0.06383
G1 X118.431 Y74.923 E0.06383
G1 X120.433 Y74.555 E0.06383
G1 X122.456 Y74.320 E0.06383
G1 X124.349 Y74.226 E0.05944
G1 X126.523 Y74.252 E0.06818
G1 X128.553 Y74.421 E0.06387
G1 X130.567 Y74.722 E0.06383
G1 X132.556 Y75.157 E0.06383
G1 X134.512 Y75.721 E0.06383
G1 X136.426 Y76.414 E0.06383
G1 X138.291 Y77.232 E0.06383
G1 X140.097 Y78.171 E0.06383
G1 X141.837 Y79.228 E0.06383
G1 X143.504 Y80.397 E0.06383
G1 X145.089 Y81.674 E0.06383
G1 X146.587 Y83.053 E0.06383
G1 X147.991 Y84.528 E0.06383
G1 X149.294 Y86.092 E0.06383
G1 X150.490 Y87.739 E0.06383
G1 X151.575 Y89.462 E0.06383
G1 X152.544 Y91.252 E0.06383
G1 X153.393 Y93.103 E0.06383
G1 X154.117 Y95.005 E0.06383
G1 X154.714 Y96.952 E0.06383
G1 X155.181 Y98.933 E0.06383
G1 X155.517 Y100.941 E0.06383
G1 X155.718 Y102.967 E0.06383
G1 X155.785 Y105.002 E0.06383
G1 X155.768 Y105.524 E0.01637
G1 X155.718 Y107.037 E0.04747
G1 X155.517 Y109.063 E0.06383
G1 X155.181 Y111.071 E0.06383
G1 X154.714 Y113.052 E0.06383
G1 X154.117 Y114.999 E0.06383
G1 X153.393 Y116.901 E0.06383
G1 X152.544 Y118.752 E0.06383
G1 X151.575 Y120.543 E0.06383
G1 X150.490 Y122.265 E0.06383
G1 X149.294 Y123.912 E0.06383
G1 X147.991 Y125.476 E0.06383
G1 X146.587 Y126.951 E0.06383
G1 X145.089 Y128.330 E0.06383
G1 X143.504 Y129.607 E0.06383
G1 X141.837 Y130.776 E0.06383
G1 X140.097 Y131.833 E0.06383
G1 X138.291 Y132.772 E0.06383
G1 X136.426 Y133.590 E0.06383
G1 X135.935 Y133.768 E0.01637
G1 X134.512 Y134.283 E0.04747
G1 X132.556 Y134.847 E0.06383
G1 X130.567 Y135.282 E0.06383
G1 X128.553 Y135.584 E0.06383
G1 X126.525 Y135.752 E0.06383
G1 X124.489 Y135.785 E0.06383
G1 X122.456 Y135.684 E0.06383
G1 X120.433 Y135.449 E0.06383
G1 X118.431 Y135.081 E0.06383
G1 X116.457 Y134.581 E0.06383
G1 X114.521 Y133.952 E0.06383
G1 X112.631 Y133.196 E0.06383
G1 X110.794 Y132.317 E0.06383
G1 X109.020 Y131.319 E0.06383
G1 X107.316 Y130.205 E0.06383
G1 X105.689 Y128.982 E0.06383
G1 X104.146 Y127.653 E0.06383
G1 X102.695 Y126.226 E0.06383
G1 X101.341 Y124.705 E0.06383
G1 X100.090 Y123.098 E0.06383
G1 X98.949 Y121.413 E0.06383
G1 X97.921 Y119.655 E0.06383
G1 X97.012 Y117.834 E0.06383
G1 X96.225 Y115.956 E0.06383
G1 X95.564 Y114.030 E0.06383
G1 X95.032 Y112.065 E0.06383
G1 X94.630 Y110.070 E0.06383
G1 X94.362 Y108.051 E0.06383
G1 X94.227 Y106.020 E0.06383
G1 X94.227 Y103.984 E0.06383
G1 X94.353 Y102.093 E0.05944
G1 X94.630 Y99.936 E0.06818
G1 X95.032 Y97.939 E0.06387
G1 X95.564 Y95.974 E0.06383
G1 X96.225 Y94.048 E0.06383
G1 X97.012 Y92.170 E0.06383
G1 X97.921 Y90.349 E0.06383
G1 X98.949 Y88.591 E0.06383
G1 X100.090 Y86.906 E0.06383
G1 X101.331 Y85.311 E0.06334
G1 X101.629 Y85.543 F10800.000
;TYPE:External perimeter
G1 F1200.000
G1 X102.968 Y84.039 E0.06315
G1 X104.402 Y82.629 E0.06305
G1 X105.925 Y81.316 E0.06305
G1 X107.532 Y80.107 E0.06305
G1 X109.216 Y79.008 E0.06305
G1 X110.968 Y78.021 E0.06305
G1 X112.782 Y77.153 E0.06305
G1 X114.650 Y76.407 E0.06305
G1 X116.562 Y75.785 E0.06305
G1 X118.511 Y75.292 E0.06305
G1 X120.489 Y74.928 E0.06305
G1 X122.487 Y74.696 E0.06305
G1 X124.356 Y74.603 E0.05868
G1 X126.505 Y74.629 E0.06740
G1 X128.510 Y74.795 E0.06307
G1 X130.499 Y75.093 E0.06305
G1 X132.463 Y75.522 E0.06305
G1 X134.395 Y76.080 E0.06305
G1 X136.286 Y76.765 E0.06305
G1 X138.128 Y77.572 E0.06305
G1 X139.912 Y78.500 E0.06305
G1 X141.631 Y79.544 E0.06305
G1 X143.277 Y80.699 E0.06305
G1 X144.843 Y81.960 E0.06305
G1 X146.323 Y83.322 E0.06305
G1 X147.709 Y84.779 E0.06305
G1 X148.996 Y86.324 E0.06305
G1 X150.178 Y87.951 E0.06305
G1 X151.250 Y89.652 E0.06305
G1 X152.207 Y91.421 E0.06305
G1 X153.045 Y93.249 E0.06305
G1 X153.760 Y95.128 E0.06305
G1 X154.350 Y97.050 E0.06305
G1 X154.812 Y99.008 E0.06305
G1 X155.143 Y100.991 E0.06305
G1 X155.342 Y102.992 E0.06305
G1 X155.408 Y105.002 E0.06305
G1 X155.342 Y107.012 E0.06305
G1 X155.143 Y109.013 E0.06305
G1 X154.812 Y110.996 E0.06305
G1 X154.350 Y112.954 E0.06305
G1 X153.760 Y114.876 E0.06305
G1 X153.045 Y116.756 E0.06305
G1 X152.207 Y118.584 E0.06305
G1 X151.250 Y120.352 E0.06305
G1 X150.178 Y122.054 E0.06305
G1 X148.996 Y123.680 E0.06305
G1 X147.709 Y125.226 E0.06305
G1 X146.323 Y126.682 E0.06305
G1 X144.843 Y128.044 E0.06305
G1 X143.277 Y129.306 E0.06305
G1 X141.631 Y130.460 E0.06305
G1 X139.912 Y131.504 E0.06305
G1 X138.128 Y132.432 E0.06305
G1 X136.286 Y133.240 E0.06305
G1 X134.395 Y133.924 E0.06305
G1 X132.463 Y134.482 E0.06305
G1 X130.499 Y134.911 E0.06305
G1 X128.510 Y135.209 E0.06305
G1 X126.506 Y135.375 E0.06305
G1 X124.495 Y135.408 E0.06305
G1 X122.487 Y135.308 E0.06305
G1 X120.489 Y135.076 E0.06305
G1 X118.511 Y134.712 E0.06305
G1 X116.562 Y134.219 E0.06305
G1 X114.650 Y133.597 E0.06305
G1 X112.782 Y132.851 E0.06305
G1 X110.968 Y131.983 E0.06305
G1 X109.216 Y130.996 E0.06305
G1 X107.532 Y129.897 E0.06305
G1 X105.925 Y128.688 E0.06305
G1 X104.402 Y127.376 E0.06305
G1 X102.968 Y125.965 E0.06305
G1 X101.631 Y124.464 E0.06305
G1 X100.396 Y122.877 E0.06305
G1 X99.268 Y121.212 E0.06305
G1 X98.253 Y119.476 E0.06305
G1 X97.355 Y117.676 E0.06305
G1 X96.578 Y115.822 E0.06305
G1 X95.925 Y113.920 E0.06305
G1 X95.399 Y111.979 E0.06305
G1 X95.002 Y110.007 E0.06305
G1 X94.737 Y108.014 E0.06305
G1 X94.604 Y106.008 E0.06305
G1 X94.604 Y103.997 E0.06305
G1 X94.728 Y102.129 E0.05868
G1 X95.002 Y99.997 E0.06740
G1 X95.399 Y98.025 E0.06307
G1 X95.925 Y96.084 E0.06305
G1 X96.578 Y94.182 E0.06305
G1 X97.355 Y92.328 E0.06305
G1 X98.253 Y90.528 E0.06305
G1 X99.268 Y88.792 E0.06305
G1 X100.396 Y87.127 E0.06305
G1 X101.592 Y85.590 E0.06107
G1 X101.490 Y85.168 F10800.000
;WIPE_START
G1 F8640.000
G1 X102.968 Y84.039 E-0.47892
G1 X103.836 Y83.185 E-0.28108
;WIPE_END
G1 E-0.04000 F2100.000
G1 Z0.600 F10800.000
G1 X99.153 Y83.645
G1 Z0.200
M73 Q2 S32
G1 E0.80000 F2100.000
;TYPE:Perimeter
G1 F1200.000
G1 X99.415 Y83.317 E0.01317
G1 X100.757 Y81.826 E0.06291
G1 X102.187 Y80.417 E0.06291
M73 P2 R32
G1 X103.698 Y79.097 E0.06291
G1 X105.285 Y77.870 E0.06291
G1 X106.943 Y76.739 E0.06291
G1 X108.666 Y75.710 E0.06291
G1 X110.447 Y74.786 E0.06291
G1 X112.280 Y73.970 E0.06291
G1 X114.158 Y73.265 E0.06291
G1 X116.076 Y72.673 E0.06291
G1 X118.025 Y72.197 E0.06291
G1 X119.999 Y71.839 E0.06291
G1 X121.992 Y71.600 E0.06291
G1 X123.995 Y71.480 E0.06291
G1 X126.001 Y71.480 E0.06291
G1 X128.004 Y71.600 E0.06291
G1 X129.996 Y71.839 E0.06291
G1 X131.971 Y72.197 E0.06291
G1 X133.920 Y72.673 E0.06291
G1 X135.838 Y73.265 E0.06291
G1 X137.716 Y73.970 E0.06291
G1 X139.549 Y74.786 E0.06291
G1 X141.330 Y75.710 E0.06291
G1 X143.053 Y76.739 E0.06291
G1 X144.711 Y77.870 E0.06291
G1 X146.298 Y79.097 E0.06291
G1 X147.809 Y80.417 E0.06291
G1 X149.239 Y81.826 E0.06291
G1 X150.581 Y83.317 E0.06291
G1 X151.832 Y84.886 E0.06291
G1 X152.987 Y86.526 E0.06291
G1 X154.042 Y88.233 E0.06291
G1 X154.993 Y90.000 E0.06291
G1 X155.837 Y91.821 E0.06291
G1 X156.570 Y93.689 E0.06291
G1 X156.722 Y94.157 E0.01543
G1 X157.190 Y95.597 E0.04748
G1 X157.695 Y97.539 E0.06291
G1 X158.082 Y99.508 E0.06291
G1 X158.352 Y101.496 E0.06291
G1 X158.502 Y103.497 E0.06291
G1 X158.532 Y105.504 E0.06291
G1 X158.442 Y107.508 E0.06291
G1 X158.232 Y109.504 E0.06291
G1 X157.903 Y111.483 E0.06291
G1 X157.457 Y113.440 E0.06291
G1 X156.894 Y115.366 E0.06291
G1 X156.217 Y117.255 E0.06291
G1 X155.428 Y119.100 E0.06291
G1 X155.208 Y119.540 E0.01543
G1 X154.531 Y120.894 E0.04748
G1 X153.528 Y122.632 E0.06291
G1 X152.422 Y124.307 E0.06291
G1 X151.219 Y125.912 E0.06291
G1 X149.921 Y127.443 E0.06291
G1 X148.528 Y128.899 E0.06318
G1 X147.064 Y130.258 E0.06265
G1 X145.514 Y131.533 E0.06292
G1 X143.890 Y132.712 E0.06291
G1 X142.199 Y133.792 E0.06291
G1 X140.447 Y134.769 E0.06291
G1 X138.639 Y135.640 E0.06291
G1 X136.782 Y136.401 E0.06291
G1 X134.883 Y137.050 E0.06291
G1 X132.949 Y137.583 E0.06291
G1 X130.986 Y138.001 E0.06291
G1 X129.002 Y138.300 E0.06291
G1 X127.004 Y138.479 E0.06291
G1 X124.998 Y138.540 E0.06291
G1 X122.992 Y138.479 E0.06291
G1 X120.994 Y138.300 E0.06291
G1 X119.010 Y138.001 E0.06291
G1 X117.047 Y137.583 E0.06291
G1 X115.113 Y137.050 E0.06291
G1 X113.214 Y136.401 E0.06291
G1 X111.357 Y135.640 E0.06291
G1 X109.549 Y134.769 E0.06291
G1 X107.797 Y133.792 E0.06291
G1 X106.106 Y132.712 E0.06291
G1 X104.482 Y131.533 E0.06291
G1 X102.932 Y130.258 E0.06292
G1 X101.467 Y128.899 E0.06265
G1 X100.075 Y127.443 E0.06318
G1 X98.777 Y125.912 E0.06291
G1 X97.574 Y124.307 E0.06291
G1 X96.468 Y122.632 E0.06291
G1 X95.465 Y120.894 E0.06291
G1 X94.567 Y119.100 E0.06291
G1 X93.779 Y117.255 E0.06291
G1 X93.613 Y116.791 E0.01543
G1 X93.102 Y115.366 E0.04748
G1 X92.539 Y113.440 E0.06291
G1 X92.093 Y111.483 E0.06291
G1 X91.764 Y109.504 E0.06291
G1 X91.554 Y107.508 E0.06291
G1 X91.464 Y105.504 E0.06291
G1 X91.494 Y103.497 E0.06291
G1 X91.644 Y101.496 E0.06291
G1 X91.914 Y99.508 E0.06291
G1 X92.301 Y97.539 E0.06291
G1 X92.806 Y95.597 E0.06291
G1 X93.426 Y93.689 E0.06291
G1 X94.159 Y91.821 E0.06291
G1 X95.003 Y90.000 E0.06291
G1 X95.954 Y88.233 E0.06291
G1 X97.008 Y86.526 E0.06291
G1 X98.164 Y84.886 E0.06291
G1 X99.115 Y83.692 E0.04786
G1 X98.820 Y83.457 F10800.000
;TYPE:External perimeter
G1 F1200.000
G1 X99.127 Y83.073 E0.01541
G1 X100.485 Y81.565 E0.06362
G1 X101.930 Y80.141 E0.06362
G1 X103.458 Y78.806 E0.06362
G1 X105.063 Y77.564 E0.06362
G1 X106.740 Y76.421 E0.06362
G1 X108.482 Y75.381 E0.06362
G1 X110.283 Y74.446 E0.06362
G1 X112.137 Y73.621 E0.06362
G1 X114.036 Y72.908 E0.06362
G1 X115.975 Y72.310 E0.06362
G1 X117.947 Y71.828 E0.06362
G1 X119.943 Y71.466 E0.06362
G1 X121.958 Y71.224 E0.06362
G1 X123.983 Y71.103 E0.06362
G1 X126.013 Y71.103 E0.06362
G1 X128.038 Y71.224 E0.06362
G1 X130.053 Y71.466 E0.06362
G1 X132.049 Y71.828 E0.06362
G1 X134.021 Y72.310 E0.06362
G1 X135.960 Y72.908 E0.06362
G1 X137.859 Y73.621 E0.06362
G1 X139.713 Y74.446 E0.06362
G1 X141.514 Y75.381 E0.06362
G1 X143.256 Y76.421 E0.06362
G1 X144.933 Y77.564 E0.06362
G1 X146.538 Y78.806 E0.06362
G1 X148.066 Y80.141 E0.06362
G1 X149.511 Y81.565 E0.06362
G1 X150.869 Y83.073 E0.06362
G1 X152.134 Y84.659 E0.06362
G1 X153.302 Y86.319 E0.06362
G1 X154.369 Y88.045 E0.06362
G1 X155.331 Y89.832 E0.06362
G1 X156.183 Y91.673 E0.06362
G1 X156.925 Y93.562 E0.06362
G1 X157.080 Y94.040 E0.01579
G1 X157.552 Y95.491 E0.04783
G1 X158.062 Y97.455 E0.06362
G1 X158.454 Y99.446 E0.06362
G1 X158.727 Y101.457 E0.06362
G1 X158.879 Y103.480 E0.06362
G1 X158.909 Y105.509 E0.06362
G1 X158.818 Y107.537 E0.06362
G1 X158.606 Y109.555 E0.06362
G1 X158.273 Y111.556 E0.06362
G1 X157.822 Y113.535 E0.06362
G1 X157.253 Y115.482 E0.06362
G1 X156.568 Y117.392 E0.06362
G1 X155.771 Y119.258 E0.06362
G1 X155.546 Y119.709 E0.01579
G1 X154.863 Y121.073 E0.04783
G1 X153.849 Y122.830 E0.06362
G1 X152.731 Y124.524 E0.06362
G1 X151.514 Y126.148 E0.06362
G1 X150.202 Y127.695 E0.06362
