; generated by PrusaSlicer 2.3.0+win64 on 2021-04-27 at 11:33:39 UTC

; 

; external perimeters extrusion width = 0.45mm
; perimeters extrusion width = 0.45mm
; infill extrusion width = 0.45mm
; solid infill extrusion width = 0.45mm
; top infill extrusion width = 0.40mm
; first layer extrusion width = 0.42mm

M73 P0 R29
M73 Q0 S29
M201 X1000 Y1000 Z200 E5000 ; sets maximum accelerations, mm/sec^2
M203 X200 Y200 Z12 E120 ; sets maximum feedrates, mm/sec
M204 P1250 R1250 T1250 ; sets acceleration (P, T) and retract acceleration (R), mm/sec^2
M205 X8.00 Y8.00 Z0.40 E4.50 ; sets the jerk limits, mm/sec
M205 S0 T0 ; sets the minimum extruding and travel feed rate, mm/sec
M107
;TYPE:Custom
M862.3 P "MK3S" ; printer model check
M862.1 P0.4 ; nozzle diameter check
M115 U3.9.3 ; tell printer latest fw version
G90 ; use absolute coordinates
M83 ; extruder relative mode
M104 S215 ; set extruder temp
M140 S60 ; set bed temp
M190 S60 ; wait for bed temp
M109 S215 ; wait for extruder temp
G28 W ; home all without mesh bed level
G80 ; mesh bed leveling
G1 Y-3.0 F1000.0 ; go outside print area
G92 E0.0
G1 X60.0 E9.0 F1000.0 ; intro line
G1 X100.0 E12.5 F1000.0 ; intro line
G92 E0.0
M221 S95

; Don't change E values below. Excessive value can damage the printer.
M907 E430 ; set extruder motor current
G21 ; set units to millimeters
G90 ; use absolute coordinates
M83 ; use relative distances for extrusion
M900 K0.05 ; Filament gcode LA 1.5
M900 K30 ; Filament gcode LA 1.0
;LAYER_CHANGE
;Z:0.2
;HEIGHT:0.2
;BEFORE_LAYER_CHANGE
G92 E0.0
;0.2


G1 E-0.80000 F2100.000
G1 Z0.400 F10800.000
;AFTER_LAYER_CHANGE
;0.2
G1 X94.928 Y80.195
G1 Z0.200
G1 E0.80000 F2100.000
M204 S1000
;TYPE:Skirt
;WIDTH:0.42
G1 F1200.000
G1 X96.420 Y78.488 E0.07109
G1 X98.054 Y76.829 E0.07300
G1 X99.844 Y75.222 E0.07543
G1 X101.614 Y73.812 E0.07093
G1 X103.520 Y72.470 E0.07312
G1 X105.501 Y71.246 E0.07300
G1 X107.497 Y70.171 E0.07109
G1 X109.739 Y69.133 E0.07746
G1 X111.845 Y68.307 E0.07093
G1 X114.063 Y67.587 E0.07312
G1 X116.316 Y67.001 E0.07300
G1 X118.537 Y66.562 E0.07097
G1 X120.983 Y66.230 E0.07741
G1 X123.244 Y66.062 E0.07109
G1 X125.542 Y66.027 E0.07204
G1 X127.975 Y66.138 E0.07638
G1 X130.225 Y66.376 E0.07093
G1 X132.526 Y66.758 E0.07312
G1 X134.795 Y67.276 E0.07300
G1 X136.972 Y67.911 E0.07109
G1 X139.298 Y68.744 E0.07746
G1 X141.377 Y69.634 E0.07093
G1 X143.463 Y70.678 E0.07312
G1 X145.479 Y71.842 E0.07300
G1 X147.369 Y73.088 E0.07097
G1 X149.345 Y74.568 E0.07741
G1 X151.073 Y76.035 E0.07109
G1 X152.756 Y77.644 E0.07300
G1 X154.390 Y79.410 E0.07543
G1 X155.826 Y81.158 E0.07093
G1 X157.197 Y83.044 E0.07312
G1 X158.450 Y85.006 E0.07300
G1 X159.555 Y86.986 E0.07109
G1 X160.627 Y89.212 E0.07746
G1 X161.484 Y91.306 E0.07093
G1 X162.238 Y93.512 E0.07312
G1 X162.857 Y95.757 E0.07300
G1 X163.330 Y97.974 E0.07109
G1 X163.698 Y100.417 E0.07746
G1 X163.899 Y102.670 E0.07093
G1 X163.969 Y105.001 E0.07312
G1 X163.899 Y107.328 E0.07300
G1 X163.697 Y109.587 E0.07109
G1 X163.329 Y112.029 E0.07746
G1 X162.857 Y114.242 E0.07093
G1 X162.237 Y116.490 E0.07312
G1 X161.484 Y118.693 E0.07300
G1 X160.627 Y120.788 E0.07097
G1 X159.556 Y123.013 E0.07741
G1 X158.451 Y124.992 E0.07109
G1 X157.198 Y126.954 E0.07300
G1 X155.781 Y128.899 E0.07543
G1 X154.344 Y130.645 E0.07093
G1 X152.757 Y132.355 E0.07312
G1 X151.074 Y133.964 E0.07300
G1 X149.346 Y135.431 E0.07109
G1 X147.369 Y136.912 E0.07746
G1 X145.480 Y138.158 E0.07093
G1 X143.461 Y139.324 E0.07312
G1 X141.378 Y140.365 E0.07300
G1 X139.298 Y141.256 E0.07097
G1 X136.973 Y142.089 E0.07741
G1 X134.797 Y142.724 E0.07109
G1 X132.527 Y143.242 E0.07300
G1 X130.226 Y143.624 E0.07312
G1 X127.975 Y143.862 E0.07097
G1 X125.539 Y143.973 E0.07646
G1 X123.246 Y143.938 E0.07193
G1 X120.985 Y143.770 E0.07109
G1 X118.537 Y143.438 E0.07746
G1 X116.317 Y143.000 E0.07093
G1 X114.060 Y142.413 E0.07312
G1 X111.846 Y141.693 E0.07300
G1 X109.735 Y140.866 E0.07109
G1 X107.494 Y139.827 E0.07746
G1 X105.502 Y138.755 E0.07093
G1 X103.518 Y137.529 E0.07312
G1 X101.615 Y136.188 E0.07300
G1 X99.841 Y134.776 E0.07109
G1 X98.006 Y133.123 E0.07746
G1 X96.419 Y131.510 E0.07093
G1 X94.884 Y129.754 E0.07312
G1 X93.460 Y127.912 E0.07300
G1 X92.182 Y126.040 E0.07109
G1 X90.915 Y123.919 E0.07746
G1 X89.874 Y121.910 E0.07093
G1 X88.926 Y119.780 E0.07312
G1 X88.108 Y117.600 E0.07300
G1 X87.438 Y115.434 E0.07109
M73 Q1 S29
G1 X86.853 Y113.034 E0.07746
G1 X86.450 Y110.808 E0.07093
M73 P1 R29
G1 X86.172 Y108.493 E0.07312
G1 X86.032 Y106.169 E0.07300
G1 X86.031 Y103.905 E0.07097
G1 X86.178 Y101.440 E0.07741
G1 X86.450 Y99.190 E0.07109
G1 X86.867 Y96.895 E0.07312
G1 X87.419 Y94.633 E0.07300
G1 X88.086 Y92.466 E0.07109
G1 X88.954 Y90.154 E0.07746
G1 X89.875 Y88.087 E0.07093
G1 X90.950 Y86.018 E0.07312
G1 X92.144 Y84.019 E0.07300
G1 X93.418 Y82.148 E0.07097
G1 X94.891 Y80.242 E0.07553
; printing object Nudger-top.stl id:0 copy 0
;WIPE_START
G1 F8640.000
G1 X96.420 Y78.488 E-0.53735
G1 X97.097 Y77.801 E-0.22265
;WIPE_END
G1 E-0.04000 F2100.000
G1 Z0.600 F10800.000
G1 X97.330 Y82.255
G1 Z0.200
G1 E0.80000 F2100.000
;TYPE:Perimeter
G1 F1200.000
G1 X98.739 Y80.641 E0.06718
G1 X100.243 Y79.115 E0.06718
G1 X101.835 Y77.681 E0.06718
G1 X103.511 Y76.345 E0.06718
G1 X105.263 Y75.112 E0.06718
G1 X107.086 Y73.985 E0.06718
G1 X108.972 Y72.970 E0.06718
G1 X110.917 Y72.069 E0.06718
G1 X112.911 Y71.287 E0.06718
G1 X114.949 Y70.624 E0.06718
G1 X117.023 Y70.085 E0.06718
G1 X119.125 Y69.671 E0.06718
G1 X121.248 Y69.384 E0.06718
G1 X123.384 Y69.224 E0.06713
G1 X125.739 Y69.201 E0.07385
G1 X127.668 Y69.288 E0.06055
G1 X129.799 Y69.512 E0.06718
G1 X131.913 Y69.863 E0.06718
G1 X134.002 Y70.339 E0.06718
G1 X136.059 Y70.940 E0.06718
G1 X138.076 Y71.663 E0.06718
G1 X140.046 Y72.505 E0.06718
G1 X141.962 Y73.464 E0.06718
G1 X143.818 Y74.535 E0.06718
G1 X145.606 Y75.715 E0.06718
G1 X147.321 Y77.001 E0.06718
G1 X148.955 Y78.386 E0.06718
G1 X150.504 Y79.867 E0.06718
G1 X151.961 Y81.438 E0.06718
G1 X153.322 Y83.093 E0.06718
G1 X154.582 Y84.826 E0.06718
G1 X155.735 Y86.632 E0.06718
G1 X156.779 Y88.503 E0.06718
G1 X157.708 Y90.432 E0.06713
G1 X158.589 Y92.616 E0.07385
G1 X159.213 Y94.444 E0.06055
G1 X159.783 Y96.510 E0.06718
G1 X160.229 Y98.605 E0.06718
G1 X160.548 Y100.724 E0.06718
G1 X160.740 Y102.858 E0.06718
G1 X160.804 Y105.000 E0.06718
G1 X160.740 Y107.142 E0.06718
G1 X160.548 Y109.276 E0.06718
G1 X160.229 Y111.395 E0.06718
G1 X159.783 Y113.490 E0.06718
G1 X159.214 Y115.554 E0.06713
G1 X158.441 Y117.779 E0.07385
G1 X157.708 Y119.566 E0.06055
G1 X156.779 Y121.497 E0.06718
G1 X155.735 Y123.368 E0.06718
G1 X154.582 Y125.174 E0.06718
G1 X153.322 Y126.907 E0.06718
G1 X151.961 Y128.562 E0.06718
G1 X150.504 Y130.133 E0.06718
G1 X148.955 Y131.614 E0.06718
G1 X147.321 Y132.999 E0.06718
G1 X145.606 Y134.285 E0.06718
G1 X143.818 Y135.465 E0.06718
G1 X141.962 Y136.536 E0.06718
G1 X140.046 Y137.495 E0.06718
G1 X138.076 Y138.337 E0.06718
G1 X136.059 Y139.060 E0.06718
G1 X134.002 Y139.661 E0.06718
G1 X131.913 Y140.137 E0.06718
G1 X129.799 Y140.488 E0.06718
G1 X127.668 Y140.712 E0.06718
G1 X125.528 Y140.809 E0.06718
G1 X123.385 Y140.777 E0.06718
G1 X121.248 Y140.616 E0.06718
G1 X119.125 Y140.329 E0.06718
G1 X117.023 Y139.915 E0.06718
G1 X114.949 Y139.376 E0.06718
G1 X112.911 Y138.713 E0.06718
G1 X110.917 Y137.931 E0.06718
G1 X108.972 Y137.030 E0.06718
G1 X107.086 Y136.015 E0.06718
G1 X105.263 Y134.888 E0.06718
G1 X103.511 Y133.655 E0.06718
G1 X101.835 Y132.319 E0.06718
G1 X100.243 Y130.885 E0.06718
G1 X98.739 Y129.359 E0.06718
G1 X97.330 Y127.745 E0.06718
G1 X96.019 Y126.050 E0.06718
G1 X94.812 Y124.280 E0.06718
G1 X93.713 Y122.440 E0.06718
G1 X92.726 Y120.538 E0.06718
G1 X91.854 Y118.581 E0.06718
G1 X91.101 Y116.575 E0.06718
G1 X90.470 Y114.527 E0.06718
G1 X89.962 Y112.446 E0.06718
G1 X89.579 Y110.338 E0.06718
G1 X89.323 Y108.210 E0.06718
G1 X89.195 Y106.071 E0.06718
G1 X89.195 Y103.929 E0.06718
G1 X89.323 Y101.790 E0.06718
G1 X89.579 Y99.662 E0.06718
G1 X89.962 Y97.554 E0.06718
G1 X90.470 Y95.473 E0.06718
G1 X91.101 Y93.425 E0.06718
G1 X91.854 Y91.419 E0.06718
G1 X92.726 Y89.462 E0.06718
G1 X93.713 Y87.560 E0.06718
G1 X94.812 Y85.720 E0.06718
G1 X96.019 Y83.950 E0.06718
G1 X97.293 Y82.302 E0.06530
G1 X96.995 Y82.072 F10800.000
;TYPE:External perimeter
G1 F1200.000
G1 X98.463 Y80.385 E0.07012
G1 X99.982 Y78.842 E0.06789
G1 X101.591 Y77.393 E0.06789
G1 X103.284 Y76.043 E0.06789
G1 X105.055 Y74.797 E0.06789
G1 X106.897 Y73.659 E0.06789
G1 X108.804 Y72.633 E0.06789
G1 X110.768 Y71.722 E0.06789
G1 X112.784 Y70.931 E0.06789
G1 X114.843 Y70.262 E0.06789
G1 X116.939 Y69.718 E0.06789
G1 X119.063 Y69.299 E0.06789
G1 X121.209 Y69.008 E0.06789
G1 X123.368 Y68.847 E0.06787
G1 X125.745 Y68.824 E0.07456
G1 X127.696 Y68.911 E0.06123
G1 X129.850 Y69.138 E0.06789
G1 X131.986 Y69.492 E0.06789
G1 X134.097 Y69.974 E0.06789
G1 X136.175 Y70.581 E0.06789
G1 X138.213 Y71.312 E0.06789
G1 X140.204 Y72.163 E0.06789
G1 X142.141 Y73.131 E0.06789
G1 X144.016 Y74.214 E0.06789
G1 X145.823 Y75.407 E0.06789
G1 X147.556 Y76.706 E0.06789
G1 X149.208 Y78.106 E0.06789
G1 X150.773 Y79.602 E0.06789
G1 X152.245 Y81.189 E0.06789
G1 X153.621 Y82.862 E0.06789
G1 X154.893 Y84.614 E0.06789
G1 X156.059 Y86.438 E0.06789
G1 X157.113 Y88.329 E0.06789
G1 X158.053 Y90.280 E0.06787
G1 X158.943 Y92.485 E0.07456
G1 X159.574 Y94.333 E0.06123
G1 X160.150 Y96.420 E0.06789
M73 Q2 S29
G1 X160.600 Y98.538 E0.06789
G1 X160.923 Y100.679 E0.06789
M73 P2 R29
G1 X161.117 Y102.836 E0.06789
G1 X161.182 Y105.000 E0.06789
G1 X161.117 Y107.164 E0.06789
G1 X160.923 Y109.321 E0.06789
G1 X160.600 Y111.462 E0.06789
G1 X160.150 Y113.580 E0.06789
G1 X159.574 Y115.667 E0.06787
G1 X158.793 Y117.913 E0.07456
G1 X158.053 Y119.720 E0.06123
G1 X157.113 Y121.671 E0.06789
G1 X156.059 Y123.562 E0.06789
G1 X154.893 Y125.386 E0.06789
G1 X153.621 Y127.138 E0.06789
G1 X152.245 Y128.811 E0.06789
G1 X150.773 Y130.398 E0.06789
G1 X149.208 Y131.894 E0.06789
G1 X147.556 Y133.294 E0.06789
G1 X145.823 Y134.593 E0.06789
G1 X144.016 Y135.786 E0.06789
G1 X142.141 Y136.869 E0.06789
G1 X140.204 Y137.837 E0.06789
G1 X138.213 Y138.688 E0.06789
G1 X136.175 Y139.419 E0.06789
G1 X134.097 Y140.026 E0.06789
G1 X131.986 Y140.508 E0.06789
G1 X129.850 Y140.862 E0.06789
G1 X127.696 Y141.089 E0.06789
G1 X125.533 Y141.186 E0.06789
G1 X123.368 Y141.153 E0.06789
G1 X121.209 Y140.992 E0.06789
G1 X119.063 Y140.701 E0.06789
G1 X116.939 Y140.282 E0.06789
G1 X114.843 Y139.738 E0.06789
G1 X112.784 Y139.069 E0.06789
G1 X110.768 Y138.278 E0.06789
G1 X108.804 Y137.367 E0.06789
G1 X106.897 Y136.341 E0.06789
G1 X105.055 Y135.203 E0.06789
G1 X103.284 Y133.957 E0.06789
G1 X101.591 Y132.607 E0.06789
G1 X99.982 Y131.158 E0.06789
G1 X98.463 Y129.615 E0.06789
G1 X97.038 Y127.985 E0.06789
G1 X95.714 Y126.272 E0.06789
G1 X94.494 Y124.483 E0.06789
G1 X93.383 Y122.624 E0.06789
G1 X92.386 Y120.702 E0.06789
G1 X91.505 Y118.724 E0.06789
G1 X90.744 Y116.697 E0.06789
G1 X90.106 Y114.628 E0.06789
G1 X89.593 Y112.524 E0.06789
G1 X89.206 Y110.394 E0.06789
G1 X88.948 Y108.244 E0.06789
G1 X88.818 Y106.083 E0.06789
G1 X88.818 Y103.917 E0.06789
G1 X88.948 Y101.756 E0.06789
G1 X89.206 Y99.606 E0.06789
G1 X89.593 Y97.476 E0.06789
G1 X90.106 Y95.372 E0.06789
G1 X90.744 Y93.303 E0.06789
G1 X91.505 Y91.276 E0.06789
G1 X92.386 Y89.298 E0.06789
G1 X93.383 Y87.376 E0.06789
G1 X94.494 Y85.517 E0.06789
G1 X95.714 Y83.728 E0.06789
G1 X96.958 Y82.119 E0.06377
G1 X97.389 Y82.137 F10800.000
;WIPE_START
G1 F8640.000
G1 X98.463 Y80.385 E-0.53023
G1 X99.161 Y79.676 E-0.22977
;WIPE_END
G1 E-0.04000 F2100.000
G1 Z0.600 F10800.000
G1 X152.467 Y82.230
G1 Z0.200
G1 E0.80000 F2100.000
;TYPE:Solid infill
;WIDTH:0.420838
G1 F1200.000
G1 X150.290 Y80.053 E0.09674
G1 X148.766 Y78.596 E0.06625
G1 X147.144 Y77.222 E0.06680
G1 X146.264 Y76.562 E0.03459
G1 X153.446 Y83.744 E0.31917
G1 X154.348 Y84.985 E0.04823
G1 X154.693 Y85.525 E0.02012
G1 X144.475 Y75.308 E0.45407
G1 X143.669 Y74.776 E0.03034
G1 X143.053 Y74.420 E0.02237
G1 X155.596 Y86.963 E0.55742
G1 X156.270 Y88.171 E0.04346
G1 X141.794 Y73.696 E0.64328
G1 X140.725 Y73.161 E0.03757
G1 X156.834 Y89.270 E0.71587
G1 X157.330 Y90.301 E0.03596
G1 X139.690 Y72.661 E0.78392
G1 X138.757 Y72.262 E0.03190
G1 X157.724 Y91.229 E0.84291
M73 P2 R28
G1 X158.086 Y92.125 E0.03037
G1 X137.840 Y71.879 E0.89975
M73 Q2 S28
G1 X137.007 Y71.580 E0.02780
M73 Q3 S28
G1 X158.419 Y92.992 E0.95156
M73 P3 R28
G1 X158.696 Y93.804 E0.02695
G1 X136.174 Y71.282 E1.00089
G1 X135.400 Y71.042 E0.02546
G1 X158.965 Y94.608 E1.04725
G1 X159.169 Y95.346 E0.02406
G1 X134.645 Y70.822 E1.08986
G1 X133.893 Y70.605 E0.02459
G1 X159.373 Y96.084 E1.13232
G1 X159.557 Y96.803 E0.02330
G1 X133.200 Y70.447 E1.17127
G1 X132.508 Y70.288 E0.02232
G1 X159.701 Y97.481 E1.20846
G1 X159.845 Y98.160 E0.02180
G1 X131.819 Y70.134 E1.24550
G1 X131.178 Y70.027 E0.02041
G1 X159.976 Y98.825 E1.27980
G1 X160.071 Y99.455 E0.02000
G1 X130.537 Y69.921 E1.31250
M73 P4 R28
M73 Q4 S28
G1 X129.896 Y69.814 E0.02041
G1 X160.166 Y100.084 E1.34520
G1 X160.261 Y100.713 E0.02000
G1 X129.290 Y69.742 E1.37636
G1 X128.692 Y69.680 E0.01887
G1 X160.316 Y101.304 E1.40538
G1 X160.369 Y101.891 E0.01853
G1 X128.095 Y69.617 E1.43427
G1 X127.507 Y69.563 E0.01855
G1 X160.422 Y102.478 E1.46274
G1 X160.463 Y103.054 E0.01813
G1 X126.948 Y69.538 E1.48944
G1 X126.388 Y69.513 E0.01760
G1 X160.480 Y103.605 E1.51504
G1 X160.496 Y104.156 E0.01732
G1 X125.829 Y69.488 E1.54064
M73 P5 R28
M73 Q5 S28
G1 X125.294 Y69.488 E0.01680
G1 X160.513 Y104.707 E1.56513
G1 X160.514 Y105.243 E0.01684
G1 X124.765 Y69.493 E1.58872
G1 X124.235 Y69.498 E0.01664
G1 X160.499 Y105.762 E1.61155
G1 X160.483 Y106.280 E0.01631
G1 X123.706 Y69.503 E1.63439
G1 X123.190 Y69.522 E0.01623
G1 X160.468 Y106.799 E1.65663
G1 X160.441 Y107.308 E0.01599
G1 X122.693 Y69.559 E1.67756
M73 Q6 S28
G1 X122.196 Y69.596 E0.01567
G1 X160.397 Y107.798 E1.69770
M73 P6 R28
G1 X160.353 Y108.288 E0.01547
G1 X121.698 Y69.633 E1.71783
M73 P6 R27
G1 X121.205 Y69.675 E0.01555
G1 X160.309 Y108.779 E1.73778
M73 Q6 S27
G1 X160.263 Y109.268 E0.01543
G1 X120.735 Y69.739 E1.75668
G1 X120.264 Y69.802 E0.01493
G1 X160.193 Y109.732 E1.77448
G1 X160.123 Y110.196 E0.01476
G1 X119.793 Y69.866 E1.79229
G1 X119.322 Y69.930 E0.01493
G1 X160.053 Y110.661 E1.81010
M73 P7 R27
M73 Q7 S27
G1 X159.983 Y111.125 E0.01476
G1 X118.868 Y70.010 E1.82717
G1 X118.422 Y70.098 E0.01430
G1 X159.901 Y111.577 E1.84335
G1 X159.807 Y112.018 E0.01416
G1 X117.975 Y70.186 E1.85903
G1 X117.529 Y70.274 E0.01430
G1 X159.714 Y112.459 E1.87471
G1 X159.620 Y112.900 E0.01416
G1 X117.082 Y70.362 E1.89038
G1 X116.658 Y70.472 E0.01377
G1 X159.526 Y113.340 E1.90507
M73 P8 R27
M73 Q8 S27
G1 X159.415 Y113.763 E0.01375
G1 X116.234 Y70.583 E1.91896
G1 X115.810 Y70.693 E0.01377
G1 X159.299 Y114.182 E1.93268
G1 X159.183 Y114.601 E0.01365
G1 X115.386 Y70.803 E1.94639
G1 X114.965 Y70.917 E0.01370
G1 X159.068 Y115.020 E1.95996
G1 X158.952 Y115.439 E0.01365
G1 X114.561 Y71.048 E1.97275
M73 P9 R27
M73 Q9 S27
G1 X114.158 Y71.179 E0.01333
G1 X158.816 Y115.837 E1.98463
G1 X158.678 Y116.234 E0.01319
G1 X113.754 Y71.310 E1.99643
G1 X113.351 Y71.441 E0.01333
G1 X158.540 Y116.630 E2.00823
G1 X158.403 Y117.027 E0.01319
G1 X112.951 Y71.575 E2.01990
M73 P9 R26
M73 Q9 S26
G1 X112.567 Y71.726 E0.01296
G1 X158.265 Y117.424 E2.03083
G1 X158.121 Y117.814 E0.01308
G1 X112.183 Y71.876 E2.04149
M73 P10 R26
M73 Q10 S26
G1 X111.799 Y72.027 E0.01296
G1 X157.965 Y118.193 E2.05164
G1 X157.810 Y118.572 E0.01287
G1 X111.415 Y72.177 E2.06179
G1 X111.031 Y72.328 E0.01296
G1 X157.655 Y118.951 E2.07195
G1 X157.499 Y119.330 E0.01287
G1 X110.666 Y72.497 E2.08128
G1 X110.301 Y72.666 E0.01265
G1 X157.331 Y119.697 E2.09005
M73 P11 R26
M73 Q11 S26
G1 X157.158 Y120.058 E0.01258
G1 X109.936 Y72.836 E2.09857
G1 X109.570 Y73.005 E0.01265
G1 X156.984 Y120.418 E2.10708
G1 X156.810 Y120.779 E0.01258
G1 X109.205 Y73.174 E2.11559
G1 X108.852 Y73.356 E0.01247
G1 X156.637 Y121.140 E2.12354
G1 X156.456 Y121.494 E0.01249
G1 X108.505 Y73.543 E2.13097
M73 P12 R26
M73 Q12 S26
G1 X108.157 Y73.730 E0.01240
G1 X156.265 Y121.837 E2.13791
G1 X156.074 Y122.180 E0.01235
