; generated by PrusaSlicer 2.3.0+win64 on 2021-05-06 at 19:09:53 UTC

; 

; external perimeters extrusion width = 0.45mm
; perimeters extrusion width = 0.45mm
; infill extrusion width = 0.45mm
; solid infill extrusion width = 0.45mm
; top infill extrusion width = 0.40mm
; first layer extrusion width = 0.42mm

M73 P0 R11
M73 Q0 S11
M201 X1000 Y1000 Z200 E5000 ; sets maximum accelerations, mm/sec^2
M203 X200 Y200 Z12 E120 ; sets maximum feedrates, mm/sec
M204 P1250 R1250 T1250 ; sets acceleration (P, T) and retract acceleration (R), mm/sec^2
M205 X8.00 Y8.00 Z0.40 E4.50 ; sets the jerk limits, mm/sec
M205 S0 T0 ; sets the minimum extruding and travel feed rate, mm/sec
M107
;TYPE:Custom
M862.3 P "MK3S" ; printer model check
M862.1 P0.4 ; nozzle diameter check
M115 U3.9.3 ; tell printer latest fw version
G90 ; use absolute coordinates
M83 ; extruder relative mode
M104 S215 ; set extruder temp
M140 S60 ; set bed temp
M190 S60 ; wait for bed temp
M109 S215 ; wait for extruder temp
G28 W ; home all without mesh bed level
G80 ; mesh bed leveling
G1 Y-3.0 F1000.0 ; go outside print area
G92 E0.0
G1 X60.0 E9.0 F1000.0 ; intro line
G1 X100.0 E12.5 F1000.0 ; intro line
G92 E0.0
M221 S95

; Don't change E values below. Excessive value can damage the printer.
M907 E430 ; set extruder motor current
G21 ; set units to millimeters
G90 ; use absolute coordinates
M83 ; use relative distances for extrusion
M900 K0.05 ; Filament gcode LA 1.5
M900 K30 ; Filament gcode LA 1.0
;LAYER_CHANGE
;Z:0.2
;HEIGHT:0.2
;BEFORE_LAYER_CHANGE
G92 E0.0
;0.2


G1 E-0.80000 F2100.000
G1 Z0.400 F10800.000
;AFTER_LAYER_CHANGE
;0.2
G1 X107.590 Y91.451
M73 P1 R11
M73 Q1 S11
G1 Z0.200
G1 E0.80000 F2100.000
M204 S1000
;TYPE:Skirt
;WIDTH:0.42
G1 F1200.000
G1 X109.282 Y89.518 E0.08054
G1 X111.190 Y87.796 E0.08058
G1 X112.353 Y86.925 E0.04556
G1 X114.544 Y85.575 E0.08070
G1 X116.874 Y84.492 E0.08058
G1 X118.242 Y84.001 E0.04556
G1 X120.730 Y83.358 E0.08058
G1 X123.280 Y83.009 E0.08070
G1 X124.705 Y82.943 E0.04472
G1 X127.238 Y83.056 E0.07950
G1 X128.679 Y83.252 E0.04560
G1 X131.183 Y83.827 E0.08054
G1 X133.606 Y84.692 E0.08070
G1 X134.921 Y85.301 E0.04544
G1 X137.149 Y86.591 E0.08070
G1 X139.207 Y88.130 E0.08058
G1 X140.290 Y89.106 E0.04572
G1 X142.035 Y90.991 E0.08054
G1 X143.548 Y93.068 E0.08058
G1 X144.293 Y94.316 E0.04556
G1 X145.407 Y96.636 E0.08070
G1 X146.240 Y99.067 E0.08058
M73 P1 R10
G1 X146.585 Y100.478 E0.04556
G1 X146.966 Y103.024 E0.08070
G1 X147.045 Y105.589 E0.08046
G1 X146.959 Y107.043 E0.04568
G1 X146.572 Y109.588 E0.08070
G1 X145.891 Y112.066 E0.08058
G1 X145.381 Y113.426 E0.04556
G1 X144.261 Y115.743 E0.08070
G1 X142.880 Y117.911 E0.08058
G1 X141.991 Y119.060 E0.04556
G1 X140.244 Y120.940 E0.08046
M73 Q1 S10
G1 X139.204 Y121.872 E0.04381
G1 X137.143 Y123.412 E0.08066
G1 X134.922 Y124.698 E0.08046
G1 X133.599 Y125.311 E0.04572
G1 X131.180 Y126.174 E0.08054
G1 X128.679 Y126.748 E0.08046
G1 X127.235 Y126.944 E0.04568
G1 X124.702 Y127.057 E0.07951
G1 X123.276 Y126.991 E0.04476
G1 X120.731 Y126.643 E0.08054
G1 X118.243 Y125.999 E0.08058
G1 X116.871 Y125.507 E0.04572
G1 X114.541 Y124.424 E0.08054
G1 X112.354 Y123.076 E0.08058
G1 X111.191 Y122.204 E0.04556
G1 X109.283 Y120.483 E0.08058
G1 X107.590 Y118.549 E0.08058
M73 Q2 S10
G1 X106.767 Y117.422 E0.04377
G1 X105.448 Y115.221 E0.08046
G1 X104.816 Y113.907 E0.04572
M73 P2 R10
G1 X103.916 Y111.501 E0.08054
G1 X103.304 Y109.005 E0.08058
G1 X103.087 Y107.568 E0.04556
G1 X102.937 Y104.999 E0.08070
G1 X103.087 Y102.433 E0.08058
G1 X103.304 Y100.996 E0.04556
G1 X103.917 Y98.497 E0.08070
G1 X104.816 Y96.093 E0.08046
G1 X105.448 Y94.781 E0.04568
G1 X106.768 Y92.576 E0.08058
G1 X107.554 Y91.499 E0.04181
; printing object Nudger2-lid-repro.stl id:0 copy 0
;WIPE_START
G1 F8640.000
G1 X109.282 Y89.518 E-0.60690
G1 X109.774 Y89.074 E-0.15310
;WIPE_END
G1 E-0.04000 F2100.000
G1 Z0.600 F10800.000
G1 X115.667 Y105.190
G1 Z0.200
G1 E0.80000 F2100.000
;TYPE:External perimeter
G1 F1200.000
G1 X124.807 Y105.189 E0.28659
G1 X124.806 Y114.329 E0.28658
G1 X123.683 Y114.217 E0.03537
G1 X122.897 Y114.070 E0.02505
G1 X122.128 Y113.856 E0.02504
G1 X121.379 Y113.577 E0.02508
G1 X120.657 Y113.235 E0.02504
G1 X119.967 Y112.832 E0.02505
G1 X119.314 Y112.373 E0.02503
G1 X118.702 Y111.857 E0.02509
G1 X118.177 Y111.334 E0.02327
G1 X117.623 Y110.682 E0.02680
G1 X117.163 Y110.029 E0.02506
G1 X116.760 Y109.339 E0.02505
G1 X116.418 Y108.617 E0.02505
G1 X116.139 Y107.868 E0.02505
G1 X115.926 Y107.098 E0.02505
G1 X115.779 Y106.313 E0.02505
G1 X115.673 Y105.250 E0.03349
G1 X115.649 Y104.790 F10800.000
;WIPE_START
G1 F8640.000
G1 X118.964 Y105.228 E-0.76000
;WIPE_END
G1 E-0.04000 F2100.000
G1 Z0.600 F10800.000
G1 X125.184 Y104.811
G1 Z0.200
G1 E0.80000 F2100.000
G1 F1200.000
G1 X125.186 Y95.672 E0.28658
G1 X126.309 Y95.783 E0.03536
G1 X127.094 Y95.930 E0.02505
G1 X127.864 Y96.144 E0.02505
G1 X128.613 Y96.423 E0.02505
G1 X129.334 Y96.765 E0.02503
G1 X130.025 Y97.168 E0.02508
G1 X130.678 Y97.628 E0.02503
G1 X131.289 Y98.142 E0.02505
G1 X131.854 Y98.707 E0.02505
G1 X132.368 Y99.318 E0.02503
G1 X132.828 Y99.972 E0.02509
G1 X133.231 Y100.662 E0.02503
G1 X133.573 Y101.384 E0.02505
G1 X133.851 Y102.132 E0.02505
G1 X134.065 Y102.902 E0.02505
G1 X134.212 Y103.687 E0.02505
G1 X134.324 Y104.810 E0.03537
G1 X125.244 Y104.811 E0.28468
G1 X124.785 Y104.828 F10800.000
G1 X124.807 Y104.811
G1 F1200.000
G1 X115.667 Y104.810 E0.28659
G1 X115.779 Y103.687 E0.03537
M73 Q3 S10
G1 X115.926 Y102.902 E0.02506
G1 X116.140 Y102.132 E0.02505
G1 X116.418 Y101.383 E0.02505
G1 X116.760 Y100.661 E0.02505
G1 X117.163 Y99.971 E0.02505
G1 X117.623 Y99.318 E0.02505
G1 X118.138 Y98.707 E0.02505
G1 X118.703 Y98.142 E0.02505
M73 P3 R10
G1 X119.314 Y97.627 E0.02505
G1 X119.967 Y97.167 E0.02505
G1 X120.657 Y96.765 E0.02505
G1 X121.379 Y96.423 E0.02505
G1 X122.128 Y96.144 E0.02505
G1 X122.898 Y95.930 E0.02505
G1 X123.683 Y95.783 E0.02505
G1 X124.806 Y95.672 E0.03538
G1 X124.807 Y104.751 E0.28469
G1 X124.824 Y105.211 F10800.000
;WIPE_START
G1 F8640.000
G1 X121.516 Y104.773 E-0.76000
;WIPE_END
G1 E-0.04000 F2100.000
G1 Z0.600 F10800.000
G1 X124.808 Y86.795
G1 Z0.200
G1 E0.80000 F2100.000
G1 F1200.000
G1 X124.808 Y95.297 E0.26657
G1 X123.724 Y95.396 E0.03413
G1 X122.944 Y95.532 E0.02482
G1 X122.178 Y95.731 E0.02482
G1 X121.431 Y95.992 E0.02482
G1 X120.707 Y96.312 E0.02482
G1 X120.011 Y96.692 E0.02484
G1 X119.703 Y96.891 E0.01153
G1 X119.351 Y97.125 E0.01325
G1 X118.726 Y97.612 E0.02483
G1 X118.144 Y98.148 E0.02481
G1 X117.608 Y98.730 E0.02481
G1 X117.121 Y99.355 E0.02483
G1 X116.902 Y99.684 E0.01239
G1 X116.687 Y100.016 E0.01239
G1 X116.308 Y100.711 E0.02483
G1 X115.987 Y101.435 E0.02482
G1 X115.726 Y102.182 E0.02482
G1 X115.527 Y102.948 E0.02482
G1 X115.391 Y103.727 E0.02482
G1 X115.292 Y104.811 E0.03413
G1 X106.796 Y104.811 E0.26640
G1 X106.759 Y104.127 E0.02148
G1 X106.783 Y103.338 E0.02478
G1 X106.925 Y102.189 E0.03629
G1 X107.138 Y101.054 E0.03620
G1 X107.422 Y99.936 E0.03617
G1 X107.535 Y99.575 E0.01186
G1 X107.777 Y98.836 E0.02439
G1 X108.199 Y97.762 E0.03618
G1 X108.689 Y96.717 E0.03618
G1 X108.869 Y96.385 E0.01185
G1 X109.244 Y95.704 E0.02438
G1 X109.861 Y94.728 E0.03619
G1 X110.515 Y93.825 E0.03499
G1 X110.779 Y93.503 E0.01304
G1 X111.275 Y92.904 E0.02438
G1 X112.039 Y92.091 E0.03499
G1 X112.879 Y91.300 E0.03617
G1 X113.198 Y91.032 E0.01304
G1 X113.799 Y90.539 E0.02440
G1 X114.734 Y89.862 E0.03619
G1 X115.709 Y89.245 E0.03618
G1 X116.360 Y88.884 E0.02333
G1 X116.723 Y88.690 E0.01291
G1 X117.733 Y88.217 E0.03496
G1 X118.805 Y87.792 E0.03615
G1 X119.199 Y87.660 E0.01304
G1 X119.941 Y87.425 E0.02441
G1 X121.023 Y87.149 E0.03498
G1 X122.194 Y86.928 E0.03739
G1 X123.341 Y86.786 E0.03622
G1 X123.735 Y86.766 E0.01238
G1 X124.748 Y86.793 E0.03176
G1 X125.208 Y86.795 F10800.000
G1 X125.185 Y86.800
G1 F1200.000
G1 X125.872 Y86.763 E0.02157
G1 X126.668 Y86.788 E0.02499
G1 X127.817 Y86.930 E0.03629
G1 X128.951 Y87.143 E0.03620
G1 X130.070 Y87.427 E0.03619
G1 X130.429 Y87.542 E0.01180
G1 X131.169 Y87.782 E0.02441
G1 X132.208 Y88.191 E0.03500
G1 X133.253 Y88.680 E0.03618
G1 X133.618 Y88.877 E0.01300
G1 X134.300 Y89.254 E0.02442
G1 X135.242 Y89.851 E0.03499
G1 X136.177 Y90.528 E0.03618
G1 X136.782 Y91.022 E0.02449
G1 X137.097 Y91.289 E0.01296
G1 X137.937 Y92.079 E0.03616
G1 X138.701 Y92.892 E0.03498
G1 X139.202 Y93.491 E0.02448
G1 X139.462 Y93.813 E0.01296
G1 X140.138 Y94.747 E0.03616
G1 X140.735 Y95.689 E0.03496
G1 X140.938 Y96.050 E0.01300
G1 X141.309 Y96.735 E0.02445
G1 X141.798 Y97.781 E0.03618
G1 X142.207 Y98.818 E0.03497
G1 X142.338 Y99.211 E0.01299
G1 X142.575 Y99.954 E0.02445
G1 X142.859 Y101.073 E0.03619
G1 X143.072 Y102.207 E0.03620
G1 X143.209 Y103.319 E0.03511
G1 X143.231 Y104.122 E0.02520
G1 X143.196 Y104.811 E0.02165
G1 X134.699 Y104.811 E0.26642
M73 Q4 S10
G1 X134.599 Y103.728 E0.03413
M73 P4 R10
G1 X134.464 Y102.948 E0.02481
G1 X134.264 Y102.182 E0.02481
G1 X134.004 Y101.435 E0.02481
G1 X133.683 Y100.711 E0.02482
G1 X133.304 Y100.016 E0.02483
G1 X133.089 Y99.685 E0.01238
G1 X132.870 Y99.355 E0.01239
G1 X132.383 Y98.731 E0.02483
G1 X131.847 Y98.149 E0.02481
G1 X131.265 Y97.613 E0.02481
G1 X130.641 Y97.126 E0.02483
G1 X130.311 Y96.907 E0.01239
G1 X129.980 Y96.692 E0.01239
G1 X129.285 Y96.313 E0.02483
G1 X128.561 Y95.992 E0.02481
G1 X127.814 Y95.731 E0.02481
G1 X127.048 Y95.532 E0.02481
G1 X126.270 Y95.396 E0.02478
G1 X125.185 Y95.297 E0.03416
G1 X125.185 Y86.860 E0.26453
G1 X125.154 Y86.401 F10800.000
;WIPE_START
G1 F8640.000
G1 X125.872 Y86.763 E-0.16015
G1 X126.668 Y86.788 E-0.18403
G1 X127.817 Y86.930 E-0.26727
G1 X128.449 Y87.048 E-0.14855
;WIPE_END
G1 E-0.04000 F2100.000
G1 Z0.600 F10800.000
G1 X134.699 Y105.189
G1 Z0.200
G1 E0.80000 F2100.000
G1 F1200.000
G1 X143.196 Y105.189 E0.26642
G1 X143.231 Y105.878 E0.02163
G1 X143.212 Y106.643 E0.02400
G1 X143.072 Y107.793 E0.03631
G1 X142.859 Y108.927 E0.03620
G1 X142.575 Y110.046 E0.03620
G1 X142.221 Y111.145 E0.03620
G1 X141.798 Y112.220 E0.03620
G1 X141.309 Y113.265 E0.03620
G1 X140.735 Y114.311 E0.03739
G1 X140.138 Y115.254 E0.03500
G1 X139.461 Y116.188 E0.03619
G1 X138.726 Y117.079 E0.03619
G1 X137.937 Y117.921 E0.03619
G1 X137.096 Y118.712 E0.03620
G1 X136.177 Y119.472 E0.03740
G1 X135.242 Y120.149 E0.03620
G1 X134.266 Y120.766 E0.03620
G1 X133.253 Y121.320 E0.03620
G1 X132.207 Y121.809 E0.03620
G1 X131.169 Y122.218 E0.03500
G1 X130.070 Y122.573 E0.03620
G1 X128.951 Y122.857 E0.03620
G1 X127.778 Y123.076 E0.03740
G1 X126.629 Y123.215 E0.03629
G1 X125.871 Y123.237 E0.02379
G1 X125.184 Y123.200 E0.02156
G1 X125.184 Y114.703 E0.26641
G1 X126.268 Y114.604 E0.03413
G1 X127.048 Y114.468 E0.02481
G1 X127.814 Y114.269 E0.02481
G1 X128.561 Y114.008 E0.02481
G1 X129.284 Y113.687 E0.02481
G1 X129.979 Y113.309 E0.02482
G1 X130.641 Y112.874 E0.02482
G1 X131.265 Y112.388 E0.02482
G1 X131.847 Y111.852 E0.02481
G1 X132.384 Y111.269 E0.02483
G1 X132.869 Y110.646 E0.02477
G1 X133.304 Y109.984 E0.02484
G1 X133.683 Y109.289 E0.02482
G1 X134.004 Y108.565 E0.02482
G1 X134.264 Y107.818 E0.02479
G1 X134.464 Y107.052 E0.02482
G1 X134.599 Y106.272 E0.02481
G1 X134.693 Y105.248 E0.03225
G1 X134.715 Y104.789 F10800.000
G1 X134.322 Y105.211
G1 F1200.000
G1 X134.212 Y106.313 E0.03470
G1 X134.065 Y107.098 E0.02505
G1 X133.851 Y107.868 E0.02505
G1 X133.572 Y108.617 E0.02505
G1 X133.230 Y109.339 E0.02505
G1 X132.828 Y110.029 E0.02505
G1 X132.368 Y110.682 E0.02505
G1 X131.854 Y111.292 E0.02502
G1 X131.573 Y111.577 E0.01255
G1 X131.288 Y111.858 E0.01255
G1 X130.677 Y112.372 E0.02502
G1 X130.024 Y112.832 E0.02505
G1 X129.334 Y113.235 E0.02505
G1 X128.612 Y113.577 E0.02505
G1 X127.863 Y113.856 E0.02505
G1 X127.093 Y114.070 E0.02505
G1 X126.308 Y114.217 E0.02505
G1 X125.185 Y114.329 E0.03537
G1 X125.184 Y105.189 E0.28658
G1 X134.285 Y105.190 E0.28536
M73 P5 R10
M73 Q5 S10
G1 X134.714 Y105.134 F10800.000
;WIPE_START
G1 F8640.000
G1 X134.212 Y106.313 E-0.25977
G1 X134.065 Y107.098 E-0.18451
G1 X133.851 Y107.868 E-0.18449
G1 X133.653 Y108.400 E-0.13123
;WIPE_END
G1 E-0.04000 F2100.000
G1 Z0.600 F10800.000
G1 X124.807 Y114.703
G1 Z0.200
G1 E0.80000 F2100.000
G1 F1200.000
G1 X124.807 Y123.200 E0.26642
G1 X124.115 Y123.236 E0.02173
G1 X123.343 Y123.214 E0.02422
G1 X122.194 Y123.072 E0.03630
G1 X121.059 Y122.859 E0.03619
G1 X119.941 Y122.575 E0.03618
G1 X118.805 Y122.207 E0.03745
G1 X117.767 Y121.799 E0.03496
G1 X116.723 Y121.310 E0.03616
G1 X115.709 Y120.755 E0.03624
G1 X114.734 Y120.138 E0.03618
G1 X113.799 Y119.461 E0.03617
G1 X112.879 Y118.700 E0.03743
G1 X112.066 Y117.936 E0.03499
G1 X111.250 Y117.066 E0.03739
G1 X110.539 Y116.206 E0.03500
G1 X109.861 Y115.271 E0.03620
G1 X109.243 Y114.296 E0.03619
G1 X108.689 Y113.283 E0.03622
G1 X108.199 Y112.237 E0.03618
G1 X107.777 Y111.164 E0.03618
G1 X107.422 Y110.064 E0.03624
G1 X107.138 Y108.946 E0.03616
G1 X106.925 Y107.811 E0.03619
G1 X106.783 Y106.662 E0.03629
G1 X106.759 Y105.873 E0.02477
G1 X106.796 Y105.189 E0.02148
G1 X115.292 Y105.189 E0.26640
G1 X115.391 Y106.272 E0.03413
G1 X115.527 Y107.052 E0.02481
G1 X115.726 Y107.818 E0.02481
G1 X115.987 Y108.565 E0.02481
G1 X116.308 Y109.289 E0.02481
G1 X116.687 Y109.984 E0.02483
G1 X116.902 Y110.316 E0.01239
G1 X117.121 Y110.645 E0.01240
G1 X117.608 Y111.270 E0.02484
G1 X118.144 Y111.852 E0.02481
G1 X118.726 Y112.388 E0.02481
G1 X119.351 Y112.875 E0.02483
G1 X119.680 Y113.093 E0.01239
G1 X120.011 Y113.308 E0.01239
G1 X120.707 Y113.687 E0.02483
G1 X121.385 Y113.988 E0.02326
G1 X122.178 Y114.269 E0.02638
G1 X122.943 Y114.468 E0.02480
G1 X123.723 Y114.604 E0.02481
G1 X124.747 Y114.698 E0.03225
G1 X125.206 Y114.720 F10800.000
;WIPE_START
G1 F8640.000
G1 X124.770 Y117.989 E-0.76000
;WIPE_END
G1 E-0.04000 F2100.000
G1 Z0.600 F10800.000
G1 X124.696 Y123.654
G1 Z0.200
G1 E0.80000 F2100.000
G1 F1200.000
G1 X123.600 Y123.616 E0.03439
G1 X122.489 Y123.500 E0.03503
G1 X121.387 Y123.316 E0.03501
G1 X120.298 Y123.068 E0.03504
G1 X119.227 Y122.754 E0.03498
G1 X118.175 Y122.378 E0.03502
G1 X117.149 Y121.939 E0.03501
G1 X116.150 Y121.440 E0.03501
G1 X115.182 Y120.881 E0.03503
G1 X114.251 Y120.267 E0.03498
G1 X113.357 Y119.596 E0.03506
G1 X112.504 Y118.873 E0.03503
G1 X111.697 Y118.102 E0.03502
G1 X110.937 Y117.283 E0.03503
G1 X110.227 Y116.420 E0.03502
G1 X109.571 Y115.516 E0.03503
G1 X108.969 Y114.575 E0.03503
G1 X108.426 Y113.599 E0.03503
G1 X107.941 Y112.592 E0.03505
G1 X107.517 Y111.559 E0.03500
G1 X107.156 Y110.502 E0.03504
G1 X106.859 Y109.425 E0.03502
G1 X106.627 Y108.333 E0.03501
G1 X106.461 Y107.228 E0.03502
G1 X106.361 Y106.118 E0.03497
G1 X106.333 Y105.000 E0.03505
G1 X106.361 Y103.882 E0.03505
G1 X106.461 Y102.772 E0.03497
G1 X106.627 Y101.667 E0.03502
G1 X106.859 Y100.575 E0.03501
G1 X107.156 Y99.498 E0.03502
G1 X107.517 Y98.441 E0.03504
G1 X107.799 Y97.747 E0.02347
G1 X107.941 Y97.408 E0.01152
G1 X108.426 Y96.401 E0.03505
G1 X108.969 Y95.425 E0.03503
G1 X109.571 Y94.484 E0.03503
M73 Q6 S10
G1 X110.227 Y93.580 E0.03503
G1 X110.937 Y92.717 E0.03502
G1 X111.697 Y91.898 E0.03503
G1 X112.504 Y91.126 E0.03503
G1 X113.356 Y90.404 E0.03503
M73 P6 R10
G1 X114.251 Y89.733 E0.03506
G1 X115.182 Y89.119 E0.03498
G1 X116.150 Y88.560 E0.03503
G1 X117.149 Y88.061 E0.03501
G1 X118.175 Y87.622 E0.03501
G1 X119.227 Y87.245 E0.03503
G1 X120.297 Y86.932 E0.03496
G1 X121.387 Y86.684 E0.03504
G1 X122.488 Y86.500 E0.03502
G1 X123.600 Y86.384 E0.03504
G1 X124.344 Y86.348 E0.02335
G1 X125.834 Y86.351 E0.04672
G1 X126.946 Y86.434 E0.03498
G1 X128.053 Y86.584 E0.03503
G1 X129.149 Y86.800 E0.03503
G1 X130.230 Y87.080 E0.03503
G1 X130.943 Y87.312 E0.02347
G1 X131.293 Y87.425 E0.01155
G1 X132.333 Y87.834 E0.03503
G1 X133.347 Y88.304 E0.03504
G1 X134.330 Y88.833 E0.03501
G1 X135.280 Y89.420 E0.03503
G1 X136.195 Y90.064 E0.03506
G1 X137.067 Y90.759 E0.03498
G1 X137.897 Y91.507 E0.03503
G1 X138.681 Y92.303 E0.03504
G1 X139.415 Y93.143 E0.03497
G1 X140.098 Y94.027 E0.03502
G1 X140.727 Y94.950 E0.03501
G1 X141.300 Y95.908 E0.03501
G1 X141.815 Y96.900 E0.03503
G1 X142.269 Y97.919 E0.03497
G1 X142.662 Y98.966 E0.03507
G1 X142.991 Y100.033 E0.03502
G1 X143.256 Y101.118 E0.03503
