; generated by PrusaSlicer 2.3.0+win64 on 2021-05-01 at 18:27:02 UTC

; 

; external perimeters extrusion width = 0.45mm
; perimeters extrusion width = 0.45mm
; infill extrusion width = 0.45mm
; solid infill extrusion width = 0.45mm
; top infill extrusion width = 0.40mm
; first layer extrusion width = 0.42mm

M73 P0 R26
M73 Q0 S26
M201 X1000 Y1000 Z200 E5000 ; sets maximum accelerations, mm/sec^2
M203 X200 Y200 Z12 E120 ; sets maximum feedrates, mm/sec
M204 P1250 R1250 T1250 ; sets acceleration (P, T) and retract acceleration (R), mm/sec^2
M205 X8.00 Y8.00 Z0.40 E4.50 ; sets the jerk limits, mm/sec
M205 S0 T0 ; sets the minimum extruding and travel feed rate, mm/sec
M107
;TYPE:Custom
M862.3 P "MK3S" ; printer model check
M862.1 P0.4 ; nozzle diameter check
M115 U3.9.3 ; tell printer latest fw version
G90 ; use absolute coordinates
M83 ; extruder relative mode
M104 S215 ; set extruder temp
M140 S60 ; set bed temp
M190 S60 ; wait for bed temp
M109 S215 ; wait for extruder temp
G28 W ; home all without mesh bed level
G80 ; mesh bed leveling
G1 Y-3.0 F1000.0 ; go outside print area
G92 E0.0
G1 X60.0 E9.0 F1000.0 ; intro line
G1 X100.0 E12.5 F1000.0 ; intro line
G92 E0.0
M221 S95

; Don't change E values below. Excessive value can damage the printer.
M907 E430 ; set extruder motor current
G21 ; set units to millimeters
G90 ; use absolute coordinates
M83 ; use relative distances for extrusion
M900 K0.05 ; Filament gcode LA 1.5
M900 K30 ; Filament gcode LA 1.0
;LAYER_CHANGE
;Z:0.2
;HEIGHT:0.2
;BEFORE_LAYER_CHANGE
G92 E0.0
;0.2


G1 E-0.80000 F2100.000
G1 Z0.400 F10800.000
;AFTER_LAYER_CHANGE
;0.2
G1 X99.934 Y84.808
G1 Z0.200
G1 E0.80000 F2100.000
M204 S1000
;TYPE:Skirt
;WIDTH:0.42
G1 F1200.000
G1 X101.076 Y83.463 E0.05533
G1 X102.406 Y82.071 E0.06038
G1 X103.815 Y80.764 E0.06026
G1 X105.252 Y79.581 E0.05835
G1 X106.922 Y78.368 E0.06471
G1 X108.486 Y77.370 E0.05819
G1 X110.168 Y76.432 E0.06038
G1 X111.900 Y75.598 E0.06026
G1 X113.618 Y74.893 E0.05823
G1 X115.570 Y74.226 E0.06467
G1 X117.364 Y73.732 E0.05835
G1 X119.244 Y73.332 E0.06026
G1 X121.148 Y73.045 E0.06038
G1 X122.991 Y72.878 E0.05801
G1 X124.998 Y72.814 E0.06298
G1 X126.923 Y72.872 E0.06037
G1 X128.769 Y73.038 E0.05814
G1 X130.805 Y73.344 E0.06454
G1 X132.625 Y73.732 E0.05835
G1 X134.481 Y74.245 E0.06038
G1 X136.300 Y74.866 E0.06026
G1 X138.019 Y75.569 E0.05823
G1 X139.877 Y76.464 E0.06467
G1 X141.502 Y77.371 E0.05835
G1 X143.122 Y78.406 E0.06026
G1 X144.738 Y79.583 E0.06269
G1 X146.170 Y80.763 E0.05819
G1 X147.582 Y82.073 E0.06038
G1 X148.910 Y83.462 E0.06026
G1 X150.114 Y84.881 E0.05835
G1 X151.352 Y86.532 E0.06471
G1 X152.374 Y88.082 E0.05819
G1 X153.336 Y89.749 E0.06038
G1 X154.196 Y91.468 E0.06026
G1 X154.928 Y93.179 E0.05835
G1 X155.623 Y95.117 E0.06455
G1 X156.144 Y96.904 E0.05835
G1 X156.572 Y98.781 E0.06038
G1 X156.887 Y100.677 E0.06026
G1 X157.083 Y102.528 E0.05835
G1 X157.175 Y104.590 E0.06471
G1 X157.146 Y106.445 E0.05819
G1 X157.002 Y108.366 E0.06038
G1 X156.744 Y110.270 E0.06026
G1 X156.386 Y112.096 E0.05835
G1 X155.868 Y114.089 E0.06455
G1 X155.292 Y115.858 E0.05835
G1 X154.588 Y117.651 E0.06038
G1 X153.780 Y119.395 E0.06026
G1 X152.900 Y121.034 E0.05835
G1 X151.817 Y122.785 E0.06455
G1 X150.745 Y124.307 E0.05835
G1 X149.545 Y125.812 E0.06038
G1 X148.259 Y127.240 E0.06026
G1 X146.936 Y128.545 E0.05823
G1 X145.383 Y129.902 E0.06467
G1 X143.910 Y131.039 E0.05835
G1 X142.319 Y132.124 E0.06038
G1 X140.670 Y133.110 E0.06026
G1 X139.018 Y133.968 E0.05835
G1 X137.137 Y134.806 E0.06455
G1 X135.395 Y135.458 E0.05835
G1 X133.555 Y136.026 E0.06038
G1 X131.688 Y136.482 E0.06026
G1 X129.860 Y136.814 E0.05823
G1 X127.813 Y137.061 E0.06467
G1 X125.955 Y137.171 E0.05835
G1 X124.067 Y137.172 E0.05918
G1 X122.037 Y137.049 E0.06376
G1 X120.195 Y136.826 E0.05819
G1 X118.300 Y136.482 E0.06038
G1 X116.433 Y136.026 E0.06026
G1 X114.655 Y135.479 E0.05835
G1 X112.722 Y134.753 E0.06471
G1 X111.027 Y133.998 E0.05819
G1 X109.318 Y133.111 E0.06038
G1 X107.668 Y132.125 E0.06026
G1 X106.130 Y131.077 E0.05835
G1 X104.501 Y129.818 E0.06455
G1 X103.101 Y128.593 E0.05835
G1 X101.732 Y127.244 E0.06026
G1 X100.396 Y125.756 E0.06269
G1 X99.240 Y124.305 E0.05819
G1 X98.131 Y122.730 E0.06038
G1 X97.121 Y121.095 E0.06026
G1 X96.238 Y119.457 E0.05835
G1 X95.371 Y117.584 E0.06471
G1 X94.694 Y115.856 E0.05819
M73 Q1 S26
G1 X94.099 Y114.025 E0.06038
G1 X93.615 Y112.164 E0.06026
G1 X93.255 Y110.339 E0.05835
M73 P1 R26
G1 X92.978 Y108.299 E0.06455
G1 X92.840 Y106.443 E0.05835
G1 X92.811 Y104.521 E0.06026
G1 X92.904 Y102.524 E0.06269
G1 X93.099 Y100.678 E0.05819
G1 X93.415 Y98.779 E0.06038
G1 X93.842 Y96.905 E0.06026
G1 X94.363 Y95.118 E0.05835
G1 X95.060 Y93.175 E0.06471
G1 X95.790 Y91.469 E0.05819
G1 X96.651 Y89.747 E0.06038
G1 X97.612 Y88.083 E0.06026
G1 X98.637 Y86.529 E0.05835
G1 X99.895 Y84.854 E0.06569
; printing object Nudger-lid-b.stl id:0 copy 0
;WIPE_START
G1 F8640.000
G1 X101.076 Y83.463 E-0.42134
G1 X102.089 Y82.403 E-0.33866
;WIPE_END
G1 E-0.04000 F2100.000
G1 Z0.600 F10800.000
G1 X102.609 Y87.149
G1 Z0.200
G1 E0.80000 F2100.000
;TYPE:Perimeter
G1 F1200.000
G1 X103.717 Y85.842 E0.05371
G1 X104.900 Y84.604 E0.05371
G1 X106.156 Y83.439 E0.05371
G1 X107.479 Y82.351 E0.05371
G1 X108.865 Y81.344 E0.05371
G1 X109.587 Y80.883 E0.02685
G1 X110.309 Y80.422 E0.02685
G1 X111.805 Y79.588 E0.05371
G1 X113.348 Y78.845 E0.05371
G1 X114.933 Y78.195 E0.05371
G1 X116.554 Y77.641 E0.05371
G1 X118.206 Y77.186 E0.05371
G1 X119.881 Y76.830 E0.05371
G1 X121.575 Y76.574 E0.05371
G1 X123.269 Y76.421 E0.05333
G1 X124.993 Y76.369 E0.05409
G1 X126.718 Y76.421 E0.05409
G1 X128.412 Y76.574 E0.05333
G1 X130.105 Y76.830 E0.05371
G1 X131.781 Y77.186 E0.05371
G1 X133.432 Y77.641 E0.05371
G1 X135.053 Y78.195 E0.05371
G1 X136.638 Y78.845 E0.05371
G1 X138.182 Y79.588 E0.05371
G1 X139.678 Y80.422 E0.05371
G1 X141.121 Y81.344 E0.05371
G1 X142.507 Y82.351 E0.05371
G1 X143.830 Y83.439 E0.05371
G1 X145.086 Y84.604 E0.05371
G1 X146.270 Y85.842 E0.05371
G1 X147.378 Y87.149 E0.05371
G1 X148.405 Y88.520 E0.05371
G1 X149.349 Y89.949 E0.05371
G1 X150.205 Y91.433 E0.05371
G1 X150.971 Y92.965 E0.05371
G1 X151.645 Y94.540 E0.05371
G1 X152.223 Y96.153 E0.05371
G1 X152.703 Y97.797 E0.05371
G1 X153.084 Y99.467 E0.05371
G1 X153.365 Y101.157 E0.05371
G1 X153.544 Y102.860 E0.05371
G1 X153.621 Y104.572 E0.05371
G1 X153.595 Y106.285 E0.05371
G1 X153.467 Y107.993 E0.05371
G1 X153.237 Y109.690 E0.05371
G1 X152.906 Y111.371 E0.05371
G1 X152.475 Y113.029 E0.05371
G1 X151.946 Y114.658 E0.05371
G1 X151.320 Y116.253 E0.05371
G1 X150.840 Y117.288 E0.03578
G1 X150.600 Y117.807 E0.01793
G1 X149.788 Y119.315 E0.05371
G1 X148.888 Y120.772 E0.05371
G1 X147.902 Y122.173 E0.05371
G1 X146.834 Y123.513 E0.05371
G1 X145.687 Y124.786 E0.05371
G1 X144.467 Y125.988 E0.05371
G1 X143.177 Y127.115 E0.05371
G1 X141.822 Y128.163 E0.05371
G1 X140.407 Y129.128 E0.05371
G1 X138.936 Y130.006 E0.05371
G1 X137.416 Y130.795 E0.05371
G1 X135.851 Y131.492 E0.05371
G1 X134.247 Y132.094 E0.05371
G1 X132.610 Y132.599 E0.05371
G1 X130.946 Y133.005 E0.05371
G1 X129.260 Y133.311 E0.05371
G1 X127.560 Y133.515 E0.05371
G1 X126.421 Y133.584 E0.03578
G1 X125.850 Y133.618 E0.01793
G1 X124.137 Y133.618 E0.05371
G1 X122.427 Y133.515 E0.05371
G1 X121.576 Y133.413 E0.02685
G1 X120.726 Y133.311 E0.02685
G1 X119.041 Y133.005 E0.05371
G1 X117.377 Y132.599 E0.05371
G1 X115.740 Y132.094 E0.05371
G1 X114.136 Y131.492 E0.05371
G1 X112.571 Y130.795 E0.05371
G1 X111.051 Y130.006 E0.05371
G1 X109.580 Y129.128 E0.05371
G1 X108.165 Y128.163 E0.05371
G1 X106.810 Y127.115 E0.05371
G1 X105.520 Y125.988 E0.05371
G1 X104.299 Y124.786 E0.05371
G1 X103.153 Y123.513 E0.05371
G1 X102.085 Y122.173 E0.05371
G1 X101.099 Y120.772 E0.05371
G1 X100.199 Y119.315 E0.05371
G1 X99.387 Y117.807 E0.05371
G1 X98.667 Y116.253 E0.05371
G1 X98.041 Y114.658 E0.05371
G1 X97.512 Y113.029 E0.05371
G1 X97.081 Y111.371 E0.05371
G1 X96.750 Y109.690 E0.05371
G1 X96.520 Y107.993 E0.05371
G1 X96.392 Y106.285 E0.05371
G1 X96.366 Y104.572 E0.05371
G1 X96.443 Y102.860 E0.05371
G1 X96.622 Y101.157 E0.05371
G1 X96.902 Y99.467 E0.05371
G1 X97.284 Y97.797 E0.05371
G1 X97.764 Y96.153 E0.05371
G1 X98.342 Y94.540 E0.05371
G1 X99.015 Y92.965 E0.05371
G1 X99.781 Y91.433 E0.05371
G1 X100.638 Y89.949 E0.05371
G1 X101.582 Y88.520 E0.05371
G1 X102.573 Y87.197 E0.05183
G1 X102.271 Y86.971 F10800.000
;TYPE:External perimeter
G1 F1200.000
G1 X103.436 Y85.590 E0.05665
G1 X104.636 Y84.336 E0.05442
G1 X105.908 Y83.155 E0.05442
G1 X107.249 Y82.053 E0.05442
G1 X108.653 Y81.033 E0.05442
G1 X110.115 Y80.098 E0.05442
G1 X111.631 Y79.253 E0.05442
G1 X113.195 Y78.500 E0.05442
G1 X114.801 Y77.842 E0.05442
G1 X116.443 Y77.281 E0.05442
G1 X118.116 Y76.819 E0.05442
G1 X119.814 Y76.458 E0.05442
G1 X121.530 Y76.200 E0.05442
G1 X123.246 Y76.045 E0.05404
G1 X124.993 Y75.992 E0.05480
G1 X126.740 Y76.045 E0.05480
G1 X128.457 Y76.200 E0.05404
G1 X130.173 Y76.458 E0.05442
G1 X131.870 Y76.819 E0.05442
G1 X133.543 Y77.281 E0.05442
G1 X135.186 Y77.842 E0.05442
G1 X136.792 Y78.500 E0.05442
G1 X138.356 Y79.253 E0.05442
G1 X139.871 Y80.098 E0.05442
G1 X141.334 Y81.033 E0.05442
G1 X142.738 Y82.053 E0.05442
G1 X144.079 Y83.155 E0.05442
G1 X145.351 Y84.336 E0.05442
G1 X146.550 Y85.590 E0.05442
G1 X147.672 Y86.914 E0.05442
G1 X148.364 Y87.836 E0.03614
G1 X148.714 Y88.303 E0.01828
G1 X149.670 Y89.751 E0.05442
G1 X150.537 Y91.254 E0.05442
G1 X151.314 Y92.806 E0.05442
G1 X151.996 Y94.402 E0.05442
G1 X152.581 Y96.036 E0.05442
G1 X153.068 Y97.702 E0.05442
G1 X153.454 Y99.394 E0.05442
G1 X153.739 Y101.106 E0.05442
G1 X153.920 Y102.832 E0.05442
G1 X153.998 Y104.566 E0.05442
G1 X153.972 Y106.301 E0.05442
G1 X153.842 Y108.032 E0.05442
G1 X153.609 Y109.752 E0.05442
G1 X153.274 Y111.455 E0.05442
G1 X152.837 Y113.135 E0.05442
G1 X152.301 Y114.785 E0.05442
G1 X151.667 Y116.401 E0.05442
G1 X151.182 Y117.447 E0.03614
G1 X150.937 Y117.976 E0.01828
G1 X150.115 Y119.504 E0.05442
G1 X149.202 Y120.980 E0.05442
G1 X148.203 Y122.400 E0.05442
G1 X147.121 Y123.756 E0.05442
G1 X145.960 Y125.046 E0.05442
M73 Q2 S26
G1 X144.724 Y126.264 E0.05442
G1 X143.417 Y127.406 E0.05442
G1 X142.044 Y128.468 E0.05442
M73 P2 R26
G1 X140.610 Y129.445 E0.05442
G1 X139.120 Y130.336 E0.05442
G1 X137.579 Y131.135 E0.05442
G1 X136.787 Y131.488 E0.02721
G1 X135.994 Y131.841 E0.02721
G1 X134.369 Y132.451 E0.05442
G1 X132.710 Y132.962 E0.05442
G1 X131.024 Y133.374 E0.05442
G1 X129.317 Y133.684 E0.05442
G1 X127.594 Y133.891 E0.05442
G1 X126.443 Y133.960 E0.03614
G1 X125.861 Y133.995 E0.01828
G1 X124.126 Y133.995 E0.05442
G1 X122.393 Y133.891 E0.05442
G1 X121.531 Y133.787 E0.02721
G1 X120.670 Y133.684 E0.02721
G1 X118.962 Y133.374 E0.05442
G1 X117.276 Y132.962 E0.05442
G1 X115.618 Y132.451 E0.05442
G1 X113.993 Y131.841 E0.05442
G1 X112.407 Y131.135 E0.05442
G1 X110.867 Y130.336 E0.05442
G1 X109.377 Y129.445 E0.05442
G1 X107.943 Y128.468 E0.05442
G1 X106.570 Y127.406 E0.05442
G1 X105.263 Y126.264 E0.05442
G1 X104.027 Y125.046 E0.05442
G1 X102.865 Y123.756 E0.05442
G1 X101.783 Y122.400 E0.05442
G1 X100.784 Y120.980 E0.05442
G1 X99.872 Y119.504 E0.05442
G1 X99.049 Y117.976 E0.05442
G1 X98.320 Y116.401 E0.05442
G1 X97.686 Y114.785 E0.05442
G1 X97.149 Y113.135 E0.05442
G1 X96.713 Y111.455 E0.05442
G1 X96.377 Y109.752 E0.05442
G1 X96.144 Y108.032 E0.05442
G1 X96.015 Y106.301 E0.05442
G1 X95.989 Y104.566 E0.05442
G1 X96.067 Y102.832 E0.05442
G1 X96.248 Y101.106 E0.05442
G1 X96.532 Y99.394 E0.05442
G1 X96.919 Y97.702 E0.05442
G1 X97.405 Y96.036 E0.05442
G1 X97.991 Y94.402 E0.05442
G1 X98.673 Y92.806 E0.05442
G1 X99.449 Y91.254 E0.05442
G1 X100.317 Y89.751 E0.05442
G1 X101.273 Y88.303 E0.05442
G1 X102.235 Y87.019 E0.05030
G1 X102.667 Y87.030 F10800.000
;WIPE_START
G1 F8640.000
G1 X103.436 Y85.590 E-0.43101
G1 X104.421 Y84.560 E-0.32899
;WIPE_END
G1 E-0.04000 F2100.000
G1 Z0.600 F10800.000
G1 X142.910 Y82.829
G1 Z0.200
G1 E0.80000 F2100.000
;TYPE:Solid infill
;WIDTH:0.42083
G1 F1200.000
G1 X144.900 Y84.818 E0.08842
G1 X146.060 Y86.032 E0.05275
G1 X147.156 Y87.326 E0.05330
G1 X148.007 Y88.460 E0.04456
G1 X141.557 Y82.011 E0.28661
G1 X140.962 Y81.578 E0.02312
G1 X139.933 Y80.921 E0.03837
G1 X149.103 Y90.091 E0.40752
G1 X149.835 Y91.357 E0.04594
G1 X138.652 Y80.174 E0.49698
G1 X138.051 Y79.839 E0.02159
G1 X137.533 Y79.589 E0.01809
G1 X150.402 Y92.459 E0.57191
G1 X150.715 Y93.084 E0.02197
G1 X150.880 Y93.471 E0.01324
G1 X136.504 Y79.095 E0.63886
G1 X135.599 Y78.724 E0.03075
G1 X151.279 Y94.405 E0.69683
G1 X151.603 Y95.263 E0.02884
G1 X134.720 Y78.380 E0.75028
G1 X133.909 Y78.103 E0.02695
G1 X151.902 Y96.096 E0.79961
G1 X152.136 Y96.865 E0.02524
G1 X133.120 Y77.849 E0.84507
M73 P2 R25
G1 X132.382 Y77.645 E0.02406
G1 X152.357 Y97.620 E0.88767
M73 P3 R25
M73 Q3 S25
G1 X152.535 Y98.333 E0.02310
G1 X131.649 Y77.447 E0.92816
G1 X130.970 Y77.303 E0.02180
G1 X152.693 Y99.025 E0.96535
G1 X152.837 Y99.703 E0.02177
G1 X130.292 Y77.158 E1.00188
G1 X129.645 Y77.046 E0.02062
G1 X152.943 Y100.344 E1.03535
G1 X153.050 Y100.985 E0.02041
G1 X129.016 Y76.951 E1.06804
G1 X128.387 Y76.856 E0.02000
G1 X153.127 Y101.596 E1.09943
G1 X153.189 Y102.194 E0.01887
G1 X127.799 Y76.803 E1.12835
G1 X127.211 Y76.750 E0.01853
G1 X153.252 Y102.791 E1.15725
G1 X153.283 Y103.356 E0.01779
G1 X126.628 Y76.702 E1.18451
M73 P4 R25
M73 Q4 S25
G1 X126.077 Y76.685 E0.01732
G1 X153.308 Y103.916 E1.21012
G1 X153.333 Y104.475 E0.01760
G1 X125.526 Y76.668 E1.23572
G1 X124.976 Y76.653 E0.01729
G1 X153.331 Y105.008 E1.26008
G1 X153.323 Y105.534 E0.01655
G1 X124.457 Y76.669 E1.28278
G1 X123.939 Y76.684 E0.01631
G1 X153.316 Y106.061 E1.30549
G1 X153.290 Y106.570 E0.01601
G1 X123.420 Y76.700 E1.32741
G1 X122.922 Y76.737 E0.01568
G1 X153.253 Y107.067 E1.34787
G1 X153.216 Y107.564 E0.01567
G1 X122.432 Y76.781 E1.36800
M73 P5 R25
M73 Q5 S25
G1 X121.942 Y76.825 E0.01547
G1 X153.173 Y108.056 E1.38789
G1 X153.109 Y108.527 E0.01493
G1 X121.460 Y76.878 E1.40648
G1 X120.995 Y76.948 E0.01476
G1 X153.045 Y108.998 E1.42428
G1 X152.982 Y109.468 E0.01493
G1 X120.531 Y77.018 E1.44209
G1 X120.067 Y77.088 E0.01476
G1 X152.903 Y109.924 E1.45922
G1 X152.815 Y110.370 E0.01430
G1 X119.619 Y77.174 E1.47520
G1 X119.178 Y77.268 E0.01416
G1 X152.727 Y110.817 E1.49088
M73 P6 R25
M73 Q6 S25
G1 X152.639 Y111.263 E0.01430
G1 X118.737 Y77.362 E1.50656
G1 X118.297 Y77.455 E0.01416
G1 X152.531 Y111.690 E1.52135
G1 X152.421 Y112.114 E0.01377
G1 X117.877 Y77.570 E1.53511
G1 X117.458 Y77.685 E0.01365
G1 X152.310 Y112.538 E1.54883
M73 P6 R24
G1 X152.199 Y112.962 E0.01376
G1 X117.039 Y77.801 E1.56251
M73 Q6 S24
G1 X116.621 Y77.918 E0.01363
G1 X152.068 Y113.365 E1.57526
M73 P7 R24
M73 Q7 S24
G1 X151.937 Y113.768 E0.01333
G1 X116.223 Y78.054 E1.58714
G1 X115.824 Y78.190 E0.01323
G1 X151.806 Y114.172 E1.59902
G1 X151.675 Y114.575 E0.01332
G1 X115.426 Y78.326 E1.61087
G1 X115.028 Y78.462 E0.01322
G1 X151.524 Y114.958 E1.62187
G1 X151.373 Y115.342 E0.01296
G1 X114.649 Y78.617 E1.63203
G1 X114.269 Y78.773 E0.01287
G1 X151.223 Y115.726 E1.64218
M73 P8 R24
M73 Q8 S24
G1 X151.072 Y116.110 E0.01296
G1 X113.890 Y78.928 E1.65233
G1 X113.511 Y79.083 E0.01287
G1 X150.904 Y116.477 E1.66172
G1 X150.735 Y116.842 E0.01265
G1 X113.148 Y79.255 E1.67034
G1 X112.788 Y79.429 E0.01258
G1 X150.566 Y117.207 E1.67885
G1 X150.397 Y117.572 E0.01265
G1 X112.427 Y79.602 E1.68736
G1 X112.066 Y79.776 E0.01258
G1 X150.215 Y117.925 E1.69532
M73 P9 R24
M73 Q9 S24
G1 X150.028 Y118.272 E0.01240
G1 X111.717 Y79.961 E1.70254
G1 X111.373 Y80.152 E0.01235
G1 X149.841 Y118.620 E1.70948
G1 X149.654 Y118.967 E0.01240
G1 X111.030 Y80.344 E1.71642
G1 X110.687 Y80.535 E0.01234
G1 X149.460 Y119.308 E1.72305
G1 X149.256 Y119.638 E0.01220
G1 X110.349 Y80.732 E1.72898
G1 X110.023 Y80.940 E0.01216
G1 X149.052 Y119.969 E1.73440
M73 P10 R24
M73 Q10 S24
G1 X148.848 Y120.299 E0.01220
G1 X109.697 Y81.148 E1.73982
G1 X109.371 Y81.357 E0.01216
G1 X148.643 Y120.629 E1.74522
G1 X148.422 Y120.942 E0.01205
G1 X109.045 Y81.565 E1.74990
M73 P10 R23
M73 Q10 S23
G1 X108.734 Y81.789 E0.01203
G1 X148.201 Y121.256 E1.75389
G1 X147.981 Y121.570 E0.01205
G1 X108.425 Y82.014 E1.75783
